assets/luts/Filmic_to_0-60_1-04.cube
LUT_1D_SIZE 4096
0.000000 0.000000 0.000000
0.000023 0.000023 0.000023
0.000045 0.000045 0.000045
0.000068 0.000068 0.000068
0.000090 0.000090 0.000090
0.000113 0.000113 0.000113
0.000136 0.000136 0.000136
0.000159 0.000159 0.000159
0.000181 0.000181 0.000181
0.000204 0.000204 0.000204
0.000227 0.000227 0.000227
0.000250 0.000250 0.000250
0.000273 0.000273 0.000273
0.000296 0.000296 0.000296
0.000319 0.000319 0.000319
0.000342 0.000342 0.000342
0.000365 0.000365 0.000365
0.000388 0.000388 0.000388
0.000412 0.000412 0.000412
0.000435 0.000435 0.000435
0.000458 0.000458 0.000458
0.000481 0.000481 0.000481
0.000505 0.000505 0.000505
0.000528 0.000528 0.000528
0.000551 0.000551 0.000551
0.000575 0.000575 0.000575
0.000598 0.000598 0.000598
0.000622 0.000622 0.000622
0.000646 0.000646 0.000646
0.000669 0.000669 0.000669
0.000693 0.000693 0.000693
0.000716 0.000716 0.000716
0.000740 0.000740 0.000740
0.000764 0.000764 0.000764
0.000788 0.000788 0.000788
0.000812 0.000812 0.000812
0.000835 0.000835 0.000835
0.000859 0.000859 0.000859
0.000883 0.000883 0.000883
0.000907 0.000907 0.000907
0.000931 0.000931 0.000931
0.000955 0.000955 0.000955
0.000980 0.000980 0.000980
0.001004 0.001004 0.001004
0.001028 0.001028 0.001028
0.001052 0.001052 0.001052
0.001076 0.001076 0.001076
0.001101 0.001101 0.001101
0.001125 0.001125 0.001125
0.001150 0.001150 0.001150
0.001174 0.001174 0.001174
0.001198 0.001198 0.001198
0.001223 0.001223 0.001223
0.001248 0.001248 0.001248
0.001272 0.001272 0.001272
0.001297 0.001297 0.001297
0.001321 0.001321 0.001321
0.001346 0.001346 0.001346
0.001371 0.001371 0.001371
0.001396 0.001396 0.001396
0.001421 0.001421 0.001421
0.001445 0.001445 0.001445
0.001470 0.001470 0.001470
0.001495 0.001495 0.001495
0.001520 0.001520 0.001520
0.001545 0.001545 0.001545
0.001570 0.001570 0.001570
0.001596 0.001596 0.001596
0.001621 0.001621 0.001621
0.001646 0.001646 0.001646
0.001671 0.001671 0.001671
0.001696 0.001696 0.001696
0.001722 0.001722 0.001722
0.001747 0.001747 0.001747
0.001773 0.001773 0.001773
0.001798 0.001798 0.001798
0.001824 0.001824 0.001824
0.001849 0.001849 0.001849
0.001875 0.001875 0.001875
0.001900 0.001900 0.001900
0.001926 0.001926 0.001926
0.001952 0.001952 0.001952
0.001977 0.001977 0.001977
0.002003 0.002003 0.002003
0.002029 0.002029 0.002029
0.002055 0.002055 0.002055
0.002081 0.002081 0.002081
0.002107 0.002107 0.002107
0.002133 0.002133 0.002133
0.002159 0.002159 0.002159
0.002185 0.002185 0.002185
0.002211 0.002211 0.002211
0.002237 0.002237 0.002237
0.002263 0.002263 0.002263
0.002290 0.002290 0.002290
0.002316 0.002316 0.002316
0.002342 0.002342 0.002342
0.002369 0.002369 0.002369
0.002395 0.002395 0.002395
0.002422 0.002422 0.002422
0.002448 0.002448 0.002448
0.002475 0.002475 0.002475
0.002501 0.002501 0.002501
0.002528 0.002528 0.002528
0.002555 0.002555 0.002555
0.002581 0.002581 0.002581
0.002608 0.002608 0.002608
0.002635 0.002635 0.002635
0.002662 0.002662 0.002662
0.002689 0.002689 0.002689
0.002716 0.002716 0.002716
0.002743 0.002743 0.002743
0.002770 0.002770 0.002770
0.002797 0.002797 0.002797
0.002824 0.002824 0.002824
0.002851 0.002851 0.002851
0.002879 0.002879 0.002879
0.002906 0.002906 0.002906
0.002933 0.002933 0.002933
0.002960 0.002960 0.002960
0.002988 0.002988 0.002988
0.003015 0.003015 0.003015
0.003043 0.003043 0.003043
0.003070 0.003070 0.003070
0.003098 0.003098 0.003098
0.003126 0.003126 0.003126
0.003153 0.003153 0.003153
0.003181 0.003181 0.003181
0.003209 0.003209 0.003209
0.003236 0.003236 0.003236
0.003264 0.003264 0.003264
0.003292 0.003292 0.003292
0.003320 0.003320 0.003320
0.003348 0.003348 0.003348
0.003376 0.003376 0.003376
0.003404 0.003404 0.003404
0.003432 0.003432 0.003432
0.003461 0.003461 0.003461
0.003489 0.003489 0.003489
0.003517 0.003517 0.003517
0.003545 0.003545 0.003545
0.003574 0.003574 0.003574
0.003602 0.003602 0.003602
0.003631 0.003631 0.003631
0.003659 0.003659 0.003659
0.003688 0.003688 0.003688
0.003716 0.003716 0.003716
0.003745 0.003745 0.003745
0.003774 0.003774 0.003774
0.003802 0.003802 0.003802
0.003831 0.003831 0.003831
0.003860 0.003860 0.003860
0.003889 0.003889 0.003889
0.003918 0.003918 0.003918
0.003947 0.003947 0.003947
0.003976 0.003976 0.003976
0.004005 0.004005 0.004005
0.004034 0.004034 0.004034
0.004063 0.004063 0.004063
0.004092 0.004092 0.004092
0.004121 0.004121 0.004121
0.004151 0.004151 0.004151
0.004180 0.004180 0.004180
0.004210 0.004210 0.004210
0.004239 0.004239 0.004239
0.004268 0.004268 0.004268
0.004298 0.004298 0.004298
0.004328 0.004328 0.004328
0.004357 0.004357 0.004357
0.004387 0.004387 0.004387
0.004417 0.004417 0.004417
0.004446 0.004446 0.004446
0.004476 0.004476 0.004476
0.004506 0.004506 0.004506
0.004536 0.004536 0.004536
0.004566 0.004566 0.004566
0.004596 0.004596 0.004596
0.004626 0.004626 0.004626
0.004656 0.004656 0.004656
0.004686 0.004686 0.004686
0.004717 0.004717 0.004717
0.004747 0.004747 0.004747
0.004777 0.004777 0.004777
0.004808 0.004808 0.004808
0.004838 0.004838 0.004838
0.004869 0.004869 0.004869
0.004899 0.004899 0.004899
0.004930 0.004930 0.004930
0.004960 0.004960 0.004960
0.004991 0.004991 0.004991
0.005022 0.005022 0.005022
0.005052 0.005052 0.005052
0.005083 0.005083 0.005083
0.005114 0.005114 0.005114
0.005145 0.005145 0.005145
0.005176 0.005176 0.005176
0.005207 0.005207 0.005207
0.005238 0.005238 0.005238
0.005269 0.005269 0.005269
0.005300 0.005300 0.005300
0.005332 0.005332 0.005332
0.005363 0.005363 0.005363
0.005394 0.005394 0.005394
0.005426 0.005426 0.005426
0.005457 0.005457 0.005457
0.005488 0.005488 0.005488
0.005520 0.005520 0.005520
0.005552 0.005552 0.005552
0.005583 0.005583 0.005583
0.005615 0.005615 0.005615
0.005647 0.005647 0.005647
0.005678 0.005678 0.005678
0.005710 0.005710 0.005710
0.005742 0.005742 0.005742
0.005774 0.005774 0.005774
0.005806 0.005806 0.005806
0.005838 0.005838 0.005838
0.005870 0.005870 0.005870
0.005902 0.005902 0.005902
0.005935 0.005935 0.005935
0.005967 0.005967 0.005967
0.005999 0.005999 0.005999
0.006032 0.006032 0.006032
0.006064 0.006064 0.006064
0.006096 0.006096 0.006096
0.006129 0.006129 0.006129
0.006162 0.006162 0.006162
0.006194 0.006194 0.006194
0.006227 0.006227 0.006227
0.006260 0.006260 0.006260
0.006292 0.006292 0.006292
0.006325 0.006325 0.006325
0.006358 0.006358 0.006358
0.006391 0.006391 0.006391
0.006424 0.006424 0.006424
0.006457 0.006457 0.006457
0.006490 0.006490 0.006490
0.006523 0.006523 0.006523
0.006557 0.006557 0.006557
0.006590 0.006590 0.006590
0.006623 0.006623 0.006623
0.006657 0.006657 0.006657
0.006690 0.006690 0.006690
0.006723 0.006723 0.006723
0.006757 0.006757 0.006757
0.006791 0.006791 0.006791
0.006824 0.006824 0.006824
0.006858 0.006858 0.006858
0.006892 0.006892 0.006892
0.006926 0.006926 0.006926
0.006959 0.006959 0.006959
0.006993 0.006993 0.006993
0.007027 0.007027 0.007027
0.007061 0.007061 0.007061
0.007095 0.007095 0.007095
0.007130 0.007130 0.007130
0.007164 0.007164 0.007164
0.007198 0.007198 0.007198
0.007232 0.007232 0.007232
0.007267 0.007267 0.007267
0.007301 0.007301 0.007301
0.007336 0.007336 0.007336
0.007370 0.007370 0.007370
0.007405 0.007405 0.007405
0.007439 0.007439 0.007439
0.007474 0.007474 0.007474
0.007509 0.007509 0.007509
0.007544 0.007544 0.007544
0.007579 0.007579 0.007579
0.007614 0.007614 0.007614
0.007649 0.007649 0.007649
0.007684 0.007684 0.007684
0.007719 0.007719 0.007719
0.007754 0.007754 0.007754
0.007789 0.007789 0.007789
0.007824 0.007824 0.007824
0.007860 0.007860 0.007860
0.007895 0.007895 0.007895
0.007930 0.007930 0.007930
0.007966 0.007966 0.007966
0.008002 0.008002 0.008002
0.008037 0.008037 0.008037
0.008073 0.008073 0.008073
0.008109 0.008109 0.008109
0.008144 0.008144 0.008144
0.008180 0.008180 0.008180
0.008216 0.008216 0.008216
0.008252 0.008252 0.008252
0.008288 0.008288 0.008288
0.008324 0.008324 0.008324
0.008360 0.008360 0.008360
0.008397 0.008397 0.008397
0.008433 0.008433 0.008433
0.008469 0.008469 0.008469
0.008505 0.008505 0.008505
0.008542 0.008542 0.008542
0.008578 0.008578 0.008578
0.008615 0.008615 0.008615
0.008652 0.008652 0.008652
0.008688 0.008688 0.008688
0.008725 0.008725 0.008725
0.008762 0.008762 0.008762
0.008799 0.008799 0.008799
0.008836 0.008836 0.008836
0.008873 0.008873 0.008873
0.008910 0.008910 0.008910
0.008947 0.008947 0.008947
0.008984 0.008984 0.008984
0.009021 0.009021 0.009021
0.009058 0.009058 0.009058
0.009096 0.009096 0.009096
0.009133 0.009133 0.009133
0.009170 0.009170 0.009170
0.009208 0.009208 0.009208
0.009246 0.009246 0.009246
0.009283 0.009283 0.009283
0.009321 0.009321 0.009321
0.009359 0.009359 0.009359
0.009396 0.009396 0.009396
0.009434 0.009434 0.009434
0.009472 0.009472 0.009472
0.009510 0.009510 0.009510
0.009548 0.009548 0.009548
0.009586 0.009586 0.009586
0.009625 0.009625 0.009625
0.009663 0.009663 0.009663
0.009701 0.009701 0.009701
0.009740 0.009740 0.009740
0.009778 0.009778 0.009778
0.009817 0.009817 0.009817
0.009855 0.009855 0.009855
0.009894 0.009894 0.009894
0.009932 0.009932 0.009932
0.009971 0.009971 0.009971
0.010010 0.010010 0.010010
0.010049 0.010049 0.010049
0.010088 0.010088 0.010088
0.010127 0.010127 0.010127
0.010166 0.010166 0.010166
0.010205 0.010205 0.010205
0.010244 0.010244 0.010244
0.010283 0.010283 0.010283
0.010323 0.010323 0.010323
0.010362 0.010362 0.010362
0.010402 0.010402 0.010402
0.010441 0.010441 0.010441
0.010481 0.010481 0.010481
0.010520 0.010520 0.010520
0.010560 0.010560 0.010560
0.010600 0.010600 0.010600
0.010640 0.010640 0.010640
0.010679 0.010679 0.010679
0.010719 0.010719 0.010719
0.010759 0.010759 0.010759
0.010799 0.010799 0.010799
0.010840 0.010840 0.010840
0.010880 0.010880 0.010880
0.010920 0.010920 0.010920
0.010960 0.010960 0.010960
0.011001 0.011001 0.011001
0.011041 0.011041 0.011041
0.011082 0.011082 0.011082
0.011123 0.011123 0.011123
0.011163 0.011163 0.011163
0.011204 0.011204 0.011204
0.011245 0.011245 0.011245
0.011286 0.011286 0.011286
0.011327 0.011327 0.011327
0.011368 0.011368 0.011368
0.011409 0.011409 0.011409
0.011450 0.011450 0.011450
0.011491 0.011491 0.011491
0.011532 0.011532 0.011532
0.011574 0.011574 0.011574
0.011615 0.011615 0.011615
0.011656 0.011656 0.011656
0.011698 0.011698 0.011698
0.011740 0.011740 0.011740
0.011781 0.011781 0.011781
0.011823 0.011823 0.011823
0.011865 0.011865 0.011865
0.011907 0.011907 0.011907
0.011949 0.011949 0.011949
0.011991 0.011991 0.011991
0.012033 0.012033 0.012033
0.012075 0.012075 0.012075
0.012117 0.012117 0.012117
0.012159 0.012159 0.012159
0.012202 0.012202 0.012202
0.012244 0.012244 0.012244
0.012286 0.012286 0.012286
0.012329 0.012329 0.012329
0.012372 0.012372 0.012372
0.012414 0.012414 0.012414
0.012457 0.012457 0.012457
0.012500 0.012500 0.012500
0.012543 0.012543 0.012543
0.012586 0.012586 0.012586
0.012629 0.012629 0.012629
0.012672 0.012672 0.012672
0.012715 0.012715 0.012715
0.012758 0.012758 0.012758
0.012802 0.012802 0.012802
0.012845 0.012845 0.012845
0.012888 0.012888 0.012888
0.012932 0.012932 0.012932
0.012976 0.012976 0.012976
0.013019 0.013019 0.013019
0.013063 0.013063 0.013063
0.013107 0.013107 0.013107
0.013151 0.013151 0.013151
0.013195 0.013195 0.013195
0.013239 0.013239 0.013239
0.013283 0.013283 0.013283
0.013327 0.013327 0.013327
0.013371 0.013371 0.013371
0.013415 0.013415 0.013415
0.013460 0.013460 0.013460
0.013504 0.013504 0.013504
0.013549 0.013549 0.013549
0.013593 0.013593 0.013593
0.013638 0.013638 0.013638
0.013683 0.013683 0.013683
0.013727 0.013727 0.013727
0.013772 0.013772 0.013772
0.013817 0.013817 0.013817
0.013862 0.013862 0.013862
0.013907 0.013907 0.013907
0.013953 0.013953 0.013953
0.013998 0.013998 0.013998
0.014043 0.014043 0.014043
0.014088 0.014088 0.014088
0.014134 0.014134 0.014134
0.014179 0.014179 0.014179
0.014225 0.014225 0.014225
0.014271 0.014271 0.014271
0.014316 0.014316 0.014316
0.014362 0.014362 0.014362
0.014408 0.014408 0.014408
0.014454 0.014454 0.014454
0.014500 0.014500 0.014500
0.014546 0.014546 0.014546
0.014592 0.014592 0.014592
0.014639 0.014639 0.014639
0.014685 0.014685 0.014685
0.014731 0.014731 0.014731
0.014778 0.014778 0.014778
0.014825 0.014825 0.014825
0.014871 0.014871 0.014871
0.014918 0.014918 0.014918
0.014965 0.014965 0.014965
0.015011 0.015011 0.015011
0.015058 0.015058 0.015058
0.015105 0.015105 0.015105
0.015153 0.015153 0.015153
0.015200 0.015200 0.015200
0.015247 0.015247 0.015247
0.015294 0.015294 0.015294
0.015342 0.015342 0.015342
0.015389 0.015389 0.015389
0.015437 0.015437 0.015437
0.015484 0.015484 0.015484
0.015532 0.015532 0.015532
0.015580 0.015580 0.015580
0.015628 0.015628 0.015628
0.015675 0.015675 0.015675
0.015723 0.015723 0.015723
0.015772 0.015772 0.015772
0.015820 0.015820 0.015820
0.015868 0.015868 0.015868
0.015916 0.015916 0.015916
0.015965 0.015965 0.015965
0.016013 0.016013 0.016013
0.016062 0.016062 0.016062
0.016110 0.016110 0.016110
0.016159 0.016159 0.016159
0.016208 0.016208 0.016208
0.016257 0.016257 0.016257
0.016306 0.016306 0.016306
0.016355 0.016355 0.016355
0.016404 0.016404 0.016404
0.016453 0.016453 0.016453
0.016502 0.016502 0.016502
0.016551 0.016551 0.016551
0.016601 0.016601 0.016601
0.016650 0.016650 0.016650
0.016700 0.016700 0.016700
0.016749 0.016749 0.016749
0.016799 0.016799 0.016799
0.016849 0.016849 0.016849
0.016899 0.016899 0.016899
0.016949 0.016949 0.016949
0.016999 0.016999 0.016999
0.017049 0.017049 0.017049
0.017099 0.017099 0.017099
0.017149 0.017149 0.017149
0.017200 0.017200 0.017200
0.017250 0.017250 0.017250
0.017301 0.017301 0.017301
0.017351 0.017351 0.017351
0.017402 0.017402 0.017402
0.017453 0.017453 0.017453
0.017504 0.017504 0.017504
0.017555 0.017555 0.017555
0.017606 0.017606 0.017606
0.017657 0.017657 0.017657
0.017708 0.017708 0.017708
0.017759 0.017759 0.017759
0.017810 0.017810 0.017810
0.017862 0.017862 0.017862
0.017913 0.017913 0.017913
0.017965 0.017965 0.017965
0.018017 0.018017 0.018017
0.018068 0.018068 0.018068
0.018120 0.018120 0.018120
0.018172 0.018172 0.018172
0.018224 0.018224 0.018224
0.018276 0.018276 0.018276
0.018328 0.018328 0.018328
0.018381 0.018381 0.018381
0.018433 0.018433 0.018433
0.018485 0.018485 0.018485
0.018538 0.018538 0.018538
0.018590 0.018590 0.018590
0.018643 0.018643 0.018643
0.018696 0.018696 0.018696
0.018749 0.018749 0.018749
0.018801 0.018801 0.018801
0.018854 0.018854 0.018854
0.018908 0.018908 0.018908
0.018961 0.018961 0.018961
0.019014 0.019014 0.019014
0.019067 0.019067 0.019067
0.019121 0.019121 0.019121
0.019174 0.019174 0.019174
0.019228 0.019228 0.019228
0.019282 0.019282 0.019282
0.019335 0.019335 0.019335
0.019389 0.019389 0.019389
0.019443 0.019443 0.019443
0.019497 0.019497 0.019497
0.019551 0.019551 0.019551
0.019605 0.019605 0.019605
0.019660 0.019660 0.019660
0.019714 0.019714 0.019714
0.019769 0.019769 0.019769
0.019823 0.019823 0.019823
0.019878 0.019878 0.019878
0.019932 0.019932 0.019932
0.019987 0.019987 0.019987
0.020042 0.020042 0.020042
0.020097 0.020097 0.020097
0.020152 0.020152 0.020152
0.020207 0.020207 0.020207
0.020263 0.020263 0.020263
0.020318 0.020318 0.020318
0.020373 0.020373 0.020373
0.020429 0.020429 0.020429
0.020484 0.020484 0.020484
0.020540 0.020540 0.020540
0.020596 0.020596 0.020596
0.020652 0.020652 0.020652
0.020708 0.020708 0.020708
0.020764 0.020764 0.020764
0.020820 0.020820 0.020820
0.020876 0.020876 0.020876
0.020932 0.020932 0.020932
0.020989 0.020989 0.020989
0.021045 0.021045 0.021045
0.021102 0.021102 0.021102
0.021158 0.021158 0.021158
0.021215 0.021215 0.021215
0.021272 0.021272 0.021272
0.021329 0.021329 0.021329
0.021386 0.021386 0.021386
0.021443 0.021443 0.021443
0.021500 0.021500 0.021500
0.021558 0.021558 0.021558
0.021615 0.021615 0.021615
0.021672 0.021672 0.021672
0.021730 0.021730 0.021730
0.021788 0.021788 0.021788
0.021845 0.021845 0.021845
0.021903 0.021903 0.021903
0.021961 0.021961 0.021961
0.022019 0.022019 0.022019
0.022077 0.022077 0.022077
0.022135 0.022135 0.022135
0.022194 0.022194 0.022194
0.022252 0.022252 0.022252
0.022311 0.022311 0.022311
0.022369 0.022369 0.022369
0.022428 0.022428 0.022428
0.022487 0.022487 0.022487
0.022546 0.022546 0.022546
0.022605 0.022605 0.022605
0.022664 0.022664 0.022664
0.022723 0.022723 0.022723
0.022782 0.022782 0.022782
0.022841 0.022841 0.022841
0.022901 0.022901 0.022901
0.022960 0.022960 0.022960
0.023020 0.023020 0.023020
0.023080 0.023080 0.023080
0.023139 0.023139 0.023139
0.023199 0.023199 0.023199
0.023259 0.023259 0.023259
0.023319 0.023319 0.023319
0.023379 0.023379 0.023379
0.023440 0.023440 0.023440
0.023500 0.023500 0.023500
0.023561 0.023561 0.023561
0.023621 0.023621 0.023621
0.023682 0.023682 0.023682
0.023743 0.023743 0.023743
0.023803 0.023803 0.023803
0.023864 0.023864 0.023864
0.023925 0.023925 0.023925
0.023987 0.023987 0.023987
0.024048 0.024048 0.024048
0.024109 0.024109 0.024109
0.024170 0.024170 0.024170
0.024232 0.024232 0.024232
0.024294 0.024294 0.024294
0.024355 0.024355 0.024355
0.024417 0.024417 0.024417
0.024479 0.024479 0.024479
0.024541 0.024541 0.024541
0.024603 0.024603 0.024603
0.024665 0.024665 0.024665
0.024728 0.024728 0.024728
0.024790 0.024790 0.024790
0.024853 0.024853 0.024853
0.024915 0.024915 0.024915
0.024978 0.024978 0.024978
0.025041 0.025041 0.025041
0.025104 0.025104 0.025104
0.025167 0.025167 0.025167
0.025230 0.025230 0.025230
0.025293 0.025293 0.025293
0.025356 0.025356 0.025356
0.025420 0.025420 0.025420
0.025483 0.025483 0.025483
0.025547 0.025547 0.025547
0.025610 0.025610 0.025610
0.025674 0.025674 0.025674
0.025738 0.025738 0.025738
0.025802 0.025802 0.025802
0.025866 0.025866 0.025866
0.025930 0.025930 0.025930
0.025995 0.025995 0.025995
0.026059 0.026059 0.026059
0.026124 0.026124 0.026124
0.026188 0.026188 0.026188
0.026253 0.026253 0.026253
0.026318 0.026318 0.026318
0.026383 0.026383 0.026383
0.026448 0.026448 0.026448
0.026513 0.026513 0.026513
0.026578 0.026578 0.026578
0.026643 0.026643 0.026643
0.026709 0.026709 0.026709
0.026774 0.026774 0.026774
0.026840 0.026840 0.026840
0.026906 0.026906 0.026906
0.026972 0.026972 0.026972
0.027038 0.027038 0.027038
0.027104 0.027104 0.027104
0.027170 0.027170 0.027170
0.027236 0.027236 0.027236
0.027302 0.027302 0.027302
0.027369 0.027369 0.027369
0.027435 0.027435 0.027435
0.027502 0.027502 0.027502
0.027569 0.027569 0.027569
0.027636 0.027636 0.027636
0.027703 0.027703 0.027703
0.027770 0.027770 0.027770
0.027837 0.027837 0.027837
0.027904 0.027904 0.027904
0.027972 0.027972 0.027972
0.028039 0.028039 0.028039
0.028107 0.028107 0.028107
0.028175 0.028175 0.028175
0.028242 0.028242 0.028242
0.028310 0.028310 0.028310
0.028378 0.028378 0.028378
0.028447 0.028447 0.028447
0.028515 0.028515 0.028515
0.028583 0.028583 0.028583
0.028652 0.028652 0.028652
0.028720 0.028720 0.028720
0.028789 0.028789 0.028789
0.028858 0.028858 0.028858
0.028927 0.028927 0.028927
0.028996 0.028996 0.028996
0.029065 0.029065 0.029065
0.029134 0.029134 0.029134
0.029203 0.029203 0.029203
0.029273 0.029273 0.029273
0.029342 0.029342 0.029342
0.029412 0.029412 0.029412
0.029482 0.029482 0.029482
0.029552 0.029552 0.029552
0.029622 0.029622 0.029622
0.029692 0.029692 0.029692
0.029762 0.029762 0.029762
0.029832 0.029832 0.029832
0.029903 0.029903 0.029903
0.029973 0.029973 0.029973
0.030044 0.030044 0.030044
0.030115 0.030115 0.030115
0.030186 0.030186 0.030186
0.030257 0.030257 0.030257
0.030328 0.030328 0.030328
0.030399 0.030399 0.030399
0.030470 0.030470 0.030470
0.030542 0.030542 0.030542
0.030613 0.030613 0.030613
0.030685 0.030685 0.030685
0.030757 0.030757 0.030757
0.030829 0.030829 0.030829
0.030900 0.030900 0.030900
0.030973 0.030973 0.030973
0.031045 0.031045 0.031045
0.031117 0.031117 0.031117
0.031190 0.031190 0.031190
0.031262 0.031262 0.031262
0.031335 0.031335 0.031335
0.031408 0.031408 0.031408
0.031481 0.031481 0.031481
0.031554 0.031554 0.031554
0.031627 0.031627 0.031627
0.031700 0.031700 0.031700
0.031773 0.031773 0.031773
0.031847 0.031847 0.031847
0.031920 0.031920 0.031920
0.031994 0.031994 0.031994
0.032068 0.032068 0.032068
0.032142 0.032142 0.032142
0.032216 0.032216 0.032216
0.032290 0.032290 0.032290
0.032364 0.032364 0.032364
0.032439 0.032439 0.032439
0.032513 0.032513 0.032513
0.032588 0.032588 0.032588
0.032662 0.032662 0.032662
0.032737 0.032737 0.032737
0.032812 0.032812 0.032812
0.032887 0.032887 0.032887
0.032963 0.032963 0.032963
0.033038 0.033038 0.033038
0.033113 0.033113 0.033113
0.033189 0.033189 0.033189
0.033265 0.033265 0.033265
0.033340 0.033340 0.033340
0.033416 0.033416 0.033416
0.033492 0.033492 0.033492
0.033569 0.033569 0.033569
0.033645 0.033645 0.033645
0.033721 0.033721 0.033721
0.033798 0.033798 0.033798
0.033874 0.033874 0.033874
0.033951 0.033951 0.033951
0.034028 0.034028 0.034028
0.034105 0.034105 0.034105
0.034182 0.034182 0.034182
0.034259 0.034259 0.034259
0.034337 0.034337 0.034337
0.034414 0.034414 0.034414
0.034492 0.034492 0.034492
0.034569 0.034569 0.034569
0.034647 0.034647 0.034647
0.034725 0.034725 0.034725
0.034803 0.034803 0.034803
0.034881 0.034881 0.034881
0.034960 0.034960 0.034960
0.035038 0.035038 0.035038
0.035117 0.035117 0.035117
0.035195 0.035195 0.035195
0.035274 0.035274 0.035274
0.035353 0.035353 0.035353
0.035432 0.035432 0.035432
0.035511 0.035511 0.035511
0.035590 0.035590 0.035590
0.035670 0.035670 0.035670
0.035749 0.035749 0.035749
0.035829 0.035829 0.035829
0.035909 0.035909 0.035909
0.035989 0.035989 0.035989
0.036069 0.036069 0.036069
0.036149 0.036149 0.036149
0.036229 0.036229 0.036229
0.036310 0.036310 0.036310
0.036390 0.036390 0.036390
0.036471 0.036471 0.036471
0.036552 0.036552 0.036552
0.036632 0.036632 0.036632
0.036713 0.036713 0.036713
0.036795 0.036795 0.036795
0.036876 0.036876 0.036876
0.036957 0.036957 0.036957
0.037039 0.037039 0.037039
0.037120 0.037120 0.037120
0.037202 0.037202 0.037202
0.037284 0.037284 0.037284
0.037366 0.037366 0.037366
0.037448 0.037448 0.037448
0.037531 0.037531 0.037531
0.037613 0.037613 0.037613
0.037696 0.037696 0.037696
0.037778 0.037778 0.037778
0.037861 0.037861 0.037861
0.037944 0.037944 0.037944
0.038027 0.038027 0.038027
0.038110 0.038110 0.038110
0.038193 0.038193 0.038193
0.038277 0.038277 0.038277
0.038360 0.038360 0.038360
0.038444 0.038444 0.038444
0.038528 0.038528 0.038528
0.038612 0.038612 0.038612
0.038696 0.038696 0.038696
0.038780 0.038780 0.038780
0.038865 0.038865 0.038865
0.038949 0.038949 0.038949
0.039034 0.039034 0.039034
0.039118 0.039118 0.039118
0.039203 0.039203 0.039203
0.039288 0.039288 0.039288
0.039373 0.039373 0.039373
0.039459 0.039459 0.039459
0.039544 0.039544 0.039544
0.039630 0.039630 0.039630
0.039715 0.039715 0.039715
0.039801 0.039801 0.039801
0.039887 0.039887 0.039887
0.039973 0.039973 0.039973
0.040059 0.040059 0.040059
0.040145 0.040145 0.040145
0.040232 0.040232 0.040232
0.040318 0.040318 0.040318
0.040405 0.040405 0.040405
0.040492 0.040492 0.040492
0.040579 0.040579 0.040579
0.040666 0.040666 0.040666
0.040753 0.040753 0.040753
0.040841 0.040841 0.040841
0.040928 0.040928 0.040928
0.041016 0.041016 0.041016
0.041104 0.041104 0.041104
0.041192 0.041192 0.041192
0.041280 0.041280 0.041280
0.041368 0.041368 0.041368
0.041456 0.041456 0.041456
0.041545 0.041545 0.041545
0.041633 0.041633 0.041633
0.041722 0.041722 0.041722
0.041811 0.041811 0.041811
0.041900 0.041900 0.041900
0.041989 0.041989 0.041989
0.042078 0.042078 0.042078
0.042168 0.042168 0.042168
0.042257 0.042257 0.042257
0.042347 0.042347 0.042347
0.042437 0.042437 0.042437
0.042527 0.042527 0.042527
0.042617 0.042617 0.042617
0.042707 0.042707 0.042707
0.042797 0.042797 0.042797
0.042888 0.042888 0.042888
0.042979 0.042979 0.042979
0.043069 0.043069 0.043069
0.043160 0.043160 0.043160
0.043251 0.043251 0.043251
0.043343 0.043343 0.043343
0.043434 0.043434 0.043434
0.043525 0.043525 0.043525
0.043617 0.043617 0.043617
0.043709 0.043709 0.043709
0.043801 0.043801 0.043801
0.043893 0.043893 0.043893
0.043985 0.043985 0.043985
0.044077 0.044077 0.044077
0.044170 0.044170 0.044170
0.044262 0.044262 0.044262
0.044355 0.044355 0.044355
0.044448 0.044448 0.044448
