assets/luts/Filmic_to_1.20_1-00.cube
LUT_1D_SIZE 4096
0.000000 0.000000 0.000000
0.000001 0.000001 0.000001
0.000002 0.000002 0.000002
0.000002 0.000002 0.000002
0.000003 0.000003 0.000003
0.000004 0.000004 0.000004
0.000005 0.000005 0.000005
0.000006 0.000006 0.000006
0.000007 0.000007 0.000007
0.000007 0.000007 0.000007
0.000008 0.000008 0.000008
0.000009 0.000009 0.000009
0.000010 0.000010 0.000010
0.000011 0.000011 0.000011
0.000012 0.000012 0.000012
0.000013 0.000013 0.000013
0.000013 0.000013 0.000013
0.000014 0.000014 0.000014
0.000015 0.000015 0.000015
0.000016 0.000016 0.000016
0.000017 0.000017 0.000017
0.000018 0.000018 0.000018
0.000019 0.000019 0.000019
0.000020 0.000020 0.000020
0.000020 0.000020 0.000020
0.000021 0.000021 0.000021
0.000022 0.000022 0.000022
0.000023 0.000023 0.000023
0.000024 0.000024 0.000024
0.000025 0.000025 0.000025
0.000026 0.000026 0.000026
0.000027 0.000027 0.000027
0.000028 0.000028 0.000028
0.000029 0.000029 0.000029
0.000029 0.000029 0.000029
0.000030 0.000030 0.000030
0.000031 0.000031 0.000031
0.000032 0.000032 0.000032
0.000033 0.000033 0.000033
0.000034 0.000034 0.000034
0.000035 0.000035 0.000035
0.000036 0.000036 0.000036
0.000037 0.000037 0.000037
0.000038 0.000038 0.000038
0.000039 0.000039 0.000039
0.000040 0.000040 0.000040
0.000041 0.000041 0.000041
0.000042 0.000042 0.000042
0.000043 0.000043 0.000043
0.000044 0.000044 0.000044
0.000044 0.000044 0.000044
0.000045 0.000045 0.000045
0.000046 0.000046 0.000046
0.000047 0.000047 0.000047
0.000048 0.000048 0.000048
0.000049 0.000049 0.000049
0.000050 0.000050 0.000050
0.000051 0.000051 0.000051
0.000052 0.000052 0.000052
0.000053 0.000053 0.000053
0.000054 0.000054 0.000054
0.000055 0.000055 0.000055
0.000056 0.000056 0.000056
0.000057 0.000057 0.000057
0.000058 0.000058 0.000058
0.000059 0.000059 0.000059
0.000060 0.000060 0.000060
0.000061 0.000061 0.000061
0.000062 0.000062 0.000062
0.000063 0.000063 0.000063
0.000064 0.000064 0.000064
0.000065 0.000065 0.000065
0.000067 0.000067 0.000067
0.000068 0.000068 0.000068
0.000069 0.000069 0.000069
0.000070 0.000070 0.000070
0.000071 0.000071 0.000071
0.000072 0.000072 0.000072
0.000073 0.000073 0.000073
0.000074 0.000074 0.000074
0.000075 0.000075 0.000075
0.000076 0.000076 0.000076
0.000077 0.000077 0.000077
0.000078 0.000078 0.000078
0.000079 0.000079 0.000079
0.000080 0.000080 0.000080
0.000081 0.000081 0.000081
0.000083 0.000083 0.000083
0.000084 0.000084 0.000084
0.000085 0.000085 0.000085
0.000086 0.000086 0.000086
0.000087 0.000087 0.000087
0.000088 0.000088 0.000088
0.000089 0.000089 0.000089
0.000090 0.000090 0.000090
0.000091 0.000091 0.000091
0.000093 0.000093 0.000093
0.000094 0.000094 0.000094
0.000095 0.000095 0.000095
0.000096 0.000096 0.000096
0.000097 0.000097 0.000097
0.000098 0.000098 0.000098
0.000099 0.000099 0.000099
0.000100 0.000100 0.000100
0.000102 0.000102 0.000102
0.000103 0.000103 0.000103
0.000104 0.000104 0.000104
0.000105 0.000105 0.000105
0.000106 0.000106 0.000106
0.000107 0.000107 0.000107
0.000109 0.000109 0.000109
0.000110 0.000110 0.000110
0.000111 0.000111 0.000111
0.000112 0.000112 0.000112
0.000113 0.000113 0.000113
0.000115 0.000115 0.000115
0.000116 0.000116 0.000116
0.000117 0.000117 0.000117
0.000118 0.000118 0.000118
0.000119 0.000119 0.000119
0.000121 0.000121 0.000121
0.000122 0.000122 0.000122
0.000123 0.000123 0.000123
0.000124 0.000124 0.000124
0.000126 0.000126 0.000126
0.000127 0.000127 0.000127
0.000128 0.000128 0.000128
0.000129 0.000129 0.000129
0.000131 0.000131 0.000131
0.000132 0.000132 0.000132
0.000133 0.000133 0.000133
0.000134 0.000134 0.000134
0.000136 0.000136 0.000136
0.000137 0.000137 0.000137
0.000138 0.000138 0.000138
0.000139 0.000139 0.000139
0.000141 0.000141 0.000141
0.000142 0.000142 0.000142
0.000143 0.000143 0.000143
0.000145 0.000145 0.000145
0.000146 0.000146 0.000146
0.000147 0.000147 0.000147
0.000149 0.000149 0.000149
0.000150 0.000150 0.000150
0.000151 0.000151 0.000151
0.000153 0.000153 0.000153
0.000154 0.000154 0.000154
0.000155 0.000155 0.000155
0.000157 0.000157 0.000157
0.000158 0.000158 0.000158
0.000159 0.000159 0.000159
0.000161 0.000161 0.000161
0.000162 0.000162 0.000162
0.000163 0.000163 0.000163
0.000165 0.000165 0.000165
0.000166 0.000166 0.000166
0.000167 0.000167 0.000167
0.000169 0.000169 0.000169
0.000170 0.000170 0.000170
0.000172 0.000172 0.000172
0.000173 0.000173 0.000173
0.000174 0.000174 0.000174
0.000176 0.000176 0.000176
0.000177 0.000177 0.000177
0.000179 0.000179 0.000179
0.000180 0.000180 0.000180
0.000181 0.000181 0.000181
0.000183 0.000183 0.000183
0.000184 0.000184 0.000184
0.000186 0.000186 0.000186
0.000187 0.000187 0.000187
0.000189 0.000189 0.000189
0.000190 0.000190 0.000190
0.000192 0.000192 0.000192
0.000193 0.000193 0.000193
0.000194 0.000194 0.000194
0.000196 0.000196 0.000196
0.000197 0.000197 0.000197
0.000199 0.000199 0.000199
0.000200 0.000200 0.000200
0.000202 0.000202 0.000202
0.000203 0.000203 0.000203
0.000205 0.000205 0.000205
0.000206 0.000206 0.000206
0.000208 0.000208 0.000208
0.000209 0.000209 0.000209
0.000211 0.000211 0.000211
0.000212 0.000212 0.000212
0.000214 0.000214 0.000214
0.000215 0.000215 0.000215
0.000217 0.000217 0.000217
0.000219 0.000219 0.000219
0.000220 0.000220 0.000220
0.000222 0.000222 0.000222
0.000223 0.000223 0.000223
0.000225 0.000225 0.000225
0.000226 0.000226 0.000226
0.000228 0.000228 0.000228
0.000230 0.000230 0.000230
0.000231 0.000231 0.000231
0.000233 0.000233 0.000233
0.000234 0.000234 0.000234
0.000236 0.000236 0.000236
0.000238 0.000238 0.000238
0.000239 0.000239 0.000239
0.000241 0.000241 0.000241
0.000242 0.000242 0.000242
0.000244 0.000244 0.000244
0.000246 0.000246 0.000246
0.000247 0.000247 0.000247
0.000249 0.000249 0.000249
0.000251 0.000251 0.000251
0.000252 0.000252 0.000252
0.000254 0.000254 0.000254
0.000256 0.000256 0.000256
0.000257 0.000257 0.000257
0.000259 0.000259 0.000259
0.000261 0.000261 0.000261
0.000262 0.000262 0.000262
0.000264 0.000264 0.000264
0.000266 0.000266 0.000266
0.000267 0.000267 0.000267
0.000269 0.000269 0.000269
0.000271 0.000271 0.000271
0.000273 0.000273 0.000273
0.000274 0.000274 0.000274
0.000276 0.000276 0.000276
0.000278 0.000278 0.000278
0.000280 0.000280 0.000280
0.000281 0.000281 0.000281
0.000283 0.000283 0.000283
0.000285 0.000285 0.000285
0.000287 0.000287 0.000287
0.000288 0.000288 0.000288
0.000290 0.000290 0.000290
0.000292 0.000292 0.000292
0.000294 0.000294 0.000294
0.000296 0.000296 0.000296
0.000297 0.000297 0.000297
0.000299 0.000299 0.000299
0.000301 0.000301 0.000301
0.000303 0.000303 0.000303
0.000305 0.000305 0.000305
0.000307 0.000307 0.000307
0.000308 0.000308 0.000308
0.000310 0.000310 0.000310
0.000312 0.000312 0.000312
0.000314 0.000314 0.000314
0.000316 0.000316 0.000316
0.000318 0.000318 0.000318
0.000320 0.000320 0.000320
0.000321 0.000321 0.000321
0.000323 0.000323 0.000323
0.000325 0.000325 0.000325
0.000327 0.000327 0.000327
0.000329 0.000329 0.000329
0.000331 0.000331 0.000331
0.000333 0.000333 0.000333
0.000335 0.000335 0.000335
0.000337 0.000337 0.000337
0.000339 0.000339 0.000339
0.000341 0.000341 0.000341
0.000343 0.000343 0.000343
0.000345 0.000345 0.000345
0.000347 0.000347 0.000347
0.000349 0.000349 0.000349
0.000351 0.000351 0.000351
0.000353 0.000353 0.000353
0.000355 0.000355 0.000355
0.000357 0.000357 0.000357
0.000359 0.000359 0.000359
0.000361 0.000361 0.000361
0.000363 0.000363 0.000363
0.000365 0.000365 0.000365
0.000367 0.000367 0.000367
0.000369 0.000369 0.000369
0.000371 0.000371 0.000371
0.000373 0.000373 0.000373
0.000375 0.000375 0.000375
0.000377 0.000377 0.000377
0.000379 0.000379 0.000379
0.000381 0.000381 0.000381
0.000383 0.000383 0.000383
0.000385 0.000385 0.000385
0.000388 0.000388 0.000388
0.000390 0.000390 0.000390
0.000392 0.000392 0.000392
0.000394 0.000394 0.000394
0.000396 0.000396 0.000396
0.000398 0.000398 0.000398
0.000400 0.000400 0.000400
0.000403 0.000403 0.000403
0.000405 0.000405 0.000405
0.000407 0.000407 0.000407
0.000409 0.000409 0.000409
0.000411 0.000411 0.000411
0.000413 0.000413 0.000413
0.000416 0.000416 0.000416
0.000418 0.000418 0.000418
0.000420 0.000420 0.000420
0.000422 0.000422 0.000422
0.000425 0.000425 0.000425
0.000427 0.000427 0.000427
0.000429 0.000429 0.000429
0.000431 0.000431 0.000431
0.000434 0.000434 0.000434
0.000436 0.000436 0.000436
0.000438 0.000438 0.000438
0.000440 0.000440 0.000440
0.000443 0.000443 0.000443
0.000445 0.000445 0.000445
0.000447 0.000447 0.000447
0.000450 0.000450 0.000450
0.000452 0.000452 0.000452
0.000454 0.000454 0.000454
0.000457 0.000457 0.000457
0.000459 0.000459 0.000459
0.000461 0.000461 0.000461
0.000464 0.000464 0.000464
0.000466 0.000466 0.000466
0.000468 0.000468 0.000468
0.000471 0.000471 0.000471
0.000473 0.000473 0.000473
0.000476 0.000476 0.000476
0.000478 0.000478 0.000478
0.000480 0.000480 0.000480
0.000483 0.000483 0.000483
0.000485 0.000485 0.000485
0.000488 0.000488 0.000488
0.000490 0.000490 0.000490
0.000493 0.000493 0.000493
0.000495 0.000495 0.000495
0.000498 0.000498 0.000498
0.000500 0.000500 0.000500
0.000503 0.000503 0.000503
0.000505 0.000505 0.000505
0.000508 0.000508 0.000508
0.000510 0.000510 0.000510
0.000513 0.000513 0.000513
0.000515 0.000515 0.000515
0.000518 0.000518 0.000518
0.000520 0.000520 0.000520
0.000523 0.000523 0.000523
0.000525 0.000525 0.000525
0.000528 0.000528 0.000528
0.000531 0.000531 0.000531
0.000533 0.000533 0.000533
0.000536 0.000536 0.000536
0.000538 0.000538 0.000538
0.000541 0.000541 0.000541
0.000544 0.000544 0.000544
0.000546 0.000546 0.000546
0.000549 0.000549 0.000549
0.000552 0.000552 0.000552
0.000554 0.000554 0.000554
0.000557 0.000557 0.000557
0.000560 0.000560 0.000560
0.000562 0.000562 0.000562
0.000565 0.000565 0.000565
0.000568 0.000568 0.000568
0.000571 0.000571 0.000571
0.000573 0.000573 0.000573
0.000576 0.000576 0.000576
0.000579 0.000579 0.000579
0.000582 0.000582 0.000582
0.000584 0.000584 0.000584
0.000587 0.000587 0.000587
0.000590 0.000590 0.000590
0.000593 0.000593 0.000593
0.000595 0.000595 0.000595
0.000598 0.000598 0.000598
0.000601 0.000601 0.000601
0.000604 0.000604 0.000604
0.000607 0.000607 0.000607
0.000610 0.000610 0.000610
0.000612 0.000612 0.000612
0.000615 0.000615 0.000615
0.000618 0.000618 0.000618
0.000621 0.000621 0.000621
0.000624 0.000624 0.000624
0.000627 0.000627 0.000627
0.000630 0.000630 0.000630
0.000633 0.000633 0.000633
0.000636 0.000636 0.000636
0.000639 0.000639 0.000639
0.000642 0.000642 0.000642
0.000645 0.000645 0.000645
0.000648 0.000648 0.000648
0.000651 0.000651 0.000651
0.000654 0.000654 0.000654
0.000657 0.000657 0.000657
0.000660 0.000660 0.000660
0.000663 0.000663 0.000663
0.000666 0.000666 0.000666
0.000669 0.000669 0.000669
0.000672 0.000672 0.000672
0.000675 0.000675 0.000675
0.000678 0.000678 0.000678
0.000681 0.000681 0.000681
0.000684 0.000684 0.000684
0.000687 0.000687 0.000687
0.000690 0.000690 0.000690
0.000693 0.000693 0.000693
0.000697 0.000697 0.000697
0.000700 0.000700 0.000700
0.000703 0.000703 0.000703
0.000706 0.000706 0.000706
0.000709 0.000709 0.000709
0.000713 0.000713 0.000713
0.000716 0.000716 0.000716
0.000719 0.000719 0.000719
0.000722 0.000722 0.000722
0.000725 0.000725 0.000725
0.000729 0.000729 0.000729
0.000732 0.000732 0.000732
0.000735 0.000735 0.000735
0.000738 0.000738 0.000738
0.000742 0.000742 0.000742
0.000745 0.000745 0.000745
0.000748 0.000748 0.000748
0.000752 0.000752 0.000752
0.000755 0.000755 0.000755
0.000758 0.000758 0.000758
0.000762 0.000762 0.000762
0.000765 0.000765 0.000765
0.000769 0.000769 0.000769
0.000772 0.000772 0.000772
0.000775 0.000775 0.000775
0.000779 0.000779 0.000779
0.000782 0.000782 0.000782
0.000786 0.000786 0.000786
0.000789 0.000789 0.000789
0.000793 0.000793 0.000793
0.000796 0.000796 0.000796
0.000799 0.000799 0.000799
0.000803 0.000803 0.000803
0.000806 0.000806 0.000806
0.000810 0.000810 0.000810
0.000814 0.000814 0.000814
0.000817 0.000817 0.000817
0.000821 0.000821 0.000821
0.000824 0.000824 0.000824
0.000828 0.000828 0.000828
0.000831 0.000831 0.000831
0.000835 0.000835 0.000835
0.000839 0.000839 0.000839
0.000842 0.000842 0.000842
0.000846 0.000846 0.000846
0.000850 0.000850 0.000850
0.000853 0.000853 0.000853
0.000857 0.000857 0.000857
0.000861 0.000861 0.000861
0.000864 0.000864 0.000864
0.000868 0.000868 0.000868
0.000872 0.000872 0.000872
0.000875 0.000875 0.000875
0.000879 0.000879 0.000879
0.000883 0.000883 0.000883
0.000887 0.000887 0.000887
0.000891 0.000891 0.000891
0.000894 0.000894 0.000894
0.000898 0.000898 0.000898
0.000902 0.000902 0.000902
0.000906 0.000906 0.000906
0.000910 0.000910 0.000910
0.000914 0.000914 0.000914
0.000917 0.000917 0.000917
0.000921 0.000921 0.000921
0.000925 0.000925 0.000925
0.000929 0.000929 0.000929
0.000933 0.000933 0.000933
0.000937 0.000937 0.000937
0.000941 0.000941 0.000941
0.000945 0.000945 0.000945
0.000949 0.000949 0.000949
0.000953 0.000953 0.000953
0.000957 0.000957 0.000957
0.000961 0.000961 0.000961
0.000965 0.000965 0.000965
0.000969 0.000969 0.000969
0.000973 0.000973 0.000973
0.000977 0.000977 0.000977
0.000981 0.000981 0.000981
0.000985 0.000985 0.000985
0.000990 0.000990 0.000990
0.000994 0.000994 0.000994
0.000998 0.000998 0.000998
0.001002 0.001002 0.001002
0.001006 0.001006 0.001006
0.001010 0.001010 0.001010
0.001015 0.001015 0.001015
0.001019 0.001019 0.001019
0.001023 0.001023 0.001023
0.001027 0.001027 0.001027
0.001032 0.001032 0.001032
0.001036 0.001036 0.001036
0.001040 0.001040 0.001040
0.001044 0.001044 0.001044
0.001049 0.001049 0.001049
0.001053 0.001053 0.001053
0.001057 0.001057 0.001057
0.001062 0.001062 0.001062
0.001066 0.001066 0.001066
0.001071 0.001071 0.001071
0.001075 0.001075 0.001075
0.001079 0.001079 0.001079
0.001084 0.001084 0.001084
0.001088 0.001088 0.001088
0.001093 0.001093 0.001093
0.001097 0.001097 0.001097
0.001102 0.001102 0.001102
0.001106 0.001106 0.001106
0.001111 0.001111 0.001111
0.001115 0.001115 0.001115
0.001120 0.001120 0.001120
0.001124 0.001124 0.001124
0.001129 0.001129 0.001129
0.001134 0.001134 0.001134
0.001138 0.001138 0.001138
0.001143 0.001143 0.001143
0.001147 0.001147 0.001147
0.001152 0.001152 0.001152
0.001157 0.001157 0.001157
0.001161 0.001161 0.001161
0.001166 0.001166 0.001166
0.001171 0.001171 0.001171
0.001176 0.001176 0.001176
0.001180 0.001180 0.001180
0.001185 0.001185 0.001185
0.001190 0.001190 0.001190
0.001195 0.001195 0.001195
0.001200 0.001200 0.001200
0.001204 0.001204 0.001204
0.001209 0.001209 0.001209
0.001214 0.001214 0.001214
0.001219 0.001219 0.001219
0.001224 0.001224 0.001224
0.001229 0.001229 0.001229
0.001234 0.001234 0.001234
0.001239 0.001239 0.001239
0.001244 0.001244 0.001244
0.001249 0.001249 0.001249
0.001254 0.001254 0.001254
0.001259 0.001259 0.001259
0.001264 0.001264 0.001264
0.001269 0.001269 0.001269
0.001274 0.001274 0.001274
0.001279 0.001279 0.001279
0.001284 0.001284 0.001284
0.001289 0.001289 0.001289
0.001294 0.001294 0.001294
0.001300 0.001300 0.001300
0.001305 0.001305 0.001305
0.001310 0.001310 0.001310
0.001315 0.001315 0.001315
0.001320 0.001320 0.001320
0.001326 0.001326 0.001326
0.001331 0.001331 0.001331
0.001336 0.001336 0.001336
0.001341 0.001341 0.001341
0.001347 0.001347 0.001347
0.001352 0.001352 0.001352
0.001357 0.001357 0.001357
0.001363 0.001363 0.001363
0.001368 0.001368 0.001368
0.001374 0.001374 0.001374
0.001379 0.001379 0.001379
0.001384 0.001384 0.001384
0.001390 0.001390 0.001390
0.001395 0.001395 0.001395
0.001401 0.001401 0.001401
0.001406 0.001406 0.001406
0.001412 0.001412 0.001412
0.001417 0.001417 0.001417
0.001423 0.001423 0.001423
0.001429 0.001429 0.001429
0.001434 0.001434 0.001434
0.001440 0.001440 0.001440
0.001445 0.001445 0.001445
0.001451 0.001451 0.001451
0.001457 0.001457 0.001457
0.001462 0.001462 0.001462
0.001468 0.001468 0.001468
0.001474 0.001474 0.001474
0.001480 0.001480 0.001480
0.001485 0.001485 0.001485
0.001491 0.001491 0.001491
0.001497 0.001497 0.001497
0.001503 0.001503 0.001503
0.001509 0.001509 0.001509
0.001515 0.001515 0.001515
0.001520 0.001520 0.001520
0.001526 0.001526 0.001526
0.001532 0.001532 0.001532
0.001538 0.001538 0.001538
0.001544 0.001544 0.001544
0.001550 0.001550 0.001550
0.001556 0.001556 0.001556
0.001562 0.001562 0.001562
0.001568 0.001568 0.001568
0.001574 0.001574 0.001574
0.001580 0.001580 0.001580
0.001587 0.001587 0.001587
0.001593 0.001593 0.001593
0.001599 0.001599 0.001599
0.001605 0.001605 0.001605
0.001611 0.001611 0.001611
0.001617 0.001617 0.001617
0.001624 0.001624 0.001624
0.001630 0.001630 0.001630
0.001636 0.001636 0.001636
0.001643 0.001643 0.001643
0.001649 0.001649 0.001649
0.001655 0.001655 0.001655
0.001662 0.001662 0.001662
0.001668 0.001668 0.001668
0.001674 0.001674 0.001674
0.001681 0.001681 0.001681
0.001687 0.001687 0.001687
0.001694 0.001694 0.001694
0.001700 0.001700 0.001700
0.001707 0.001707 0.001707
0.001713 0.001713 0.001713
0.001720 0.001720 0.001720
0.001726 0.001726 0.001726
0.001733 0.001733 0.001733
0.001740 0.001740 0.001740
0.001746 0.001746 0.001746
0.001753 0.001753 0.001753
0.001760 0.001760 0.001760
0.001766 0.001766 0.001766
0.001773 0.001773 0.001773
0.001780 0.001780 0.001780
0.001787 0.001787 0.001787
0.001793 0.001793 0.001793
0.001800 0.001800 0.001800
0.001807 0.001807 0.001807
0.001814 0.001814 0.001814
0.001821 0.001821 0.001821
0.001828 0.001828 0.001828
0.001835 0.001835 0.001835
0.001842 0.001842 0.001842
0.001849 0.001849 0.001849
0.001856 0.001856 0.001856
0.001863 0.001863 0.001863
0.001870 0.001870 0.001870
0.001877 0.001877 0.001877
0.001884 0.001884 0.001884
0.001891 0.001891 0.001891
0.001898 0.001898 0.001898
0.001905 0.001905 0.001905
0.001913 0.001913 0.001913
0.001920 0.001920 0.001920
0.001927 0.001927 0.001927
0.001934 0.001934 0.001934
0.001942 0.001942 0.001942
0.001949 0.001949 0.001949
0.001956 0.001956 0.001956
0.001964 0.001964 0.001964
0.001971 0.001971 0.001971
0.001978 0.001978 0.001978
0.001986 0.001986 0.001986
0.001993 0.001993 0.001993
0.002001 0.002001 0.002001
0.002008 0.002008 0.002008
0.002016 0.002016 0.002016
0.002023 0.002023 0.002023
0.002031 0.002031 0.002031
0.002039 0.002039 0.002039
0.002046 0.002046 0.002046
0.002054 0.002054 0.002054
0.002062 0.002062 0.002062
0.002069 0.002069 0.002069
0.002077 0.002077 0.002077
0.002085 0.002085 0.002085
0.002093 0.002093 0.002093
0.002101 0.002101 0.002101
0.002108 0.002108 0.002108
0.002116 0.002116 0.002116
0.002124 0.002124 0.002124
0.002132 0.002132 0.002132
0.002140 0.002140 0.002140
0.002148 0.002148 0.002148
0.002156 0.002156 0.002156
0.002164 0.002164 0.002164
0.002172 0.002172 0.002172
0.002180 0.002180 0.002180
0.002188 0.002188 0.002188
0.002196 0.002196 0.002196
0.002205 0.002205 0.002205
0.002213 0.002213 0.002213
0.002221 0.002221 0.002221
0.002229 0.002229 0.002229
0.002238 0.002238 0.002238
0.002246 0.002246 0.002246
0.002254 0.002254 0.002254
0.002263 0.002263 0.002263
0.002271 0.002271 0.002271
0.002279 0.002279 0.002279
0.002288 0.002288 0.002288
0.002296 0.002296 0.002296
0.002305 0.002305 0.002305
0.002313 0.002313 0.002313
0.002322 0.002322 0.002322
0.002331 0.002331 0.002331
0.002339 0.002339 0.002339
0.002348 0.002348 0.002348
0.002356 0.002356 0.002356
0.002365 0.002365 0.002365
0.002374 0.002374 0.002374
0.002383 0.002383 0.002383
0.002391 0.002391 0.002391
0.002400 0.002400 0.002400
0.002409 0.002409 0.002409
0.002418 0.002418 0.002418
0.002427 0.002427 0.002427
0.002436 0.002436 0.002436
0.002445 0.002445 0.002445
0.002454 0.002454 0.002454
0.002463 0.002463 0.002463
0.002472 0.002472 0.002472
0.002481 0.002481 0.002481
0.002490 0.002490 0.002490
0.002499 0.002499 0.002499
0.002508 0.002508 0.002508
0.002518 0.002518 0.002518
0.002527 0.002527 0.002527
0.002536 0.002536 0.002536
0.002545 0.002545 0.002545
0.002555 0.002555 0.002555
0.002564 0.002564 0.002564
0.002574 0.002574 0.002574
0.002583 0.002583 0.002583
0.002592 0.002592 0.002592
0.002602 0.002602 0.002602
0.002612 0.002612 0.002612
0.002621 0.002621 0.002621
0.002631 0.002631 0.002631
0.002640 0.002640 0.002640
0.002650 0.002650 0.002650
0.002660 0.002660 0.002660
0.002669 0.002669 0.002669
0.002679 0.002679 0.002679
0.002689 0.002689 0.002689
0.002699 0.002699 0.002699
0.002709 0.002709 0.002709
0.002718 0.002718 0.002718
0.002728 0.002728 0.002728
0.002738 0.002738 0.002738
0.002748 0.002748 0.002748
0.002758 0.002758 0.002758
0.002768 0.002768 0.002768
0.002778 0.002778 0.002778
0.002788 0.002788 0.002788
0.002799 0.002799 0.002799
0.002809 0.002809 0.002809
0.002819 0.002819 0.002819
0.002829 0.002829 0.002829
0.002840 0.002840 0.002840
0.002850 0.002850 0.002850
0.002860 0.002860 0.002860
0.002871 0.002871 0.002871
0.002881 0.002881 0.002881
0.002891 0.002891 0.002891
0.002902 0.002902 0.002902
0.002913 0.002913 0.002913
0.002923 0.002923 0.002923
0.002934 0.002934 0.002934
0.002944 0.002944 0.002944
0.002955 0.002955 0.002955
0.002966 0.002966 0.002966
0.002976 0.002976 0.002976
0.002987 0.002987 0.002987
0.002998 0.002998 0.002998
0.003009 0.003009 0.003009
0.003020 0.003020 0.003020
0.003031 0.003031 0.003031
0.003042 0.003042 0.003042
0.003053 0.003053 0.003053
0.003064 0.003064 0.003064
0.003075 0.003075 0.003075
0.003086 0.003086 0.003086
0.003097 0.003097 0.003097
0.003108 0.003108 0.003108
0.003119 0.003119 0.003119
0.003131 0.003131 0.003131
0.003142 0.003142 0.003142
0.003153 0.003153 0.003153
0.003165 0.003165 0.003165
0.003176 0.003176 0.003176
0.003187 0.003187 0.003187
0.003199 0.003199 0.003199
0.003210 0.003210 0.003210
0.003222 0.003222 0.003222
0.003233 0.003233 0.003233
0.003245 0.003245 0.003245
0.003257 0.003257 0.003257
0.003269 0.003269 0.003269
0.003280 0.003280 0.003280
0.003292 0.003292 0.003292
0.003304 0.003304 0.003304
0.003316 0.003316 0.003316
0.003328 0.003328 0.003328
0.003340 0.003340 0.003340
0.003352 0.003352 0.003352
0.003364 0.003364 0.003364
0.003376 0.003376 0.003376
0.003388 0.003388 0.003388
0.003400 0.003400 0.003400
0.003412 0.003412 0.003412
0.003424 0.003424 0.003424
0.003437 0.003437 0.003437
0.003449 0.003449 0.003449
0.003461 0.003461 0.003461
0.003474 0.003474 0.003474
0.003486 0.003486 0.003486
0.003499 0.003499 0.003499
0.003511 0.003511 0.003511
0.003524 0.003524 0.003524
0.003536 0.003536 0.003536
0.003549 0.003549 0.003549
0.003562 0.003562 0.003562
0.003574 0.003574 0.003574
0.003587 0.003587 0.003587
0.003600 0.003600 0.003600
0.003613 0.003613 0.003613
0.003626 0.003626 0.003626
0.003638 0.003638 0.003638
0.003651 0.003651 0.003651
0.003664 0.003664 0.003664
0.003678 0.003678 0.003678
0.003691 0.003691 0.003691
0.003704 0.003704 0.003704
0.003717 0.003717 0.003717
0.003730 0.003730 0.003730
0.003744 0.003744 0.003744
0.003757 0.003757 0.003757
0.003770 0.003770 0.003770
0.003784 0.003784 0.003784
0.003797 0.003797 0.003797
0.003811 0.003811 0.003811
0.003824 0.003824 0.003824
0.003838 0.003838 0.003838
0.003851 0.003851 0.003851
0.003865 0.003865 0.003865
0.003879 0.003879 0.003879
0.003893 0.003893 0.003893
0.003906 0.003906 0.003906
0.003920 0.003920 0.003920
0.003934 0.003934 0.003934
0.003948 0.003948 0.003948
0.003962 0.003962 0.003962
0.003976 0.003976 0.003976
0.003990 0.003990 0.003990
0.004005 0.004005 0.004005
0.004019 0.004019 0.004019
0.004033 0.004033 0.004033
0.004047 0.004047 0.004047
0.004062 0.004062 0.004062
0.004076 0.004076 0.004076
0.004090 0.004090 0.004090
0.004105 0.004105 0.004105
0.004119 0.004119 0.004119
0.004134 0.004134 0.004134
0.004149 0.004149 0.004149
0.004163 0.004163 0.004163
0.004178 0.004178 0.004178
0.004193 0.004193 0.004193
0.004208 0.004208 0.004208
0.004223 0.004223 0.004223
0.004237 0.004237 0.004237
0.004252 0.004252 0.004252
0.004267 0.004267 0.004267
0.004283 0.004283 0.004283
0.004298 0.004298 0.004298
0.004313 0.004313 0.004313
0.004328 0.004328 0.004328
0.004343 0.004343 0.004343
0.004359 0.004359 0.004359
0.004374 0.004374 0.004374
0.004389 0.004389 0.004389
0.004405 0.004405 0.004405
0.004420 0.004420 0.004420
0.004436 0.004436 0.004436
0.004452 0.004452 0.004452
0.004467 0.004467 0.004467
0.004483 0.004483 0.004483
0.004499 0.004499 0.004499
