assets/luts/Filmic_to_0-85_1-011.cube
LUT_1D_SIZE 4096
0.000000 0.000000 0.000000
0.000006 0.000006 0.000006
0.000012 0.000012 0.000012
0.000019 0.000019 0.000019
0.000025 0.000025 0.000025
0.000031 0.000031 0.000031
0.000037 0.000037 0.000037
0.000044 0.000044 0.000044
0.000050 0.000050 0.000050
0.000056 0.000056 0.000056
0.000063 0.000063 0.000063
0.000069 0.000069 0.000069
0.000075 0.000075 0.000075
0.000082 0.000082 0.000082
0.000088 0.000088 0.000088
0.000094 0.000094 0.000094
0.000101 0.000101 0.000101
0.000107 0.000107 0.000107
0.000114 0.000114 0.000114
0.000120 0.000120 0.000120
0.000127 0.000127 0.000127
0.000133 0.000133 0.000133
0.000140 0.000140 0.000140
0.000146 0.000146 0.000146
0.000153 0.000153 0.000153
0.000159 0.000159 0.000159
0.000166 0.000166 0.000166
0.000172 0.000172 0.000172
0.000179 0.000179 0.000179
0.000186 0.000186 0.000186
0.000192 0.000192 0.000192
0.000199 0.000199 0.000199
0.000206 0.000206 0.000206
0.000212 0.000212 0.000212
0.000219 0.000219 0.000219
0.000226 0.000226 0.000226
0.000232 0.000232 0.000232
0.000239 0.000239 0.000239
0.000246 0.000246 0.000246
0.000253 0.000253 0.000253
0.000259 0.000259 0.000259
0.000266 0.000266 0.000266
0.000273 0.000273 0.000273
0.000280 0.000280 0.000280
0.000287 0.000287 0.000287
0.000294 0.000294 0.000294
0.000300 0.000300 0.000300
0.000307 0.000307 0.000307
0.000314 0.000314 0.000314
0.000321 0.000321 0.000321
0.000328 0.000328 0.000328
0.000335 0.000335 0.000335
0.000342 0.000342 0.000342
0.000349 0.000349 0.000349
0.000356 0.000356 0.000356
0.000363 0.000363 0.000363
0.000370 0.000370 0.000370
0.000377 0.000377 0.000377
0.000384 0.000384 0.000384
0.000391 0.000391 0.000391
0.000399 0.000399 0.000399
0.000406 0.000406 0.000406
0.000413 0.000413 0.000413
0.000420 0.000420 0.000420
0.000427 0.000427 0.000427
0.000434 0.000434 0.000434
0.000442 0.000442 0.000442
0.000449 0.000449 0.000449
0.000456 0.000456 0.000456
0.000463 0.000463 0.000463
0.000471 0.000471 0.000471
0.000478 0.000478 0.000478
0.000485 0.000485 0.000485
0.000493 0.000493 0.000493
0.000500 0.000500 0.000500
0.000507 0.000507 0.000507
0.000515 0.000515 0.000515
0.000522 0.000522 0.000522
0.000530 0.000530 0.000530
0.000537 0.000537 0.000537
0.000544 0.000544 0.000544
0.000552 0.000552 0.000552
0.000559 0.000559 0.000559
0.000567 0.000567 0.000567
0.000574 0.000574 0.000574
0.000582 0.000582 0.000582
0.000590 0.000590 0.000590
0.000597 0.000597 0.000597
0.000605 0.000605 0.000605
0.000612 0.000612 0.000612
0.000620 0.000620 0.000620
0.000628 0.000628 0.000628
0.000635 0.000635 0.000635
0.000643 0.000643 0.000643
0.000651 0.000651 0.000651
0.000659 0.000659 0.000659
0.000666 0.000666 0.000666
0.000674 0.000674 0.000674
0.000682 0.000682 0.000682
0.000690 0.000690 0.000690
0.000697 0.000697 0.000697
0.000705 0.000705 0.000705
0.000713 0.000713 0.000713
0.000721 0.000721 0.000721
0.000729 0.000729 0.000729
0.000737 0.000737 0.000737
0.000745 0.000745 0.000745
0.000753 0.000753 0.000753
0.000761 0.000761 0.000761
0.000769 0.000769 0.000769
0.000777 0.000777 0.000777
0.000785 0.000785 0.000785
0.000793 0.000793 0.000793
0.000801 0.000801 0.000801
0.000809 0.000809 0.000809
0.000817 0.000817 0.000817
0.000825 0.000825 0.000825
0.000833 0.000833 0.000833
0.000841 0.000841 0.000841
0.000850 0.000850 0.000850
0.000858 0.000858 0.000858
0.000866 0.000866 0.000866
0.000874 0.000874 0.000874
0.000882 0.000882 0.000882
0.000891 0.000891 0.000891
0.000899 0.000899 0.000899
0.000907 0.000907 0.000907
0.000916 0.000916 0.000916
0.000924 0.000924 0.000924
0.000932 0.000932 0.000932
0.000941 0.000941 0.000941
0.000949 0.000949 0.000949
0.000958 0.000958 0.000958
0.000966 0.000966 0.000966
0.000975 0.000975 0.000975
0.000983 0.000983 0.000983
0.000992 0.000992 0.000992
0.001000 0.001000 0.001000
0.001009 0.001009 0.001009
0.001017 0.001017 0.001017
0.001026 0.001026 0.001026
0.001034 0.001034 0.001034
0.001043 0.001043 0.001043
0.001052 0.001052 0.001052
0.001060 0.001060 0.001060
0.001069 0.001069 0.001069
0.001078 0.001078 0.001078
0.001087 0.001087 0.001087
0.001095 0.001095 0.001095
0.001104 0.001104 0.001104
0.001113 0.001113 0.001113
0.001122 0.001122 0.001122
0.001131 0.001131 0.001131
0.001139 0.001139 0.001139
0.001148 0.001148 0.001148
0.001157 0.001157 0.001157
0.001166 0.001166 0.001166
0.001175 0.001175 0.001175
0.001184 0.001184 0.001184
0.001193 0.001193 0.001193
0.001202 0.001202 0.001202
0.001211 0.001211 0.001211
0.001220 0.001220 0.001220
0.001229 0.001229 0.001229
0.001238 0.001238 0.001238
0.001247 0.001247 0.001247
0.001257 0.001257 0.001257
0.001266 0.001266 0.001266
0.001275 0.001275 0.001275
0.001284 0.001284 0.001284
0.001293 0.001293 0.001293
0.001303 0.001303 0.001303
0.001312 0.001312 0.001312
0.001321 0.001321 0.001321
0.001330 0.001330 0.001330
0.001340 0.001340 0.001340
0.001349 0.001349 0.001349
0.001359 0.001359 0.001359
0.001368 0.001368 0.001368
0.001377 0.001377 0.001377
0.001387 0.001387 0.001387
0.001396 0.001396 0.001396
0.001406 0.001406 0.001406
0.001415 0.001415 0.001415
0.001425 0.001425 0.001425
0.001434 0.001434 0.001434
0.001444 0.001444 0.001444
0.001454 0.001454 0.001454
0.001463 0.001463 0.001463
0.001473 0.001473 0.001473
0.001482 0.001482 0.001482
0.001492 0.001492 0.001492
0.001502 0.001502 0.001502
0.001512 0.001512 0.001512
0.001521 0.001521 0.001521
0.001531 0.001531 0.001531
0.001541 0.001541 0.001541
0.001551 0.001551 0.001551
0.001561 0.001561 0.001561
0.001571 0.001571 0.001571
0.001580 0.001580 0.001580
0.001590 0.001590 0.001590
0.001600 0.001600 0.001600
0.001610 0.001610 0.001610
0.001620 0.001620 0.001620
0.001630 0.001630 0.001630
0.001640 0.001640 0.001640
0.001650 0.001650 0.001650
0.001660 0.001660 0.001660
0.001671 0.001671 0.001671
0.001681 0.001681 0.001681
0.001691 0.001691 0.001691
0.001701 0.001701 0.001701
0.001711 0.001711 0.001711
0.001722 0.001722 0.001722
0.001732 0.001732 0.001732
0.001742 0.001742 0.001742
0.001752 0.001752 0.001752
0.001763 0.001763 0.001763
0.001773 0.001773 0.001773
0.001783 0.001783 0.001783
0.001794 0.001794 0.001794
0.001804 0.001804 0.001804
0.001815 0.001815 0.001815
0.001825 0.001825 0.001825
0.001836 0.001836 0.001836
0.001846 0.001846 0.001846
0.001857 0.001857 0.001857
0.001867 0.001867 0.001867
0.001878 0.001878 0.001878
0.001889 0.001889 0.001889
0.001899 0.001899 0.001899
0.001910 0.001910 0.001910
0.001921 0.001921 0.001921
0.001931 0.001931 0.001931
0.001942 0.001942 0.001942
0.001953 0.001953 0.001953
0.001964 0.001964 0.001964
0.001974 0.001974 0.001974
0.001985 0.001985 0.001985
0.001996 0.001996 0.001996
0.002007 0.002007 0.002007
0.002018 0.002018 0.002018
0.002029 0.002029 0.002029
0.002040 0.002040 0.002040
0.002051 0.002051 0.002051
0.002062 0.002062 0.002062
0.002073 0.002073 0.002073
0.002084 0.002084 0.002084
0.002095 0.002095 0.002095
0.002106 0.002106 0.002106
0.002118 0.002118 0.002118
0.002129 0.002129 0.002129
0.002140 0.002140 0.002140
0.002151 0.002151 0.002151
0.002162 0.002162 0.002162
0.002174 0.002174 0.002174
0.002185 0.002185 0.002185
0.002196 0.002196 0.002196
0.002208 0.002208 0.002208
0.002219 0.002219 0.002219
0.002231 0.002231 0.002231
0.002242 0.002242 0.002242
0.002254 0.002254 0.002254
0.002265 0.002265 0.002265
0.002277 0.002277 0.002277
0.002288 0.002288 0.002288
0.002300 0.002300 0.002300
0.002311 0.002311 0.002311
0.002323 0.002323 0.002323
0.002335 0.002335 0.002335
0.002346 0.002346 0.002346
0.002358 0.002358 0.002358
0.002370 0.002370 0.002370
0.002382 0.002382 0.002382
0.002393 0.002393 0.002393
0.002405 0.002405 0.002405
0.002417 0.002417 0.002417
0.002429 0.002429 0.002429
0.002441 0.002441 0.002441
0.002453 0.002453 0.002453
0.002465 0.002465 0.002465
0.002477 0.002477 0.002477
0.002489 0.002489 0.002489
0.002501 0.002501 0.002501
0.002513 0.002513 0.002513
0.002525 0.002525 0.002525
0.002537 0.002537 0.002537
0.002550 0.002550 0.002550
0.002562 0.002562 0.002562
0.002574 0.002574 0.002574
0.002586 0.002586 0.002586
0.002599 0.002599 0.002599
0.002611 0.002611 0.002611
0.002623 0.002623 0.002623
0.002636 0.002636 0.002636
0.002648 0.002648 0.002648
0.002661 0.002661 0.002661
0.002673 0.002673 0.002673
0.002685 0.002685 0.002685
0.002698 0.002698 0.002698
0.002711 0.002711 0.002711
0.002723 0.002723 0.002723
0.002736 0.002736 0.002736
0.002748 0.002748 0.002748
0.002761 0.002761 0.002761
0.002774 0.002774 0.002774
0.002787 0.002787 0.002787
0.002799 0.002799 0.002799
0.002812 0.002812 0.002812
0.002825 0.002825 0.002825
0.002838 0.002838 0.002838
0.002851 0.002851 0.002851
0.002864 0.002864 0.002864
0.002876 0.002876 0.002876
0.002889 0.002889 0.002889
0.002902 0.002902 0.002902
0.002916 0.002916 0.002916
0.002929 0.002929 0.002929
0.002942 0.002942 0.002942
0.002955 0.002955 0.002955
0.002968 0.002968 0.002968
0.002981 0.002981 0.002981
0.002994 0.002994 0.002994
0.003008 0.003008 0.003008
0.003021 0.003021 0.003021
0.003034 0.003034 0.003034
0.003048 0.003048 0.003048
0.003061 0.003061 0.003061
0.003074 0.003074 0.003074
0.003088 0.003088 0.003088
0.003101 0.003101 0.003101
0.003115 0.003115 0.003115
0.003128 0.003128 0.003128
0.003142 0.003142 0.003142
0.003155 0.003155 0.003155
0.003169 0.003169 0.003169
0.003183 0.003183 0.003183
0.003196 0.003196 0.003196
0.003210 0.003210 0.003210
0.003224 0.003224 0.003224
0.003238 0.003238 0.003238
0.003252 0.003252 0.003252
0.003265 0.003265 0.003265
0.003279 0.003279 0.003279
0.003293 0.003293 0.003293
0.003307 0.003307 0.003307
0.003321 0.003321 0.003321
0.003335 0.003335 0.003335
0.003349 0.003349 0.003349
0.003363 0.003363 0.003363
0.003378 0.003378 0.003378
0.003392 0.003392 0.003392
0.003406 0.003406 0.003406
0.003420 0.003420 0.003420
0.003434 0.003434 0.003434
0.003449 0.003449 0.003449
0.003463 0.003463 0.003463
0.003477 0.003477 0.003477
0.003492 0.003492 0.003492
0.003506 0.003506 0.003506
0.003521 0.003521 0.003521
0.003535 0.003535 0.003535
0.003550 0.003550 0.003550
0.003564 0.003564 0.003564
0.003579 0.003579 0.003579
0.003593 0.003593 0.003593
0.003608 0.003608 0.003608
0.003623 0.003623 0.003623
0.003637 0.003637 0.003637
0.003652 0.003652 0.003652
0.003667 0.003667 0.003667
0.003682 0.003682 0.003682
0.003697 0.003697 0.003697
0.003712 0.003712 0.003712
0.003727 0.003727 0.003727
0.003742 0.003742 0.003742
0.003757 0.003757 0.003757
0.003772 0.003772 0.003772
0.003787 0.003787 0.003787
0.003802 0.003802 0.003802
0.003817 0.003817 0.003817
0.003832 0.003832 0.003832
0.003847 0.003847 0.003847
0.003863 0.003863 0.003863
0.003878 0.003878 0.003878
0.003893 0.003893 0.003893
0.003909 0.003909 0.003909
0.003924 0.003924 0.003924
0.003939 0.003939 0.003939
0.003955 0.003955 0.003955
0.003970 0.003970 0.003970
0.003986 0.003986 0.003986
0.004002 0.004002 0.004002
0.004017 0.004017 0.004017
0.004033 0.004033 0.004033
0.004049 0.004049 0.004049
0.004064 0.004064 0.004064
0.004080 0.004080 0.004080
0.004096 0.004096 0.004096
0.004112 0.004112 0.004112
0.004128 0.004128 0.004128
0.004143 0.004143 0.004143
0.004159 0.004159 0.004159
0.004175 0.004175 0.004175
0.004191 0.004191 0.004191
0.004208 0.004208 0.004208
0.004224 0.004224 0.004224
0.004240 0.004240 0.004240
0.004256 0.004256 0.004256
0.004272 0.004272 0.004272
0.004288 0.004288 0.004288
0.004305 0.004305 0.004305
0.004321 0.004321 0.004321
0.004337 0.004337 0.004337
0.004354 0.004354 0.004354
0.004370 0.004370 0.004370
0.004387 0.004387 0.004387
0.004403 0.004403 0.004403
0.004420 0.004420 0.004420
0.004436 0.004436 0.004436
0.004453 0.004453 0.004453
0.004470 0.004470 0.004470
0.004486 0.004486 0.004486
0.004503 0.004503 0.004503
0.004520 0.004520 0.004520
0.004537 0.004537 0.004537
0.004554 0.004554 0.004554
0.004571 0.004571 0.004571
0.004588 0.004588 0.004588
0.004605 0.004605 0.004605
0.004622 0.004622 0.004622
0.004639 0.004639 0.004639
0.004656 0.004656 0.004656
0.004673 0.004673 0.004673
0.004690 0.004690 0.004690
0.004707 0.004707 0.004707
0.004725 0.004725 0.004725
0.004742 0.004742 0.004742
0.004759 0.004759 0.004759
0.004777 0.004777 0.004777
0.004794 0.004794 0.004794
0.004812 0.004812 0.004812
0.004829 0.004829 0.004829
0.004847 0.004847 0.004847
0.004864 0.004864 0.004864
0.004882 0.004882 0.004882
0.004900 0.004900 0.004900
0.004917 0.004917 0.004917
0.004935 0.004935 0.004935
0.004953 0.004953 0.004953
0.004971 0.004971 0.004971
0.004989 0.004989 0.004989
0.005007 0.005007 0.005007
0.005025 0.005025 0.005025
0.005043 0.005043 0.005043
0.005061 0.005061 0.005061
0.005079 0.005079 0.005079
0.005097 0.005097 0.005097
0.005115 0.005115 0.005115
0.005133 0.005133 0.005133
0.005152 0.005152 0.005152
0.005170 0.005170 0.005170
0.005188 0.005188 0.005188
0.005207 0.005207 0.005207
0.005225 0.005225 0.005225
0.005244 0.005244 0.005244
0.005262 0.005262 0.005262
0.005281 0.005281 0.005281
0.005299 0.005299 0.005299
0.005318 0.005318 0.005318
0.005337 0.005337 0.005337
0.005356 0.005356 0.005356
0.005374 0.005374 0.005374
0.005393 0.005393 0.005393
0.005412 0.005412 0.005412
0.005431 0.005431 0.005431
0.005450 0.005450 0.005450
0.005469 0.005469 0.005469
0.005488 0.005488 0.005488
0.005507 0.005507 0.005507
0.005526 0.005526 0.005526
0.005546 0.005546 0.005546
0.005565 0.005565 0.005565
0.005584 0.005584 0.005584
0.005603 0.005603 0.005603
0.005623 0.005623 0.005623
0.005642 0.005642 0.005642
0.005662 0.005662 0.005662
0.005681 0.005681 0.005681
0.005701 0.005701 0.005701
0.005720 0.005720 0.005720
0.005740 0.005740 0.005740
0.005760 0.005760 0.005760
0.005779 0.005779 0.005779
0.005799 0.005799 0.005799
0.005819 0.005819 0.005819
0.005839 0.005839 0.005839
0.005859 0.005859 0.005859
0.005879 0.005879 0.005879
0.005899 0.005899 0.005899
0.005919 0.005919 0.005919
0.005939 0.005939 0.005939
0.005959 0.005959 0.005959
0.005979 0.005979 0.005979
0.006000 0.006000 0.006000
0.006020 0.006020 0.006020
0.006040 0.006040 0.006040
0.006061 0.006061 0.006061
0.006081 0.006081 0.006081
0.006102 0.006102 0.006102
0.006122 0.006122 0.006122
0.006143 0.006143 0.006143
0.006163 0.006163 0.006163
0.006184 0.006184 0.006184
0.006205 0.006205 0.006205
0.006226 0.006226 0.006226
0.006246 0.006246 0.006246
0.006267 0.006267 0.006267
0.006288 0.006288 0.006288
0.006309 0.006309 0.006309
0.006330 0.006330 0.006330
0.006351 0.006351 0.006351
0.006372 0.006372 0.006372
0.006394 0.006394 0.006394
0.006415 0.006415 0.006415
0.006436 0.006436 0.006436
0.006457 0.006457 0.006457
0.006479 0.006479 0.006479
0.006500 0.006500 0.006500
0.006522 0.006522 0.006522
0.006543 0.006543 0.006543
0.006565 0.006565 0.006565
0.006586 0.006586 0.006586
0.006608 0.006608 0.006608
0.006630 0.006630 0.006630
0.006652 0.006652 0.006652
0.006673 0.006673 0.006673
0.006695 0.006695 0.006695
0.006717 0.006717 0.006717
0.006739 0.006739 0.006739
0.006761 0.006761 0.006761
0.006783 0.006783 0.006783
0.006806 0.006806 0.006806
0.006828 0.006828 0.006828
0.006850 0.006850 0.006850
0.006872 0.006872 0.006872
0.006895 0.006895 0.006895
0.006917 0.006917 0.006917
0.006939 0.006939 0.006939
0.006962 0.006962 0.006962
0.006984 0.006984 0.006984
0.007007 0.007007 0.007007
0.007030 0.007030 0.007030
0.007052 0.007052 0.007052
0.007075 0.007075 0.007075
0.007098 0.007098 0.007098
0.007121 0.007121 0.007121
0.007144 0.007144 0.007144
0.007167 0.007167 0.007167
0.007190 0.007190 0.007190
0.007213 0.007213 0.007213
0.007236 0.007236 0.007236
0.007259 0.007259 0.007259
0.007282 0.007282 0.007282
0.007306 0.007306 0.007306
0.007329 0.007329 0.007329
0.007353 0.007353 0.007353
0.007376 0.007376 0.007376
0.007400 0.007400 0.007400
0.007423 0.007423 0.007423
0.007447 0.007447 0.007447
0.007470 0.007470 0.007470
0.007494 0.007494 0.007494
0.007518 0.007518 0.007518
0.007542 0.007542 0.007542
0.007566 0.007566 0.007566
0.007590 0.007590 0.007590
0.007614 0.007614 0.007614
0.007638 0.007638 0.007638
0.007662 0.007662 0.007662
0.007686 0.007686 0.007686
0.007710 0.007710 0.007710
0.007735 0.007735 0.007735
0.007759 0.007759 0.007759
0.007783 0.007783 0.007783
0.007808 0.007808 0.007808
0.007832 0.007832 0.007832
0.007857 0.007857 0.007857
0.007882 0.007882 0.007882
0.007906 0.007906 0.007906
0.007931 0.007931 0.007931
0.007956 0.007956 0.007956
0.007981 0.007981 0.007981
0.008006 0.008006 0.008006
0.008031 0.008031 0.008031
0.008056 0.008056 0.008056
0.008081 0.008081 0.008081
0.008106 0.008106 0.008106
0.008131 0.008131 0.008131
0.008156 0.008156 0.008156
0.008182 0.008182 0.008182
0.008207 0.008207 0.008207
0.008233 0.008233 0.008233
0.008258 0.008258 0.008258
0.008284 0.008284 0.008284
0.008309 0.008309 0.008309
0.008335 0.008335 0.008335
0.008361 0.008361 0.008361
0.008387 0.008387 0.008387
0.008413 0.008413 0.008413
0.008438 0.008438 0.008438
0.008464 0.008464 0.008464
0.008491 0.008491 0.008491
0.008517 0.008517 0.008517
0.008543 0.008543 0.008543
0.008569 0.008569 0.008569
0.008595 0.008595 0.008595
0.008622 0.008622 0.008622
0.008648 0.008648 0.008648
0.008675 0.008675 0.008675
0.008701 0.008701 0.008701
0.008728 0.008728 0.008728
0.008754 0.008754 0.008754
0.008781 0.008781 0.008781
0.008808 0.008808 0.008808
0.008835 0.008835 0.008835
0.008862 0.008862 0.008862
0.008889 0.008889 0.008889
0.008916 0.008916 0.008916
0.008943 0.008943 0.008943
0.008970 0.008970 0.008970
0.008997 0.008997 0.008997
0.009025 0.009025 0.009025
0.009052 0.009052 0.009052
0.009079 0.009079 0.009079
0.009107 0.009107 0.009107
0.009134 0.009134 0.009134
0.009162 0.009162 0.009162
0.009190 0.009190 0.009190
0.009217 0.009217 0.009217
0.009245 0.009245 0.009245
0.009273 0.009273 0.009273
0.009301 0.009301 0.009301
0.009329 0.009329 0.009329
0.009357 0.009357 0.009357
0.009385 0.009385 0.009385
0.009413 0.009413 0.009413
0.009442 0.009442 0.009442
0.009470 0.009470 0.009470
0.009498 0.009498 0.009498
0.009527 0.009527 0.009527
0.009555 0.009555 0.009555
0.009584 0.009584 0.009584
0.009613 0.009613 0.009613
0.009641 0.009641 0.009641
0.009670 0.009670 0.009670
0.009699 0.009699 0.009699
0.009728 0.009728 0.009728
0.009757 0.009757 0.009757
0.009786 0.009786 0.009786
0.009815 0.009815 0.009815
0.009844 0.009844 0.009844
0.009874 0.009874 0.009874
0.009903 0.009903 0.009903
0.009932 0.009932 0.009932
0.009962 0.009962 0.009962
0.009991 0.009991 0.009991
0.010021 0.010021 0.010021
0.010051 0.010051 0.010051
0.010080 0.010080 0.010080
0.010110 0.010110 0.010110
0.010140 0.010140 0.010140
0.010170 0.010170 0.010170
0.010200 0.010200 0.010200
0.010230 0.010230 0.010230
0.010260 0.010260 0.010260
0.010291 0.010291 0.010291
0.010321 0.010321 0.010321
0.010351 0.010351 0.010351
0.010382 0.010382 0.010382
0.010412 0.010412 0.010412
0.010443 0.010443 0.010443
0.010473 0.010473 0.010473
0.010504 0.010504 0.010504
0.010535 0.010535 0.010535
0.010566 0.010566 0.010566
0.010597 0.010597 0.010597
0.010628 0.010628 0.010628
0.010659 0.010659 0.010659
0.010690 0.010690 0.010690
0.010721 0.010721 0.010721
0.010753 0.010753 0.010753
0.010784 0.010784 0.010784
0.010815 0.010815 0.010815
0.010847 0.010847 0.010847
0.010878 0.010878 0.010878
0.010910 0.010910 0.010910
0.010942 0.010942 0.010942
0.010974 0.010974 0.010974
0.011006 0.011006 0.011006
0.011038 0.011038 0.011038
0.011070 0.011070 0.011070
0.011102 0.011102 0.011102
0.011134 0.011134 0.011134
0.011166 0.011166 0.011166
0.011198 0.011198 0.011198
0.011231 0.011231 0.011231
0.011263 0.011263 0.011263
0.011296 0.011296 0.011296
0.011329 0.011329 0.011329
0.011361 0.011361 0.011361
0.011394 0.011394 0.011394
0.011427 0.011427 0.011427
0.011460 0.011460 0.011460
0.011493 0.011493 0.011493
0.011526 0.011526 0.011526
0.011559 0.011559 0.011559
0.011592 0.011592 0.011592
0.011626 0.011626 0.011626
0.011659 0.011659 0.011659
0.011692 0.011692 0.011692
0.011726 0.011726 0.011726
0.011760 0.011760 0.011760
0.011793 0.011793 0.011793
0.011827 0.011827 0.011827
0.011861 0.011861 0.011861
0.011895 0.011895 0.011895
0.011929 0.011929 0.011929
0.011963 0.011963 0.011963
0.011997 0.011997 0.011997
0.012032 0.012032 0.012032
0.012066 0.012066 0.012066
0.012100 0.012100 0.012100
0.012135 0.012135 0.012135
0.012169 0.012169 0.012169
0.012204 0.012204 0.012204
0.012239 0.012239 0.012239
0.012274 0.012274 0.012274
0.012308 0.012308 0.012308
0.012343 0.012343 0.012343
0.012378 0.012378 0.012378
0.012414 0.012414 0.012414
0.012449 0.012449 0.012449
0.012484 0.012484 0.012484
0.012519 0.012519 0.012519
0.012555 0.012555 0.012555
0.012590 0.012590 0.012590
0.012626 0.012626 0.012626
0.012662 0.012662 0.012662
0.012698 0.012698 0.012698
0.012733 0.012733 0.012733
0.012769 0.012769 0.012769
0.012805 0.012805 0.012805
0.012842 0.012842 0.012842
0.012878 0.012878 0.012878
0.012914 0.012914 0.012914
0.012950 0.012950 0.012950
0.012987 0.012987 0.012987
0.013023 0.013023 0.013023
0.013060 0.013060 0.013060
0.013097 0.013097 0.013097
0.013134 0.013134 0.013134
0.013171 0.013171 0.013171
0.013207 0.013207 0.013207
0.013245 0.013245 0.013245
0.013282 0.013282 0.013282
0.013319 0.013319 0.013319
0.013356 0.013356 0.013356
0.013394 0.013394 0.013394
0.013431 0.013431 0.013431
0.013469 0.013469 0.013469
0.013506 0.013506 0.013506
0.013544 0.013544 0.013544
0.013582 0.013582 0.013582
0.013620 0.013620 0.013620
0.013658 0.013658 0.013658
0.013696 0.013696 0.013696
0.013734 0.013734 0.013734
0.013772 0.013772 0.013772
0.013811 0.013811 0.013811
0.013849 0.013849 0.013849
0.013888 0.013888 0.013888
0.013926 0.013926 0.013926
0.013965 0.013965 0.013965
0.014004 0.014004 0.014004
0.014043 0.014043 0.014043
0.014082 0.014082 0.014082
0.014121 0.014121 0.014121
0.014160 0.014160 0.014160
0.014199 0.014199 0.014199
0.014238 0.014238 0.014238
0.014278 0.014278 0.014278
0.014317 0.014317 0.014317
0.014357 0.014357 0.014357
0.014397 0.014397 0.014397
0.014437 0.014437 0.014437
0.014476 0.014476 0.014476
0.014516 0.014516 0.014516
0.014556 0.014556 0.014556
0.014597 0.014597 0.014597
0.014637 0.014637 0.014637
0.014677 0.014677 0.014677
0.014718 0.014718 0.014718
0.014758 0.014758 0.014758
0.014799 0.014799 0.014799
0.014840 0.014840 0.014840
0.014880 0.014880 0.014880
0.014921 0.014921 0.014921
0.014962 0.014962 0.014962
0.015003 0.015003 0.015003
0.015045 0.015045 0.015045
0.015086 0.015086 0.015086
0.015127 0.015127 0.015127
0.015169 0.015169 0.015169
0.015210 0.015210 0.015210
0.015252 0.015252 0.015252
0.015294 0.015294 0.015294
0.015336 0.015336 0.015336
0.015377 0.015377 0.015377
0.015420 0.015420 0.015420
0.015462 0.015462 0.015462
0.015504 0.015504 0.015504
0.015546 0.015546 0.015546
0.015589 0.015589 0.015589
0.015631 0.015631 0.015631
0.015674 0.015674 0.015674
0.015717 0.015717 0.015717
0.015759 0.015759 0.015759
0.015802 0.015802 0.015802
0.015845 0.015845 0.015845
0.015888 0.015888 0.015888
0.015932 0.015932 0.015932
0.015975 0.015975 0.015975
0.016018 0.016018 0.016018
0.016062 0.016062 0.016062
0.016106 0.016106 0.016106
0.016149 0.016149 0.016149
0.016193 0.016193 0.016193
0.016237 0.016237 0.016237
0.016281 0.016281 0.016281
0.016325 0.016325 0.016325
0.016369 0.016369 0.016369
0.016414 0.016414 0.016414
0.016458 0.016458 0.016458
0.016503 0.016503 0.016503
0.016547 0.016547 0.016547
0.016592 0.016592 0.016592
0.016637 0.016637 0.016637
0.016682 0.016682 0.016682
0.016727 0.016727 0.016727
0.016772 0.016772 0.016772
0.016817 0.016817 0.016817
0.016863 0.016863 0.016863
0.016908 0.016908 0.016908
0.016954 0.016954 0.016954
0.016999 0.016999 0.016999
0.017045 0.017045 0.017045
0.017091 0.017091 0.017091
0.017137 0.017137 0.017137
0.017183 0.017183 0.017183
0.017229 0.017229 0.017229
0.017276 0.017276 0.017276
0.017322 0.017322 0.017322
0.017368 0.017368 0.017368
0.017415 0.017415 0.017415
0.017462 0.017462 0.017462
0.017509 0.017509 0.017509
0.017556 0.017556 0.017556
0.017603 0.017603 0.017603
0.017650 0.017650 0.017650
0.017697 0.017697 0.017697
0.017744 0.017744 0.017744
0.017792 0.017792 0.017792
0.017840 0.017840 0.017840
0.017887 0.017887 0.017887
0.017935 0.017935 0.017935
0.017983 0.017983 0.017983
0.018031 0.018031 0.018031
0.018079 0.018079 0.018079
0.018127 0.018127 0.018127
0.018176 0.018176 0.018176
0.018224 0.018224 0.018224
0.018273 0.018273 0.018273
0.018321 0.018321 0.018321
0.018370 0.018370 0.018370
0.018419 0.018419 0.018419
0.018468 0.018468 0.018468
