assets/luts/Filmic_to_0.99_1-0075.cube
LUT_1D_SIZE 4096
0.000000 0.000000 0.000000
0.000003 0.000003 0.000003
0.000006 0.000006 0.000006
0.000008 0.000008 0.000008
0.000011 0.000011 0.000011
0.000014 0.000014 0.000014
0.000017 0.000017 0.000017
0.000020 0.000020 0.000020
0.000022 0.000022 0.000022
0.000025 0.000025 0.000025
0.000028 0.000028 0.000028
0.000031 0.000031 0.000031
0.000034 0.000034 0.000034
0.000037 0.000037 0.000037
0.000040 0.000040 0.000040
0.000043 0.000043 0.000043
0.000045 0.000045 0.000045
0.000048 0.000048 0.000048
0.000051 0.000051 0.000051
0.000054 0.000054 0.000054
0.000057 0.000057 0.000057
0.000060 0.000060 0.000060
0.000063 0.000063 0.000063
0.000066 0.000066 0.000066
0.000069 0.000069 0.000069
0.000072 0.000072 0.000072
0.000075 0.000075 0.000075
0.000078 0.000078 0.000078
0.000081 0.000081 0.000081
0.000084 0.000084 0.000084
0.000087 0.000087 0.000087
0.000090 0.000090 0.000090
0.000093 0.000093 0.000093
0.000096 0.000096 0.000096
0.000099 0.000099 0.000099
0.000102 0.000102 0.000102
0.000105 0.000105 0.000105
0.000108 0.000108 0.000108
0.000111 0.000111 0.000111
0.000114 0.000114 0.000114
0.000117 0.000117 0.000117
0.000121 0.000121 0.000121
0.000124 0.000124 0.000124
0.000127 0.000127 0.000127
0.000130 0.000130 0.000130
0.000133 0.000133 0.000133
0.000136 0.000136 0.000136
0.000139 0.000139 0.000139
0.000143 0.000143 0.000143
0.000146 0.000146 0.000146
0.000149 0.000149 0.000149
0.000152 0.000152 0.000152
0.000155 0.000155 0.000155
0.000159 0.000159 0.000159
0.000162 0.000162 0.000162
0.000165 0.000165 0.000165
0.000168 0.000168 0.000168
0.000171 0.000171 0.000171
0.000175 0.000175 0.000175
0.000178 0.000178 0.000178
0.000181 0.000181 0.000181
0.000185 0.000185 0.000185
0.000188 0.000188 0.000188
0.000191 0.000191 0.000191
0.000194 0.000194 0.000194
0.000198 0.000198 0.000198
0.000201 0.000201 0.000201
0.000204 0.000204 0.000204
0.000208 0.000208 0.000208
0.000211 0.000211 0.000211
0.000215 0.000215 0.000215
0.000218 0.000218 0.000218
0.000221 0.000221 0.000221
0.000225 0.000225 0.000225
0.000228 0.000228 0.000228
0.000231 0.000231 0.000231
0.000235 0.000235 0.000235
0.000238 0.000238 0.000238
0.000242 0.000242 0.000242
0.000245 0.000245 0.000245
0.000249 0.000249 0.000249
0.000252 0.000252 0.000252
0.000256 0.000256 0.000256
0.000259 0.000259 0.000259
0.000263 0.000263 0.000263
0.000266 0.000266 0.000266
0.000270 0.000270 0.000270
0.000273 0.000273 0.000273
0.000277 0.000277 0.000277
0.000280 0.000280 0.000280
0.000284 0.000284 0.000284
0.000287 0.000287 0.000287
0.000291 0.000291 0.000291
0.000295 0.000295 0.000295
0.000298 0.000298 0.000298
0.000302 0.000302 0.000302
0.000305 0.000305 0.000305
0.000309 0.000309 0.000309
0.000313 0.000313 0.000313
0.000316 0.000316 0.000316
0.000320 0.000320 0.000320
0.000324 0.000324 0.000324
0.000327 0.000327 0.000327
0.000331 0.000331 0.000331
0.000335 0.000335 0.000335
0.000338 0.000338 0.000338
0.000342 0.000342 0.000342
0.000346 0.000346 0.000346
0.000350 0.000350 0.000350
0.000353 0.000353 0.000353
0.000357 0.000357 0.000357
0.000361 0.000361 0.000361
0.000365 0.000365 0.000365
0.000368 0.000368 0.000368
0.000372 0.000372 0.000372
0.000376 0.000376 0.000376
0.000380 0.000380 0.000380
0.000384 0.000384 0.000384
0.000387 0.000387 0.000387
0.000391 0.000391 0.000391
0.000395 0.000395 0.000395
0.000399 0.000399 0.000399
0.000403 0.000403 0.000403
0.000407 0.000407 0.000407
0.000411 0.000411 0.000411
0.000415 0.000415 0.000415
0.000419 0.000419 0.000419
0.000422 0.000422 0.000422
0.000426 0.000426 0.000426
0.000430 0.000430 0.000430
0.000434 0.000434 0.000434
0.000438 0.000438 0.000438
0.000442 0.000442 0.000442
0.000446 0.000446 0.000446
0.000450 0.000450 0.000450
0.000454 0.000454 0.000454
0.000458 0.000458 0.000458
0.000462 0.000462 0.000462
0.000467 0.000467 0.000467
0.000471 0.000471 0.000471
0.000475 0.000475 0.000475
0.000479 0.000479 0.000479
0.000483 0.000483 0.000483
0.000487 0.000487 0.000487
0.000491 0.000491 0.000491
0.000495 0.000495 0.000495
0.000499 0.000499 0.000499
0.000504 0.000504 0.000504
0.000508 0.000508 0.000508
0.000512 0.000512 0.000512
0.000516 0.000516 0.000516
0.000520 0.000520 0.000520
0.000525 0.000525 0.000525
0.000529 0.000529 0.000529
0.000533 0.000533 0.000533
0.000537 0.000537 0.000537
0.000542 0.000542 0.000542
0.000546 0.000546 0.000546
0.000550 0.000550 0.000550
0.000554 0.000554 0.000554
0.000559 0.000559 0.000559
0.000563 0.000563 0.000563
0.000567 0.000567 0.000567
0.000572 0.000572 0.000572
0.000576 0.000576 0.000576
0.000580 0.000580 0.000580
0.000585 0.000585 0.000585
0.000589 0.000589 0.000589
0.000594 0.000594 0.000594
0.000598 0.000598 0.000598
0.000603 0.000603 0.000603
0.000607 0.000607 0.000607
0.000611 0.000611 0.000611
0.000616 0.000616 0.000616
0.000620 0.000620 0.000620
0.000625 0.000625 0.000625
0.000629 0.000629 0.000629
0.000634 0.000634 0.000634
0.000638 0.000638 0.000638
0.000643 0.000643 0.000643
0.000648 0.000648 0.000648
0.000652 0.000652 0.000652
0.000657 0.000657 0.000657
0.000661 0.000661 0.000661
0.000666 0.000666 0.000666
0.000671 0.000671 0.000671
0.000675 0.000675 0.000675
0.000680 0.000680 0.000680
0.000684 0.000684 0.000684
0.000689 0.000689 0.000689
0.000694 0.000694 0.000694
0.000698 0.000698 0.000698
0.000703 0.000703 0.000703
0.000708 0.000708 0.000708
0.000713 0.000713 0.000713
0.000717 0.000717 0.000717
0.000722 0.000722 0.000722
0.000727 0.000727 0.000727
0.000732 0.000732 0.000732
0.000737 0.000737 0.000737
0.000741 0.000741 0.000741
0.000746 0.000746 0.000746
0.000751 0.000751 0.000751
0.000756 0.000756 0.000756
0.000761 0.000761 0.000761
0.000766 0.000766 0.000766
0.000771 0.000771 0.000771
0.000775 0.000775 0.000775
0.000780 0.000780 0.000780
0.000785 0.000785 0.000785
0.000790 0.000790 0.000790
0.000795 0.000795 0.000795
0.000800 0.000800 0.000800
0.000805 0.000805 0.000805
0.000810 0.000810 0.000810
0.000815 0.000815 0.000815
0.000820 0.000820 0.000820
0.000825 0.000825 0.000825
0.000830 0.000830 0.000830
0.000835 0.000835 0.000835
0.000841 0.000841 0.000841
0.000846 0.000846 0.000846
0.000851 0.000851 0.000851
0.000856 0.000856 0.000856
0.000861 0.000861 0.000861
0.000866 0.000866 0.000866
0.000871 0.000871 0.000871
0.000877 0.000877 0.000877
0.000882 0.000882 0.000882
0.000887 0.000887 0.000887
0.000892 0.000892 0.000892
0.000897 0.000897 0.000897
0.000903 0.000903 0.000903
0.000908 0.000908 0.000908
0.000913 0.000913 0.000913
0.000919 0.000919 0.000919
0.000924 0.000924 0.000924
0.000929 0.000929 0.000929
0.000935 0.000935 0.000935
0.000940 0.000940 0.000940
0.000945 0.000945 0.000945
0.000951 0.000951 0.000951
0.000956 0.000956 0.000956
0.000961 0.000961 0.000961
0.000967 0.000967 0.000967
0.000972 0.000972 0.000972
0.000978 0.000978 0.000978
0.000983 0.000983 0.000983
0.000989 0.000989 0.000989
0.000994 0.000994 0.000994
0.001000 0.001000 0.001000
0.001005 0.001005 0.001005
0.001011 0.001011 0.001011
0.001017 0.001017 0.001017
0.001022 0.001022 0.001022
0.001028 0.001028 0.001028
0.001033 0.001033 0.001033
0.001039 0.001039 0.001039
0.001045 0.001045 0.001045
0.001050 0.001050 0.001050
0.001056 0.001056 0.001056
0.001062 0.001062 0.001062
0.001067 0.001067 0.001067
0.001073 0.001073 0.001073
0.001079 0.001079 0.001079
0.001085 0.001085 0.001085
0.001090 0.001090 0.001090
0.001096 0.001096 0.001096
0.001102 0.001102 0.001102
0.001108 0.001108 0.001108
0.001114 0.001114 0.001114
0.001120 0.001120 0.001120
0.001125 0.001125 0.001125
0.001131 0.001131 0.001131
0.001137 0.001137 0.001137
0.001143 0.001143 0.001143
0.001149 0.001149 0.001149
0.001155 0.001155 0.001155
0.001161 0.001161 0.001161
0.001167 0.001167 0.001167
0.001173 0.001173 0.001173
0.001179 0.001179 0.001179
0.001185 0.001185 0.001185
0.001191 0.001191 0.001191
0.001197 0.001197 0.001197
0.001203 0.001203 0.001203
0.001209 0.001209 0.001209
0.001215 0.001215 0.001215
0.001222 0.001222 0.001222
0.001228 0.001228 0.001228
0.001234 0.001234 0.001234
0.001240 0.001240 0.001240
0.001246 0.001246 0.001246
0.001252 0.001252 0.001252
0.001259 0.001259 0.001259
0.001265 0.001265 0.001265
0.001271 0.001271 0.001271
0.001278 0.001278 0.001278
0.001284 0.001284 0.001284
0.001290 0.001290 0.001290
0.001297 0.001297 0.001297
0.001303 0.001303 0.001303
0.001309 0.001309 0.001309
0.001316 0.001316 0.001316
0.001322 0.001322 0.001322
0.001329 0.001329 0.001329
0.001335 0.001335 0.001335
0.001341 0.001341 0.001341
0.001348 0.001348 0.001348
0.001354 0.001354 0.001354
0.001361 0.001361 0.001361
0.001367 0.001367 0.001367
0.001374 0.001374 0.001374
0.001381 0.001381 0.001381
0.001387 0.001387 0.001387
0.001394 0.001394 0.001394
0.001400 0.001400 0.001400
0.001407 0.001407 0.001407
0.001414 0.001414 0.001414
0.001420 0.001420 0.001420
0.001427 0.001427 0.001427
0.001434 0.001434 0.001434
0.001441 0.001441 0.001441
0.001447 0.001447 0.001447
0.001454 0.001454 0.001454
0.001461 0.001461 0.001461
0.001468 0.001468 0.001468
0.001475 0.001475 0.001475
0.001481 0.001481 0.001481
0.001488 0.001488 0.001488
0.001495 0.001495 0.001495
0.001502 0.001502 0.001502
0.001509 0.001509 0.001509
0.001516 0.001516 0.001516
0.001523 0.001523 0.001523
0.001530 0.001530 0.001530
0.001537 0.001537 0.001537
0.001544 0.001544 0.001544
0.001551 0.001551 0.001551
0.001558 0.001558 0.001558
0.001565 0.001565 0.001565
0.001572 0.001572 0.001572
0.001579 0.001579 0.001579
0.001586 0.001586 0.001586
0.001594 0.001594 0.001594
0.001601 0.001601 0.001601
0.001608 0.001608 0.001608
0.001615 0.001615 0.001615
0.001622 0.001622 0.001622
0.001630 0.001630 0.001630
0.001637 0.001637 0.001637
0.001644 0.001644 0.001644
0.001652 0.001652 0.001652
0.001659 0.001659 0.001659
0.001666 0.001666 0.001666
0.001674 0.001674 0.001674
0.001681 0.001681 0.001681
0.001688 0.001688 0.001688
0.001696 0.001696 0.001696
0.001703 0.001703 0.001703
0.001711 0.001711 0.001711
0.001718 0.001718 0.001718
0.001726 0.001726 0.001726
0.001733 0.001733 0.001733
0.001741 0.001741 0.001741
0.001749 0.001749 0.001749
0.001756 0.001756 0.001756
0.001764 0.001764 0.001764
0.001771 0.001771 0.001771
0.001779 0.001779 0.001779
0.001787 0.001787 0.001787
0.001795 0.001795 0.001795
0.001802 0.001802 0.001802
0.001810 0.001810 0.001810
0.001818 0.001818 0.001818
0.001826 0.001826 0.001826
0.001833 0.001833 0.001833
0.001841 0.001841 0.001841
0.001849 0.001849 0.001849
0.001857 0.001857 0.001857
0.001865 0.001865 0.001865
0.001873 0.001873 0.001873
0.001881 0.001881 0.001881
0.001889 0.001889 0.001889
0.001897 0.001897 0.001897
0.001905 0.001905 0.001905
0.001913 0.001913 0.001913
0.001921 0.001921 0.001921
0.001929 0.001929 0.001929
0.001937 0.001937 0.001937
0.001945 0.001945 0.001945
0.001953 0.001953 0.001953
0.001961 0.001961 0.001961
0.001970 0.001970 0.001970
0.001978 0.001978 0.001978
0.001986 0.001986 0.001986
0.001994 0.001994 0.001994
0.002003 0.002003 0.002003
0.002011 0.002011 0.002011
0.002019 0.002019 0.002019
0.002028 0.002028 0.002028
0.002036 0.002036 0.002036
0.002044 0.002044 0.002044
0.002053 0.002053 0.002053
0.002061 0.002061 0.002061
0.002070 0.002070 0.002070
0.002078 0.002078 0.002078
0.002087 0.002087 0.002087
0.002095 0.002095 0.002095
0.002104 0.002104 0.002104
0.002112 0.002112 0.002112
0.002121 0.002121 0.002121
0.002130 0.002130 0.002130
0.002138 0.002138 0.002138
0.002147 0.002147 0.002147
0.002156 0.002156 0.002156
0.002164 0.002164 0.002164
0.002173 0.002173 0.002173
0.002182 0.002182 0.002182
0.002191 0.002191 0.002191
0.002200 0.002200 0.002200
0.002208 0.002208 0.002208
0.002217 0.002217 0.002217
0.002226 0.002226 0.002226
0.002235 0.002235 0.002235
0.002244 0.002244 0.002244
0.002253 0.002253 0.002253
0.002262 0.002262 0.002262
0.002271 0.002271 0.002271
0.002280 0.002280 0.002280
0.002289 0.002289 0.002289
0.002298 0.002298 0.002298
0.002307 0.002307 0.002307
0.002316 0.002316 0.002316
0.002326 0.002326 0.002326
0.002335 0.002335 0.002335
0.002344 0.002344 0.002344
0.002353 0.002353 0.002353
0.002363 0.002363 0.002363
0.002372 0.002372 0.002372
0.002381 0.002381 0.002381
0.002391 0.002391 0.002391
0.002400 0.002400 0.002400
0.002409 0.002409 0.002409
0.002419 0.002419 0.002419
0.002428 0.002428 0.002428
0.002438 0.002438 0.002438
0.002447 0.002447 0.002447
0.002457 0.002457 0.002457
0.002466 0.002466 0.002466
0.002476 0.002476 0.002476
0.002485 0.002485 0.002485
0.002495 0.002495 0.002495
0.002505 0.002505 0.002505
0.002514 0.002514 0.002514
0.002524 0.002524 0.002524
0.002534 0.002534 0.002534
0.002544 0.002544 0.002544
0.002553 0.002553 0.002553
0.002563 0.002563 0.002563
0.002573 0.002573 0.002573
0.002583 0.002583 0.002583
0.002593 0.002593 0.002593
0.002603 0.002603 0.002603
0.002613 0.002613 0.002613
0.002623 0.002623 0.002623
0.002633 0.002633 0.002633
0.002643 0.002643 0.002643
0.002653 0.002653 0.002653
0.002663 0.002663 0.002663
0.002673 0.002673 0.002673
0.002683 0.002683 0.002683
0.002693 0.002693 0.002693
0.002704 0.002704 0.002704
0.002714 0.002714 0.002714
0.002724 0.002724 0.002724
0.002734 0.002734 0.002734
0.002745 0.002745 0.002745
0.002755 0.002755 0.002755
0.002765 0.002765 0.002765
0.002776 0.002776 0.002776
0.002786 0.002786 0.002786
0.002797 0.002797 0.002797
0.002807 0.002807 0.002807
0.002818 0.002818 0.002818
0.002828 0.002828 0.002828
0.002839 0.002839 0.002839
0.002849 0.002849 0.002849
0.002860 0.002860 0.002860
0.002871 0.002871 0.002871
0.002881 0.002881 0.002881
0.002892 0.002892 0.002892
0.002903 0.002903 0.002903
0.002914 0.002914 0.002914
0.002924 0.002924 0.002924
0.002935 0.002935 0.002935
0.002946 0.002946 0.002946
0.002957 0.002957 0.002957
0.002968 0.002968 0.002968
0.002979 0.002979 0.002979
0.002990 0.002990 0.002990
0.003001 0.003001 0.003001
0.003012 0.003012 0.003012
0.003023 0.003023 0.003023
0.003034 0.003034 0.003034
0.003045 0.003045 0.003045
0.003057 0.003057 0.003057
0.003068 0.003068 0.003068
0.003079 0.003079 0.003079
0.003090 0.003090 0.003090
0.003102 0.003102 0.003102
0.003113 0.003113 0.003113
0.003124 0.003124 0.003124
0.003136 0.003136 0.003136
0.003147 0.003147 0.003147
0.003158 0.003158 0.003158
0.003170 0.003170 0.003170
0.003181 0.003181 0.003181
0.003193 0.003193 0.003193
0.003205 0.003205 0.003205
0.003216 0.003216 0.003216
0.003228 0.003228 0.003228
0.003240 0.003240 0.003240
0.003251 0.003251 0.003251
0.003263 0.003263 0.003263
0.003275 0.003275 0.003275
0.003287 0.003287 0.003287
0.003298 0.003298 0.003298
0.003310 0.003310 0.003310
0.003322 0.003322 0.003322
0.003334 0.003334 0.003334
0.003346 0.003346 0.003346
0.003358 0.003358 0.003358
0.003370 0.003370 0.003370
0.003382 0.003382 0.003382
0.003394 0.003394 0.003394
0.003406 0.003406 0.003406
0.003419 0.003419 0.003419
0.003431 0.003431 0.003431
0.003443 0.003443 0.003443
0.003455 0.003455 0.003455
0.003467 0.003467 0.003467
0.003480 0.003480 0.003480
0.003492 0.003492 0.003492
0.003505 0.003505 0.003505
0.003517 0.003517 0.003517
0.003529 0.003529 0.003529
0.003542 0.003542 0.003542
0.003555 0.003555 0.003555
0.003567 0.003567 0.003567
0.003580 0.003580 0.003580
0.003592 0.003592 0.003592
0.003605 0.003605 0.003605
0.003618 0.003618 0.003618
0.003630 0.003630 0.003630
0.003643 0.003643 0.003643
0.003656 0.003656 0.003656
0.003669 0.003669 0.003669
0.003682 0.003682 0.003682
0.003695 0.003695 0.003695
0.003708 0.003708 0.003708
0.003721 0.003721 0.003721
0.003734 0.003734 0.003734
0.003747 0.003747 0.003747
0.003760 0.003760 0.003760
0.003773 0.003773 0.003773
0.003786 0.003786 0.003786
0.003799 0.003799 0.003799
0.003813 0.003813 0.003813
0.003826 0.003826 0.003826
0.003839 0.003839 0.003839
0.003853 0.003853 0.003853
0.003866 0.003866 0.003866
0.003879 0.003879 0.003879
0.003893 0.003893 0.003893
0.003906 0.003906 0.003906
0.003920 0.003920 0.003920
0.003933 0.003933 0.003933
0.003947 0.003947 0.003947
0.003961 0.003961 0.003961
0.003974 0.003974 0.003974
0.003988 0.003988 0.003988
0.004002 0.004002 0.004002
0.004016 0.004016 0.004016
0.004029 0.004029 0.004029
0.004043 0.004043 0.004043
0.004057 0.004057 0.004057
0.004071 0.004071 0.004071
0.004085 0.004085 0.004085
0.004099 0.004099 0.004099
0.004113 0.004113 0.004113
0.004127 0.004127 0.004127
0.004142 0.004142 0.004142
0.004156 0.004156 0.004156
0.004170 0.004170 0.004170
0.004184 0.004184 0.004184
0.004199 0.004199 0.004199
0.004213 0.004213 0.004213
0.004227 0.004227 0.004227
0.004242 0.004242 0.004242
0.004256 0.004256 0.004256
0.004271 0.004271 0.004271
0.004285 0.004285 0.004285
0.004300 0.004300 0.004300
0.004314 0.004314 0.004314
0.004329 0.004329 0.004329
0.004344 0.004344 0.004344
0.004358 0.004358 0.004358
0.004373 0.004373 0.004373
0.004388 0.004388 0.004388
0.004403 0.004403 0.004403
0.004418 0.004418 0.004418
0.004433 0.004433 0.004433
0.004448 0.004448 0.004448
0.004463 0.004463 0.004463
0.004478 0.004478 0.004478
0.004493 0.004493 0.004493
0.004508 0.004508 0.004508
0.004523 0.004523 0.004523
0.004538 0.004538 0.004538
0.004554 0.004554 0.004554
0.004569 0.004569 0.004569
0.004584 0.004584 0.004584
0.004600 0.004600 0.004600
0.004615 0.004615 0.004615
0.004631 0.004631 0.004631
0.004646 0.004646 0.004646
0.004662 0.004662 0.004662
0.004677 0.004677 0.004677
0.004693 0.004693 0.004693
0.004709 0.004709 0.004709
0.004724 0.004724 0.004724
0.004740 0.004740 0.004740
0.004756 0.004756 0.004756
0.004772 0.004772 0.004772
0.004788 0.004788 0.004788
0.004804 0.004804 0.004804
0.004820 0.004820 0.004820
0.004836 0.004836 0.004836
0.004852 0.004852 0.004852
0.004868 0.004868 0.004868
0.004884 0.004884 0.004884
0.004900 0.004900 0.004900
0.004917 0.004917 0.004917
0.004933 0.004933 0.004933
0.004949 0.004949 0.004949
0.004966 0.004966 0.004966
0.004982 0.004982 0.004982
0.004999 0.004999 0.004999
0.005015 0.005015 0.005015
0.005032 0.005032 0.005032
0.005048 0.005048 0.005048
0.005065 0.005065 0.005065
0.005082 0.005082 0.005082
0.005098 0.005098 0.005098
0.005115 0.005115 0.005115
0.005132 0.005132 0.005132
0.005149 0.005149 0.005149
0.005166 0.005166 0.005166
0.005183 0.005183 0.005183
0.005200 0.005200 0.005200
0.005217 0.005217 0.005217
0.005234 0.005234 0.005234
0.005251 0.005251 0.005251
0.005269 0.005269 0.005269
0.005286 0.005286 0.005286
0.005303 0.005303 0.005303
0.005320 0.005320 0.005320
0.005338 0.005338 0.005338
0.005355 0.005355 0.005355
0.005373 0.005373 0.005373
0.005390 0.005390 0.005390
0.005408 0.005408 0.005408
0.005426 0.005426 0.005426
0.005443 0.005443 0.005443
0.005461 0.005461 0.005461
0.005479 0.005479 0.005479
0.005497 0.005497 0.005497
0.005515 0.005515 0.005515
0.005533 0.005533 0.005533
0.005551 0.005551 0.005551
0.005569 0.005569 0.005569
0.005587 0.005587 0.005587
0.005605 0.005605 0.005605
0.005623 0.005623 0.005623
0.005641 0.005641 0.005641
0.005660 0.005660 0.005660
0.005678 0.005678 0.005678
0.005696 0.005696 0.005696
0.005715 0.005715 0.005715
0.005733 0.005733 0.005733
0.005752 0.005752 0.005752
0.005770 0.005770 0.005770
0.005789 0.005789 0.005789
0.005808 0.005808 0.005808
0.005826 0.005826 0.005826
0.005845 0.005845 0.005845
0.005864 0.005864 0.005864
0.005883 0.005883 0.005883
0.005902 0.005902 0.005902
0.005921 0.005921 0.005921
0.005940 0.005940 0.005940
0.005959 0.005959 0.005959
0.005978 0.005978 0.005978
0.005997 0.005997 0.005997
0.006017 0.006017 0.006017
0.006036 0.006036 0.006036
0.006055 0.006055 0.006055
0.006075 0.006075 0.006075
0.006094 0.006094 0.006094
0.006114 0.006114 0.006114
0.006133 0.006133 0.006133
0.006153 0.006153 0.006153
0.006173 0.006173 0.006173
0.006192 0.006192 0.006192
0.006212 0.006212 0.006212
0.006232 0.006232 0.006232
0.006252 0.006252 0.006252
0.006272 0.006272 0.006272
0.006292 0.006292 0.006292
0.006312 0.006312 0.006312
0.006332 0.006332 0.006332
0.006352 0.006352 0.006352
0.006372 0.006372 0.006372
0.006393 0.006393 0.006393
0.006413 0.006413 0.006413
0.006433 0.006433 0.006433
0.006454 0.006454 0.006454
0.006474 0.006474 0.006474
0.006495 0.006495 0.006495
0.006516 0.006516 0.006516
0.006536 0.006536 0.006536
0.006557 0.006557 0.006557
0.006578 0.006578 0.006578
0.006599 0.006599 0.006599
0.006620 0.006620 0.006620
0.006640 0.006640 0.006640
0.006661 0.006661 0.006661
0.006683 0.006683 0.006683
0.006704 0.006704 0.006704
0.006725 0.006725 0.006725
0.006746 0.006746 0.006746
0.006767 0.006767 0.006767
0.006789 0.006789 0.006789
0.006810 0.006810 0.006810
0.006832 0.006832 0.006832
0.006853 0.006853 0.006853
0.006875 0.006875 0.006875
0.006896 0.006896 0.006896
0.006918 0.006918 0.006918
0.006940 0.006940 0.006940
0.006962 0.006962 0.006962
0.006984 0.006984 0.006984
0.007006 0.007006 0.007006
0.007028 0.007028 0.007028
0.007050 0.007050 0.007050
0.007072 0.007072 0.007072
0.007094 0.007094 0.007094
0.007116 0.007116 0.007116
0.007139 0.007139 0.007139
0.007161 0.007161 0.007161
0.007183 0.007183 0.007183
0.007206 0.007206 0.007206
0.007228 0.007228 0.007228
0.007251 0.007251 0.007251
0.007274 0.007274 0.007274
0.007297 0.007297 0.007297
0.007319 0.007319 0.007319
0.007342 0.007342 0.007342
0.007365 0.007365 0.007365
0.007388 0.007388 0.007388
0.007411 0.007411 0.007411
0.007434 0.007434 0.007434
0.007457 0.007457 0.007457
0.007481 0.007481 0.007481
0.007504 0.007504 0.007504
0.007527 0.007527 0.007527
0.007551 0.007551 0.007551
0.007574 0.007574 0.007574
0.007598 0.007598 0.007598
0.007622 0.007622 0.007622
0.007645 0.007645 0.007645
0.007669 0.007669 0.007669
0.007693 0.007693 0.007693
0.007717 0.007717 0.007717
0.007741 0.007741 0.007741
0.007765 0.007765 0.007765
0.007789 0.007789 0.007789
0.007813 0.007813 0.007813
0.007837 0.007837 0.007837
0.007861 0.007861 0.007861
0.007886 0.007886 0.007886
0.007910 0.007910 0.007910
0.007935 0.007935 0.007935
0.007959 0.007959 0.007959
0.007984 0.007984 0.007984
0.008008 0.008008 0.008008
0.008033 0.008033 0.008033
0.008058 0.008058 0.008058
0.008083 0.008083 0.008083
0.008108 0.008108 0.008108
0.008133 0.008133 0.008133
0.008158 0.008158 0.008158
0.008183 0.008183 0.008183
0.008208 0.008208 0.008208
0.008234 0.008234 0.008234
0.008259 0.008259 0.008259
0.008284 0.008284 0.008284
0.008310 0.008310 0.008310
0.008335 0.008335 0.008335
0.008361 0.008361 0.008361
0.008387 0.008387 0.008387
0.008412 0.008412 0.008412
0.008438 0.008438 0.008438
0.008464 0.008464 0.008464
0.008490 0.008490 0.008490
0.008516 0.008516 0.008516
0.008542 0.008542 0.008542
0.008569 0.008569 0.008569
0.008595 0.008595 0.008595
0.008621 0.008621 0.008621
0.008648 0.008648 0.008648
0.008674 0.008674 0.008674
0.008701 0.008701 0.008701
0.008727 0.008727 0.008727
0.008754 0.008754 0.008754
0.008781 0.008781 0.008781
0.008808 0.008808 0.008808
0.008834 0.008834 0.008834
0.008861 0.008861 0.008861
0.008889 0.008889 0.008889
0.008916 0.008916 0.008916
0.008943 0.008943 0.008943
0.008970 0.008970 0.008970
0.008998 0.008998 0.008998
0.009025 0.009025 0.009025
0.009052 0.009052 0.009052
0.009080 0.009080 0.009080
0.009108 0.009108 0.009108
0.009135 0.009135 0.009135
0.009163 0.009163 0.009163
0.009191 0.009191 0.009191
0.009219 0.009219 0.009219
0.009247 0.009247 0.009247
0.009275 0.009275 0.009275
0.009303 0.009303 0.009303
0.009332 0.009332 0.009332
0.009360 0.009360 0.009360
0.009388 0.009388 0.009388
0.009417 0.009417 0.009417
0.009446 0.009446 0.009446
0.009474 0.009474 0.009474
0.009503 0.009503 0.009503
0.009532 0.009532 0.009532
0.009561 0.009561 0.009561
0.009590 0.009590 0.009590
0.009619 0.009619 0.009619
0.009648 0.009648 0.009648
0.009677 0.009677 0.009677
0.009706 0.009706 0.009706
0.009736 0.009736 0.009736
0.009765 0.009765 0.009765
0.009794 0.009794 0.009794
0.009824 0.009824 0.009824
0.009854 0.009854 0.009854
0.009884 0.009884 0.009884
0.009913 0.009913 0.009913
0.009943 0.009943 0.009943
0.009973 0.009973 0.009973
0.010003 0.010003 0.010003
0.010033 0.010033 0.010033
0.010064 0.010064 0.010064
0.010094 0.010094 0.010094
0.010124 0.010124 0.010124
0.010155 0.010155 0.010155
0.010186 0.010186 0.010186
0.010216 0.010216 0.010216
0.010247 0.010247 0.010247
0.010278 0.010278 0.010278
0.010309 0.010309 0.010309
0.010340 0.010340 0.010340
0.010371 0.010371 0.010371
0.010402 0.010402 0.010402
0.010433 0.010433 0.010433
0.010464 0.010464 0.010464
0.010496 0.010496 0.010496
0.010527 0.010527 0.010527
0.010559 0.010559 0.010559
