assets/luts/Filmic_to_0-48_1-09.cube
LUT_1D_SIZE 4096
0.000000 0.000000 0.000000
0.000038 0.000038 0.000038
0.000076 0.000076 0.000076
0.000114 0.000114 0.000114
0.000153 0.000153 0.000153
0.000191 0.000191 0.000191
0.000229 0.000229 0.000229
0.000268 0.000268 0.000268
0.000306 0.000306 0.000306
0.000344 0.000344 0.000344
0.000383 0.000383 0.000383
0.000422 0.000422 0.000422
0.000460 0.000460 0.000460
0.000499 0.000499 0.000499
0.000538 0.000538 0.000538
0.000576 0.000576 0.000576
0.000615 0.000615 0.000615
0.000654 0.000654 0.000654
0.000693 0.000693 0.000693
0.000732 0.000732 0.000732
0.000771 0.000771 0.000771
0.000810 0.000810 0.000810
0.000849 0.000849 0.000849
0.000888 0.000888 0.000888
0.000927 0.000927 0.000927
0.000967 0.000967 0.000967
0.001006 0.001006 0.001006
0.001045 0.001045 0.001045
0.001085 0.001085 0.001085
0.001124 0.001124 0.001124
0.001164 0.001164 0.001164
0.001203 0.001203 0.001203
0.001243 0.001243 0.001243
0.001283 0.001283 0.001283
0.001323 0.001323 0.001323
0.001362 0.001362 0.001362
0.001402 0.001402 0.001402
0.001442 0.001442 0.001442
0.001482 0.001482 0.001482
0.001522 0.001522 0.001522
0.001562 0.001562 0.001562
0.001602 0.001602 0.001602
0.001642 0.001642 0.001642
0.001682 0.001682 0.001682
0.001723 0.001723 0.001723
0.001763 0.001763 0.001763
0.001803 0.001803 0.001803
0.001844 0.001844 0.001844
0.001884 0.001884 0.001884
0.001925 0.001925 0.001925
0.001965 0.001965 0.001965
0.002006 0.002006 0.002006
0.002047 0.002047 0.002047
0.002087 0.002087 0.002087
0.002128 0.002128 0.002128
0.002169 0.002169 0.002169
0.002210 0.002210 0.002210
0.002251 0.002251 0.002251
0.002292 0.002292 0.002292
0.002333 0.002333 0.002333
0.002374 0.002374 0.002374
0.002415 0.002415 0.002415
0.002456 0.002456 0.002456
0.002497 0.002497 0.002497
0.002539 0.002539 0.002539
0.002580 0.002580 0.002580
0.002622 0.002622 0.002622
0.002663 0.002663 0.002663
0.002705 0.002705 0.002705
0.002746 0.002746 0.002746
0.002788 0.002788 0.002788
0.002829 0.002829 0.002829
0.002871 0.002871 0.002871
0.002913 0.002913 0.002913
0.002955 0.002955 0.002955
0.002997 0.002997 0.002997
0.003039 0.003039 0.003039
0.003081 0.003081 0.003081
0.003123 0.003123 0.003123
0.003165 0.003165 0.003165
0.003207 0.003207 0.003207
0.003249 0.003249 0.003249
0.003292 0.003292 0.003292
0.003334 0.003334 0.003334
0.003376 0.003376 0.003376
0.003419 0.003419 0.003419
0.003461 0.003461 0.003461
0.003504 0.003504 0.003504
0.003546 0.003546 0.003546
0.003589 0.003589 0.003589
0.003632 0.003632 0.003632
0.003675 0.003675 0.003675
0.003717 0.003717 0.003717
0.003760 0.003760 0.003760
0.003803 0.003803 0.003803
0.003846 0.003846 0.003846
0.003889 0.003889 0.003889
0.003932 0.003932 0.003932
0.003975 0.003975 0.003975
0.004019 0.004019 0.004019
0.004062 0.004062 0.004062
0.004105 0.004105 0.004105
0.004149 0.004149 0.004149
0.004192 0.004192 0.004192
0.004236 0.004236 0.004236
0.004279 0.004279 0.004279
0.004323 0.004323 0.004323
0.004366 0.004366 0.004366
0.004410 0.004410 0.004410
0.004454 0.004454 0.004454
0.004498 0.004498 0.004498
0.004542 0.004542 0.004542
0.004586 0.004586 0.004586
0.004630 0.004630 0.004630
0.004674 0.004674 0.004674
0.004718 0.004718 0.004718
0.004762 0.004762 0.004762
0.004806 0.004806 0.004806
0.004851 0.004851 0.004851
0.004895 0.004895 0.004895
0.004939 0.004939 0.004939
0.004984 0.004984 0.004984
0.005028 0.005028 0.005028
0.005073 0.005073 0.005073
0.005117 0.005117 0.005117
0.005162 0.005162 0.005162
0.005207 0.005207 0.005207
0.005252 0.005252 0.005252
0.005297 0.005297 0.005297
0.005341 0.005341 0.005341
0.005386 0.005386 0.005386
0.005432 0.005432 0.005432
0.005477 0.005477 0.005477
0.005522 0.005522 0.005522
0.005567 0.005567 0.005567
0.005612 0.005612 0.005612
0.005658 0.005658 0.005658
0.005703 0.005703 0.005703
0.005748 0.005748 0.005748
0.005794 0.005794 0.005794
0.005839 0.005839 0.005839
0.005885 0.005885 0.005885
0.005931 0.005931 0.005931
0.005977 0.005977 0.005977
0.006022 0.006022 0.006022
0.006068 0.006068 0.006068
0.006114 0.006114 0.006114
0.006160 0.006160 0.006160
0.006206 0.006206 0.006206
0.006252 0.006252 0.006252
0.006298 0.006298 0.006298
0.006345 0.006345 0.006345
0.006391 0.006391 0.006391
0.006437 0.006437 0.006437
0.006484 0.006484 0.006484
0.006530 0.006530 0.006530
0.006577 0.006577 0.006577
0.006623 0.006623 0.006623
0.006670 0.006670 0.006670
0.006716 0.006716 0.006716
0.006763 0.006763 0.006763
0.006810 0.006810 0.006810
0.006857 0.006857 0.006857
0.006904 0.006904 0.006904
0.006951 0.006951 0.006951
0.006998 0.006998 0.006998
0.007045 0.007045 0.007045
0.007092 0.007092 0.007092
0.007139 0.007139 0.007139
0.007187 0.007187 0.007187
0.007234 0.007234 0.007234
0.007281 0.007281 0.007281
0.007329 0.007329 0.007329
0.007376 0.007376 0.007376
0.007424 0.007424 0.007424
0.007472 0.007472 0.007472
0.007519 0.007519 0.007519
0.007567 0.007567 0.007567
0.007615 0.007615 0.007615
0.007663 0.007663 0.007663
0.007711 0.007711 0.007711
0.007759 0.007759 0.007759
0.007807 0.007807 0.007807
0.007855 0.007855 0.007855
0.007903 0.007903 0.007903
0.007952 0.007952 0.007952
0.008000 0.008000 0.008000
0.008048 0.008048 0.008048
0.008097 0.008097 0.008097
0.008145 0.008145 0.008145
0.008194 0.008194 0.008194
0.008243 0.008243 0.008243
0.008291 0.008291 0.008291
0.008340 0.008340 0.008340
0.008389 0.008389 0.008389
0.008438 0.008438 0.008438
0.008487 0.008487 0.008487
0.008536 0.008536 0.008536
0.008585 0.008585 0.008585
0.008634 0.008634 0.008634
0.008683 0.008683 0.008683
0.008733 0.008733 0.008733
0.008782 0.008782 0.008782
0.008831 0.008831 0.008831
0.008881 0.008881 0.008881
0.008930 0.008930 0.008930
0.008980 0.008980 0.008980
0.009030 0.009030 0.009030
0.009079 0.009079 0.009079
0.009129 0.009129 0.009129
0.009179 0.009179 0.009179
0.009229 0.009229 0.009229
0.009279 0.009279 0.009279
0.009329 0.009329 0.009329
0.009379 0.009379 0.009379
0.009429 0.009429 0.009429
0.009479 0.009479 0.009479
0.009530 0.009530 0.009530
0.009580 0.009580 0.009580
0.009630 0.009630 0.009630
0.009681 0.009681 0.009681
0.009732 0.009732 0.009732
0.009782 0.009782 0.009782
0.009833 0.009833 0.009833
0.009884 0.009884 0.009884
0.009934 0.009934 0.009934
0.009985 0.009985 0.009985
0.010036 0.010036 0.010036
0.010087 0.010087 0.010087
0.010138 0.010138 0.010138
0.010189 0.010189 0.010189
0.010241 0.010241 0.010241
0.010292 0.010292 0.010292
0.010343 0.010343 0.010343
0.010395 0.010395 0.010395
0.010446 0.010446 0.010446
0.010498 0.010498 0.010498
0.010549 0.010549 0.010549
0.010601 0.010601 0.010601
0.010653 0.010653 0.010653
0.010705 0.010705 0.010705
0.010756 0.010756 0.010756
0.010808 0.010808 0.010808
0.010860 0.010860 0.010860
0.010912 0.010912 0.010912
0.010965 0.010965 0.010965
0.011017 0.011017 0.011017
0.011069 0.011069 0.011069
0.011121 0.011121 0.011121
0.011174 0.011174 0.011174
0.011226 0.011226 0.011226
0.011279 0.011279 0.011279
0.011331 0.011331 0.011331
0.011384 0.011384 0.011384
0.011437 0.011437 0.011437
0.011490 0.011490 0.011490
0.011542 0.011542 0.011542
0.011595 0.011595 0.011595
0.011648 0.011648 0.011648
0.011701 0.011701 0.011701
0.011755 0.011755 0.011755
0.011808 0.011808 0.011808
0.011861 0.011861 0.011861
0.011914 0.011914 0.011914
0.011968 0.011968 0.011968
0.012021 0.012021 0.012021
0.012075 0.012075 0.012075
0.012129 0.012129 0.012129
0.012182 0.012182 0.012182
0.012236 0.012236 0.012236
0.012290 0.012290 0.012290
0.012344 0.012344 0.012344
0.012398 0.012398 0.012398
0.012452 0.012452 0.012452
0.012506 0.012506 0.012506
0.012560 0.012560 0.012560
0.012614 0.012614 0.012614
0.012669 0.012669 0.012669
0.012723 0.012723 0.012723
0.012777 0.012777 0.012777
0.012832 0.012832 0.012832
0.012886 0.012886 0.012886
0.012941 0.012941 0.012941
0.012996 0.012996 0.012996
0.013051 0.013051 0.013051
0.013106 0.013106 0.013106
0.013160 0.013160 0.013160
0.013215 0.013215 0.013215
0.013271 0.013271 0.013271
0.013326 0.013326 0.013326
0.013381 0.013381 0.013381
0.013436 0.013436 0.013436
0.013492 0.013492 0.013492
0.013547 0.013547 0.013547
0.013602 0.013602 0.013602
0.013658 0.013658 0.013658
0.013714 0.013714 0.013714
0.013769 0.013769 0.013769
0.013825 0.013825 0.013825
0.013881 0.013881 0.013881
0.013937 0.013937 0.013937
0.013993 0.013993 0.013993
0.014049 0.014049 0.014049
0.014105 0.014105 0.014105
0.014161 0.014161 0.014161
0.014218 0.014218 0.014218
0.014274 0.014274 0.014274
0.014330 0.014330 0.014330
0.014387 0.014387 0.014387
0.014444 0.014444 0.014444
0.014500 0.014500 0.014500
0.014557 0.014557 0.014557
0.014614 0.014614 0.014614
0.014671 0.014671 0.014671
0.014727 0.014727 0.014727
0.014784 0.014784 0.014784
0.014842 0.014842 0.014842
0.014899 0.014899 0.014899
0.014956 0.014956 0.014956
0.015013 0.015013 0.015013
0.015071 0.015071 0.015071
0.015128 0.015128 0.015128
0.015186 0.015186 0.015186
0.015243 0.015243 0.015243
0.015301 0.015301 0.015301
0.015359 0.015359 0.015359
0.015416 0.015416 0.015416
0.015474 0.015474 0.015474
0.015532 0.015532 0.015532
0.015590 0.015590 0.015590
0.015648 0.015648 0.015648
0.015706 0.015706 0.015706
0.015765 0.015765 0.015765
0.015823 0.015823 0.015823
0.015881 0.015881 0.015881
0.015940 0.015940 0.015940
0.015998 0.015998 0.015998
0.016057 0.016057 0.016057
0.016116 0.016116 0.016116
0.016175 0.016175 0.016175
0.016233 0.016233 0.016233
0.016292 0.016292 0.016292
0.016351 0.016351 0.016351
0.016410 0.016410 0.016410
0.016470 0.016470 0.016470
0.016529 0.016529 0.016529
0.016588 0.016588 0.016588
0.016647 0.016647 0.016647
0.016707 0.016707 0.016707
0.016766 0.016766 0.016766
0.016826 0.016826 0.016826
0.016886 0.016886 0.016886
0.016945 0.016945 0.016945
0.017005 0.017005 0.017005
0.017065 0.017065 0.017065
0.017125 0.017125 0.017125
0.017185 0.017185 0.017185
0.017245 0.017245 0.017245
0.017306 0.017306 0.017306
0.017366 0.017366 0.017366
0.017426 0.017426 0.017426
0.017487 0.017487 0.017487
0.017547 0.017547 0.017547
0.017608 0.017608 0.017608
0.017668 0.017668 0.017668
0.017729 0.017729 0.017729
0.017790 0.017790 0.017790
0.017851 0.017851 0.017851
0.017912 0.017912 0.017912
0.017973 0.017973 0.017973
0.018034 0.018034 0.018034
0.018095 0.018095 0.018095
0.018156 0.018156 0.018156
0.018218 0.018218 0.018218
0.018279 0.018279 0.018279
0.018341 0.018341 0.018341
0.018402 0.018402 0.018402
0.018464 0.018464 0.018464
0.018526 0.018526 0.018526
0.018588 0.018588 0.018588
0.018650 0.018650 0.018650
0.018711 0.018711 0.018711
0.018774 0.018774 0.018774
0.018836 0.018836 0.018836
0.018898 0.018898 0.018898
0.018960 0.018960 0.018960
0.019023 0.019023 0.019023
0.019085 0.019085 0.019085
0.019148 0.019148 0.019148
0.019210 0.019210 0.019210
0.019273 0.019273 0.019273
0.019336 0.019336 0.019336
0.019399 0.019399 0.019399
0.019461 0.019461 0.019461
0.019524 0.019524 0.019524
0.019588 0.019588 0.019588
0.019651 0.019651 0.019651
0.019714 0.019714 0.019714
0.019777 0.019777 0.019777
0.019841 0.019841 0.019841
0.019904 0.019904 0.019904
0.019968 0.019968 0.019968
0.020031 0.020031 0.020031
0.020095 0.020095 0.020095
0.020159 0.020159 0.020159
0.020223 0.020223 0.020223
0.020287 0.020287 0.020287
0.020351 0.020351 0.020351
0.020415 0.020415 0.020415
0.020479 0.020479 0.020479
0.020544 0.020544 0.020544
0.020608 0.020608 0.020608
0.020672 0.020672 0.020672
0.020737 0.020737 0.020737
0.020802 0.020802 0.020802
0.020866 0.020866 0.020866
0.020931 0.020931 0.020931
0.020996 0.020996 0.020996
0.021061 0.021061 0.021061
0.021126 0.021126 0.021126
0.021191 0.021191 0.021191
0.021256 0.021256 0.021256
0.021322 0.021322 0.021322
0.021387 0.021387 0.021387
0.021452 0.021452 0.021452
0.021518 0.021518 0.021518
0.021583 0.021583 0.021583
0.021649 0.021649 0.021649
0.021715 0.021715 0.021715
0.021781 0.021781 0.021781
0.021847 0.021847 0.021847
0.021913 0.021913 0.021913
0.021979 0.021979 0.021979
0.022045 0.022045 0.022045
0.022111 0.022111 0.022111
0.022178 0.022178 0.022178
0.022244 0.022244 0.022244
0.022311 0.022311 0.022311
0.022377 0.022377 0.022377
0.022444 0.022444 0.022444
0.022511 0.022511 0.022511
0.022578 0.022578 0.022578
0.022645 0.022645 0.022645
0.022712 0.022712 0.022712
0.022779 0.022779 0.022779
0.022846 0.022846 0.022846
0.022913 0.022913 0.022913
0.022981 0.022981 0.022981
0.023048 0.023048 0.023048
0.023116 0.023116 0.023116
0.023183 0.023183 0.023183
0.023251 0.023251 0.023251
0.023319 0.023319 0.023319
0.023387 0.023387 0.023387
0.023455 0.023455 0.023455
0.023523 0.023523 0.023523
0.023591 0.023591 0.023591
0.023659 0.023659 0.023659
0.023727 0.023727 0.023727
0.023796 0.023796 0.023796
0.023864 0.023864 0.023864
0.023933 0.023933 0.023933
0.024001 0.024001 0.024001
0.024070 0.024070 0.024070
0.024139 0.024139 0.024139
0.024208 0.024208 0.024208
0.024277 0.024277 0.024277
0.024346 0.024346 0.024346
0.024415 0.024415 0.024415
0.024484 0.024484 0.024484
0.024554 0.024554 0.024554
0.024623 0.024623 0.024623
0.024693 0.024693 0.024693
0.024762 0.024762 0.024762
0.024832 0.024832 0.024832
0.024902 0.024902 0.024902
0.024972 0.024972 0.024972
0.025042 0.025042 0.025042
0.025112 0.025112 0.025112
0.025182 0.025182 0.025182
0.025252 0.025252 0.025252
0.025322 0.025322 0.025322
0.025393 0.025393 0.025393
0.025463 0.025463 0.025463
0.025534 0.025534 0.025534
0.025604 0.025604 0.025604
0.025675 0.025675 0.025675
0.025746 0.025746 0.025746
0.025817 0.025817 0.025817
0.025888 0.025888 0.025888
0.025959 0.025959 0.025959
0.026030 0.026030 0.026030
0.026101 0.026101 0.026101
0.026173 0.026173 0.026173
0.026244 0.026244 0.026244
0.026316 0.026316 0.026316
0.026388 0.026388 0.026388
0.026459 0.026459 0.026459
0.026531 0.026531 0.026531
0.026603 0.026603 0.026603
0.026675 0.026675 0.026675
0.026747 0.026747 0.026747
0.026819 0.026819 0.026819
0.026892 0.026892 0.026892
0.026964 0.026964 0.026964
0.027036 0.027036 0.027036
0.027109 0.027109 0.027109
0.027182 0.027182 0.027182
0.027254 0.027254 0.027254
0.027327 0.027327 0.027327
0.027400 0.027400 0.027400
0.027473 0.027473 0.027473
0.027546 0.027546 0.027546
0.027619 0.027619 0.027619
0.027693 0.027693 0.027693
0.027766 0.027766 0.027766
0.027839 0.027839 0.027839
0.027913 0.027913 0.027913
0.027987 0.027987 0.027987
0.028060 0.028060 0.028060
0.028134 0.028134 0.028134
0.028208 0.028208 0.028208
0.028282 0.028282 0.028282
0.028356 0.028356 0.028356
0.028430 0.028430 0.028430
0.028505 0.028505 0.028505
0.028579 0.028579 0.028579
0.028654 0.028654 0.028654
0.028728 0.028728 0.028728
0.028803 0.028803 0.028803
0.028878 0.028878 0.028878
0.028952 0.028952 0.028952
0.029027 0.029027 0.029027
0.029102 0.029102 0.029102
0.029177 0.029177 0.029177
0.029253 0.029253 0.029253
0.029328 0.029328 0.029328
0.029403 0.029403 0.029403
0.029479 0.029479 0.029479
0.029555 0.029555 0.029555
0.029630 0.029630 0.029630
0.029706 0.029706 0.029706
0.029782 0.029782 0.029782
0.029858 0.029858 0.029858
0.029934 0.029934 0.029934
0.030010 0.030010 0.030010
0.030086 0.030086 0.030086
0.030163 0.030163 0.030163
0.030239 0.030239 0.030239
0.030316 0.030316 0.030316
0.030392 0.030392 0.030392
0.030469 0.030469 0.030469
0.030546 0.030546 0.030546
0.030623 0.030623 0.030623
0.030700 0.030700 0.030700
0.030777 0.030777 0.030777
0.030854 0.030854 0.030854
0.030932 0.030932 0.030932
0.031009 0.031009 0.031009
0.031086 0.031086 0.031086
0.031164 0.031164 0.031164
0.031242 0.031242 0.031242
0.031320 0.031320 0.031320
0.031397 0.031397 0.031397
0.031475 0.031475 0.031475
0.031553 0.031553 0.031553
0.031632 0.031632 0.031632
0.031710 0.031710 0.031710
0.031788 0.031788 0.031788
0.031867 0.031867 0.031867
0.031945 0.031945 0.031945
0.032024 0.032024 0.032024
0.032103 0.032103 0.032103
0.032182 0.032182 0.032182
0.032261 0.032261 0.032261
0.032340 0.032340 0.032340
0.032419 0.032419 0.032419
0.032498 0.032498 0.032498
0.032577 0.032577 0.032577
0.032657 0.032657 0.032657
0.032736 0.032736 0.032736
0.032816 0.032816 0.032816
0.032896 0.032896 0.032896
0.032976 0.032976 0.032976
0.033056 0.033056 0.033056
0.033136 0.033136 0.033136
0.033216 0.033216 0.033216
0.033296 0.033296 0.033296
0.033376 0.033376 0.033376
0.033457 0.033457 0.033457
0.033537 0.033537 0.033537
0.033618 0.033618 0.033618
0.033699 0.033699 0.033699
0.033780 0.033780 0.033780
0.033861 0.033861 0.033861
0.033942 0.033942 0.033942
0.034023 0.034023 0.034023
0.034104 0.034104 0.034104
0.034185 0.034185 0.034185
0.034267 0.034267 0.034267
0.034348 0.034348 0.034348
0.034430 0.034430 0.034430
0.034512 0.034512 0.034512
0.034594 0.034594 0.034594
0.034676 0.034676 0.034676
0.034758 0.034758 0.034758
0.034840 0.034840 0.034840
0.034922 0.034922 0.034922
0.035005 0.035005 0.035005
0.035087 0.035087 0.035087
0.035170 0.035170 0.035170
0.035252 0.035252 0.035252
0.035335 0.035335 0.035335
0.035418 0.035418 0.035418
0.035501 0.035501 0.035501
0.035584 0.035584 0.035584
0.035667 0.035667 0.035667
0.035750 0.035750 0.035750
0.035834 0.035834 0.035834
0.035917 0.035917 0.035917
0.036001 0.036001 0.036001
0.036085 0.036085 0.036085
0.036168 0.036168 0.036168
0.036252 0.036252 0.036252
0.036336 0.036336 0.036336
0.036420 0.036420 0.036420
0.036505 0.036505 0.036505
0.036589 0.036589 0.036589
0.036673 0.036673 0.036673
0.036758 0.036758 0.036758
0.036843 0.036843 0.036843
0.036927 0.036927 0.036927
0.037012 0.037012 0.037012
0.037097 0.037097 0.037097
0.037182 0.037182 0.037182
0.037267 0.037267 0.037267
0.037353 0.037353 0.037353
0.037438 0.037438 0.037438
0.037523 0.037523 0.037523
0.037609 0.037609 0.037609
0.037695 0.037695 0.037695
0.037780 0.037780 0.037780
0.037866 0.037866 0.037866
0.037952 0.037952 0.037952
0.038038 0.038038 0.038038
0.038125 0.038125 0.038125
0.038211 0.038211 0.038211
0.038297 0.038297 0.038297
0.038384 0.038384 0.038384
0.038471 0.038471 0.038471
0.038557 0.038557 0.038557
0.038644 0.038644 0.038644
0.038731 0.038731 0.038731
0.038818 0.038818 0.038818
0.038905 0.038905 0.038905
0.038993 0.038993 0.038993
0.039080 0.039080 0.039080
0.039168 0.039168 0.039168
0.039255 0.039255 0.039255
0.039343 0.039343 0.039343
0.039431 0.039431 0.039431
0.039519 0.039519 0.039519
0.039607 0.039607 0.039607
0.039695 0.039695 0.039695
0.039783 0.039783 0.039783
0.039871 0.039871 0.039871
0.039960 0.039960 0.039960
0.040048 0.040048 0.040048
0.040137 0.040137 0.040137
0.040226 0.040226 0.040226
0.040315 0.040315 0.040315
0.040404 0.040404 0.040404
0.040493 0.040493 0.040493
0.040582 0.040582 0.040582
0.040671 0.040671 0.040671
0.040761 0.040761 0.040761
0.040851 0.040851 0.040851
0.040940 0.040940 0.040940
0.041030 0.041030 0.041030
0.041120 0.041120 0.041120
0.041210 0.041210 0.041210
0.041300 0.041300 0.041300
0.041390 0.041390 0.041390
0.041481 0.041481 0.041481
0.041571 0.041571 0.041571
0.041662 0.041662 0.041662
0.041752 0.041752 0.041752
0.041843 0.041843 0.041843
0.041934 0.041934 0.041934
0.042025 0.042025 0.042025
0.042116 0.042116 0.042116
0.042207 0.042207 0.042207
0.042299 0.042299 0.042299
0.042390 0.042390 0.042390
0.042482 0.042482 0.042482
0.042573 0.042573 0.042573
0.042665 0.042665 0.042665
0.042757 0.042757 0.042757
0.042849 0.042849 0.042849
0.042941 0.042941 0.042941
0.043033 0.043033 0.043033
0.043126 0.043126 0.043126
0.043218 0.043218 0.043218
0.043311 0.043311 0.043311
0.043403 0.043403 0.043403
0.043496 0.043496 0.043496
0.043589 0.043589 0.043589
0.043682 0.043682 0.043682
0.043775 0.043775 0.043775
0.043868 0.043868 0.043868
0.043962 0.043962 0.043962
0.044055 0.044055 0.044055
0.044149 0.044149 0.044149
0.044243 0.044243 0.044243
0.044336 0.044336 0.044336
0.044430 0.044430 0.044430
0.044524 0.044524 0.044524
0.044619 0.044619 0.044619
0.044713 0.044713 0.044713
0.044807 0.044807 0.044807
0.044902 0.044902 0.044902
0.044996 0.044996 0.044996
0.045091 0.045091 0.045091
0.045186 0.045186 0.045186
0.045281 0.045281 0.045281
0.045376 0.045376 0.045376
0.045471 0.045471 0.045471
0.045567 0.045567 0.045567
0.045662 0.045662 0.045662
0.045758 0.045758 0.045758
0.045853 0.045853 0.045853
0.045949 0.045949 0.045949
0.046045 0.046045 0.046045
0.046141 0.046141 0.046141
0.046237 0.046237 0.046237
0.046333 0.046333 0.046333
0.046430 0.046430 0.046430
0.046526 0.046526 0.046526
0.046623 0.046623 0.046623
0.046720 0.046720 0.046720
0.046816 0.046816 0.046816
0.046913 0.046913 0.046913
0.047011 0.047011 0.047011
0.047108 0.047108 0.047108
0.047205 0.047205 0.047205
0.047302 0.047302 0.047302
0.047400 0.047400 0.047400
0.047498 0.047498 0.047498
0.047595 0.047595 0.047595
0.047693 0.047693 0.047693
0.047791 0.047791 0.047791
0.047890 0.047890 0.047890
0.047988 0.047988 0.047988
0.048086 0.048086 0.048086
0.048185 0.048185 0.048185
0.048283 0.048283 0.048283
0.048382 0.048382 0.048382
0.048481 0.048481 0.048481
0.048580 0.048580 0.048580
0.048679 0.048679 0.048679
0.048778 0.048778 0.048778
0.048878 0.048878 0.048878
0.048977 0.048977 0.048977
0.049077 0.049077 0.049077
0.049176 0.049176 0.049176
0.049276 0.049276 0.049276
0.049376 0.049376 0.049376
0.049476 0.049476 0.049476
0.049576 0.049576 0.049576
0.049677 0.049677 0.049677
0.049777 0.049777 0.049777
0.049878 0.049878 0.049878
0.049978 0.049978 0.049978
0.050079 0.050079 0.050079
0.050180 0.050180 0.050180
0.050281 0.050281 0.050281
0.050382 0.050382 0.050382
0.050484 0.050484 0.050484
0.050585 0.050585 0.050585
0.050687 0.050687 0.050687
0.050788 0.050788 0.050788
0.050890 0.050890 0.050890
0.050992 0.050992 0.050992
0.051094 0.051094 0.051094
0.051196 0.051196 0.051196
0.051298 0.051298 0.051298
0.051401 0.051401 0.051401
0.051503 0.051503 0.051503
0.051606 0.051606 0.051606
0.051709 0.051709 0.051709
0.051812 0.051812 0.051812
0.051915 0.051915 0.051915
0.052018 0.052018 0.052018
0.052121 0.052121 0.052121
0.052224 0.052224 0.052224
0.052328 0.052328 0.052328
0.052432 0.052432 0.052432
0.052535 0.052535 0.052535
0.052639 0.052639 0.052639
0.052743 0.052743 0.052743
0.052847 0.052847 0.052847
0.052952 0.052952 0.052952
0.053056 0.053056 0.053056
0.053161 0.053161 0.053161
0.053265 0.053265 0.053265
0.053370 0.053370 0.053370
0.053475 0.053475 0.053475
0.053580 0.053580 0.053580
0.053685 0.053685 0.053685
0.053790 0.053790 0.053790
0.053896 0.053896 0.053896
0.054001 0.054001 0.054001
0.054107 0.054107 0.054107
0.054213 0.054213 0.054213
0.054319 0.054319 0.054319
0.054425 0.054425 0.054425
0.054531 0.054531 0.054531
0.054637 0.054637 0.054637
0.054744 0.054744 0.054744
0.054850 0.054850 0.054850
0.054957 0.054957 0.054957
0.055064 0.055064 0.055064
0.055171 0.055171 0.055171
0.055278 0.055278 0.055278
0.055385 0.055385 0.055385
0.055492 0.055492 0.055492
0.055600 0.055600 0.055600
0.055707 0.055707 0.055707
0.055815 0.055815 0.055815
0.055923 0.055923 0.055923
0.056031 0.056031 0.056031
0.056139 0.056139 0.056139
0.056247 0.056247 0.056247
0.056355 0.056355 0.056355
0.056464 0.056464 0.056464
0.056572 0.056572 0.056572
0.056681 0.056681 0.056681
0.056790 0.056790 0.056790
0.056899 0.056899 0.056899
0.057008 0.057008 0.057008
0.057118 0.057118 0.057118
0.057227 0.057227 0.057227
0.057336 0.057336 0.057336
0.057446 0.057446 0.057446
0.057556 0.057556 0.057556
0.057666 0.057666 0.057666
0.057776 0.057776 0.057776
0.057886 0.057886 0.057886
0.057996 0.057996 0.057996
0.058107 0.058107 0.058107
0.058217 0.058217 0.058217
0.058328 0.058328 0.058328
0.058439 0.058439 0.058439
0.058550 0.058550 0.058550
0.058661 0.058661 0.058661
0.058772 0.058772 0.058772
0.058884 0.058884 0.058884
0.058995 0.058995 0.058995
0.059107 0.059107 0.059107
0.059219 0.059219 0.059219
0.059331 0.059331 0.059331
0.059443 0.059443 0.059443
0.059555 0.059555 0.059555
0.059667 0.059667 0.059667
0.059780 0.059780 0.059780
0.059892 0.059892 0.059892
0.060005 0.060005 0.060005
0.060118 0.060118 0.060118
0.060231 0.060231 0.060231
0.060344 0.060344 0.060344
0.060457 0.060457 0.060457
0.060570 0.060570 0.060570
0.060684 0.060684 0.060684
0.060798 0.060798 0.060798
0.060911 0.060911 0.060911
0.061025 0.061025 0.061025
0.061139 0.061139 0.061139
0.061254 0.061254 0.061254
0.061368 0.061368 0.061368
0.061482 0.061482 0.061482
0.061597 0.061597 0.061597
0.061712 0.061712 0.061712
0.061827 0.061827 0.061827
0.061942 0.061942 0.061942
0.062057 0.062057 0.062057
0.062172 0.062172 0.062172
0.062288 0.062288 0.062288
0.062403 0.062403 0.062403
