assets/luts/Filmic_to_0-70_1-03.cube
LUT_1D_SIZE 4096
0.000000 0.000000 0.000000
0.000014 0.000014 0.000014
0.000027 0.000027 0.000027
0.000041 0.000041 0.000041
0.000054 0.000054 0.000054
0.000068 0.000068 0.000068
0.000082 0.000082 0.000082
0.000095 0.000095 0.000095
0.000109 0.000109 0.000109
0.000123 0.000123 0.000123
0.000137 0.000137 0.000137
0.000150 0.000150 0.000150
0.000164 0.000164 0.000164
0.000178 0.000178 0.000178
0.000192 0.000192 0.000192
0.000206 0.000206 0.000206
0.000220 0.000220 0.000220
0.000234 0.000234 0.000234
0.000248 0.000248 0.000248
0.000262 0.000262 0.000262
0.000276 0.000276 0.000276
0.000290 0.000290 0.000290
0.000304 0.000304 0.000304
0.000318 0.000318 0.000318
0.000332 0.000332 0.000332
0.000347 0.000347 0.000347
0.000361 0.000361 0.000361
0.000375 0.000375 0.000375
0.000389 0.000389 0.000389
0.000404 0.000404 0.000404
0.000418 0.000418 0.000418
0.000432 0.000432 0.000432
0.000447 0.000447 0.000447
0.000461 0.000461 0.000461
0.000476 0.000476 0.000476
0.000490 0.000490 0.000490
0.000505 0.000505 0.000505
0.000519 0.000519 0.000519
0.000534 0.000534 0.000534
0.000548 0.000548 0.000548
0.000563 0.000563 0.000563
0.000577 0.000577 0.000577
0.000592 0.000592 0.000592
0.000607 0.000607 0.000607
0.000622 0.000622 0.000622
0.000636 0.000636 0.000636
0.000651 0.000651 0.000651
0.000666 0.000666 0.000666
0.000681 0.000681 0.000681
0.000696 0.000696 0.000696
0.000710 0.000710 0.000710
0.000725 0.000725 0.000725
0.000740 0.000740 0.000740
0.000755 0.000755 0.000755
0.000770 0.000770 0.000770
0.000785 0.000785 0.000785
0.000800 0.000800 0.000800
0.000816 0.000816 0.000816
0.000831 0.000831 0.000831
0.000846 0.000846 0.000846
0.000861 0.000861 0.000861
0.000876 0.000876 0.000876
0.000891 0.000891 0.000891
0.000907 0.000907 0.000907
0.000922 0.000922 0.000922
0.000937 0.000937 0.000937
0.000953 0.000953 0.000953
0.000968 0.000968 0.000968
0.000983 0.000983 0.000983
0.000999 0.000999 0.000999
0.001014 0.001014 0.001014
0.001030 0.001030 0.001030
0.001045 0.001045 0.001045
0.001061 0.001061 0.001061
0.001077 0.001077 0.001077
0.001092 0.001092 0.001092
0.001108 0.001108 0.001108
0.001124 0.001124 0.001124
0.001139 0.001139 0.001139
0.001155 0.001155 0.001155
0.001171 0.001171 0.001171
0.001187 0.001187 0.001187
0.001203 0.001203 0.001203
0.001218 0.001218 0.001218
0.001234 0.001234 0.001234
0.001250 0.001250 0.001250
0.001266 0.001266 0.001266
0.001282 0.001282 0.001282
0.001298 0.001298 0.001298
0.001314 0.001314 0.001314
0.001330 0.001330 0.001330
0.001346 0.001346 0.001346
0.001363 0.001363 0.001363
0.001379 0.001379 0.001379
0.001395 0.001395 0.001395
0.001411 0.001411 0.001411
0.001428 0.001428 0.001428
0.001444 0.001444 0.001444
0.001460 0.001460 0.001460
0.001477 0.001477 0.001477
0.001493 0.001493 0.001493
0.001509 0.001509 0.001509
0.001526 0.001526 0.001526
0.001542 0.001542 0.001542
0.001559 0.001559 0.001559
0.001575 0.001575 0.001575
0.001592 0.001592 0.001592
0.001609 0.001609 0.001609
0.001625 0.001625 0.001625
0.001642 0.001642 0.001642
0.001659 0.001659 0.001659
0.001675 0.001675 0.001675
0.001692 0.001692 0.001692
0.001709 0.001709 0.001709
0.001726 0.001726 0.001726
0.001743 0.001743 0.001743
0.001760 0.001760 0.001760
0.001777 0.001777 0.001777
0.001794 0.001794 0.001794
0.001811 0.001811 0.001811
0.001828 0.001828 0.001828
0.001845 0.001845 0.001845
0.001862 0.001862 0.001862
0.001879 0.001879 0.001879
0.001896 0.001896 0.001896
0.001913 0.001913 0.001913
0.001931 0.001931 0.001931
0.001948 0.001948 0.001948
0.001965 0.001965 0.001965
0.001983 0.001983 0.001983
0.002000 0.002000 0.002000
0.002017 0.002017 0.002017
0.002035 0.002035 0.002035
0.002052 0.002052 0.002052
0.002070 0.002070 0.002070
0.002087 0.002087 0.002087
0.002105 0.002105 0.002105
0.002123 0.002123 0.002123
0.002140 0.002140 0.002140
0.002158 0.002158 0.002158
0.002176 0.002176 0.002176
0.002193 0.002193 0.002193
0.002211 0.002211 0.002211
0.002229 0.002229 0.002229
0.002247 0.002247 0.002247
0.002265 0.002265 0.002265
0.002283 0.002283 0.002283
0.002301 0.002301 0.002301
0.002319 0.002319 0.002319
0.002337 0.002337 0.002337
0.002355 0.002355 0.002355
0.002373 0.002373 0.002373
0.002391 0.002391 0.002391
0.002409 0.002409 0.002409
0.002427 0.002427 0.002427
0.002445 0.002445 0.002445
0.002464 0.002464 0.002464
0.002482 0.002482 0.002482
0.002500 0.002500 0.002500
0.002519 0.002519 0.002519
0.002537 0.002537 0.002537
0.002556 0.002556 0.002556
0.002574 0.002574 0.002574
0.002593 0.002593 0.002593
0.002611 0.002611 0.002611
0.002630 0.002630 0.002630
0.002648 0.002648 0.002648
0.002667 0.002667 0.002667
0.002686 0.002686 0.002686
0.002704 0.002704 0.002704
0.002723 0.002723 0.002723
0.002742 0.002742 0.002742
0.002761 0.002761 0.002761
0.002780 0.002780 0.002780
0.002799 0.002799 0.002799
0.002818 0.002818 0.002818
0.002837 0.002837 0.002837
0.002856 0.002856 0.002856
0.002875 0.002875 0.002875
0.002894 0.002894 0.002894
0.002913 0.002913 0.002913
0.002932 0.002932 0.002932
0.002951 0.002951 0.002951
0.002971 0.002971 0.002971
0.002990 0.002990 0.002990
0.003009 0.003009 0.003009
0.003029 0.003029 0.003029
0.003048 0.003048 0.003048
0.003067 0.003067 0.003067
0.003087 0.003087 0.003087
0.003106 0.003106 0.003106
0.003126 0.003126 0.003126
0.003145 0.003145 0.003145
0.003165 0.003165 0.003165
0.003185 0.003185 0.003185
0.003204 0.003204 0.003204
0.003224 0.003224 0.003224
0.003244 0.003244 0.003244
0.003264 0.003264 0.003264
0.003284 0.003284 0.003284
0.003303 0.003303 0.003303
0.003323 0.003323 0.003323
0.003343 0.003343 0.003343
0.003363 0.003363 0.003363
0.003383 0.003383 0.003383
0.003403 0.003403 0.003403
0.003424 0.003424 0.003424
0.003444 0.003444 0.003444
0.003464 0.003464 0.003464
0.003484 0.003484 0.003484
0.003504 0.003504 0.003504
0.003525 0.003525 0.003525
0.003545 0.003545 0.003545
0.003565 0.003565 0.003565
0.003586 0.003586 0.003586
0.003606 0.003606 0.003606
0.003627 0.003627 0.003627
0.003647 0.003647 0.003647
0.003668 0.003668 0.003668
0.003689 0.003689 0.003689
0.003709 0.003709 0.003709
0.003730 0.003730 0.003730
0.003751 0.003751 0.003751
0.003772 0.003772 0.003772
0.003792 0.003792 0.003792
0.003813 0.003813 0.003813
0.003834 0.003834 0.003834
0.003855 0.003855 0.003855
0.003876 0.003876 0.003876
0.003897 0.003897 0.003897
0.003918 0.003918 0.003918
0.003939 0.003939 0.003939
0.003960 0.003960 0.003960
0.003982 0.003982 0.003982
0.004003 0.004003 0.004003
0.004024 0.004024 0.004024
0.004045 0.004045 0.004045
0.004067 0.004067 0.004067
0.004088 0.004088 0.004088
0.004110 0.004110 0.004110
0.004131 0.004131 0.004131
0.004153 0.004153 0.004153
0.004174 0.004174 0.004174
0.004196 0.004196 0.004196
0.004217 0.004217 0.004217
0.004239 0.004239 0.004239
0.004261 0.004261 0.004261
0.004282 0.004282 0.004282
0.004304 0.004304 0.004304
0.004326 0.004326 0.004326
0.004348 0.004348 0.004348
0.004370 0.004370 0.004370
0.004392 0.004392 0.004392
0.004414 0.004414 0.004414
0.004436 0.004436 0.004436
0.004458 0.004458 0.004458
0.004480 0.004480 0.004480
0.004502 0.004502 0.004502
0.004525 0.004525 0.004525
0.004547 0.004547 0.004547
0.004569 0.004569 0.004569
0.004592 0.004592 0.004592
0.004614 0.004614 0.004614
0.004636 0.004636 0.004636
0.004659 0.004659 0.004659
0.004681 0.004681 0.004681
0.004704 0.004704 0.004704
0.004727 0.004727 0.004727
0.004749 0.004749 0.004749
0.004772 0.004772 0.004772
0.004795 0.004795 0.004795
0.004818 0.004818 0.004818
0.004840 0.004840 0.004840
0.004863 0.004863 0.004863
0.004886 0.004886 0.004886
0.004909 0.004909 0.004909
0.004932 0.004932 0.004932
0.004955 0.004955 0.004955
0.004978 0.004978 0.004978
0.005001 0.005001 0.005001
0.005025 0.005025 0.005025
0.005048 0.005048 0.005048
0.005071 0.005071 0.005071
0.005094 0.005094 0.005094
0.005118 0.005118 0.005118
0.005141 0.005141 0.005141
0.005165 0.005165 0.005165
0.005188 0.005188 0.005188
0.005212 0.005212 0.005212
0.005235 0.005235 0.005235
0.005259 0.005259 0.005259
0.005283 0.005283 0.005283
0.005306 0.005306 0.005306
0.005330 0.005330 0.005330
0.005354 0.005354 0.005354
0.005378 0.005378 0.005378
0.005402 0.005402 0.005402
0.005426 0.005426 0.005426
0.005450 0.005450 0.005450
0.005474 0.005474 0.005474
0.005498 0.005498 0.005498
0.005522 0.005522 0.005522
0.005546 0.005546 0.005546
0.005570 0.005570 0.005570
0.005595 0.005595 0.005595
0.005619 0.005619 0.005619
0.005643 0.005643 0.005643
0.005668 0.005668 0.005668
0.005692 0.005692 0.005692
0.005717 0.005717 0.005717
0.005741 0.005741 0.005741
0.005766 0.005766 0.005766
0.005791 0.005791 0.005791
0.005815 0.005815 0.005815
0.005840 0.005840 0.005840
0.005865 0.005865 0.005865
0.005890 0.005890 0.005890
0.005915 0.005915 0.005915
0.005940 0.005940 0.005940
0.005965 0.005965 0.005965
0.005990 0.005990 0.005990
0.006015 0.006015 0.006015
0.006040 0.006040 0.006040
0.006065 0.006065 0.006065
0.006090 0.006090 0.006090
0.006115 0.006115 0.006115
0.006141 0.006141 0.006141
0.006166 0.006166 0.006166
0.006192 0.006192 0.006192
0.006217 0.006217 0.006217
0.006243 0.006243 0.006243
0.006268 0.006268 0.006268
0.006294 0.006294 0.006294
0.006319 0.006319 0.006319
0.006345 0.006345 0.006345
0.006371 0.006371 0.006371
0.006397 0.006397 0.006397
0.006423 0.006423 0.006423
0.006448 0.006448 0.006448
0.006474 0.006474 0.006474
0.006500 0.006500 0.006500
0.006527 0.006527 0.006527
0.006553 0.006553 0.006553
0.006579 0.006579 0.006579
0.006605 0.006605 0.006605
0.006631 0.006631 0.006631
0.006658 0.006658 0.006658
0.006684 0.006684 0.006684
0.006710 0.006710 0.006710
0.006737 0.006737 0.006737
0.006763 0.006763 0.006763
0.006790 0.006790 0.006790
0.006816 0.006816 0.006816
0.006843 0.006843 0.006843
0.006870 0.006870 0.006870
0.006897 0.006897 0.006897
0.006923 0.006923 0.006923
0.006950 0.006950 0.006950
0.006977 0.006977 0.006977
0.007004 0.007004 0.007004
0.007031 0.007031 0.007031
0.007058 0.007058 0.007058
0.007085 0.007085 0.007085
0.007113 0.007113 0.007113
0.007140 0.007140 0.007140
0.007167 0.007167 0.007167
0.007194 0.007194 0.007194
0.007222 0.007222 0.007222
0.007249 0.007249 0.007249
0.007277 0.007277 0.007277
0.007304 0.007304 0.007304
0.007332 0.007332 0.007332
0.007360 0.007360 0.007360
0.007387 0.007387 0.007387
0.007415 0.007415 0.007415
0.007443 0.007443 0.007443
0.007471 0.007471 0.007471
0.007499 0.007499 0.007499
0.007527 0.007527 0.007527
0.007555 0.007555 0.007555
0.007583 0.007583 0.007583
0.007611 0.007611 0.007611
0.007639 0.007639 0.007639
0.007667 0.007667 0.007667
0.007696 0.007696 0.007696
0.007724 0.007724 0.007724
0.007752 0.007752 0.007752
0.007781 0.007781 0.007781
0.007809 0.007809 0.007809
0.007838 0.007838 0.007838
0.007867 0.007867 0.007867
0.007895 0.007895 0.007895
0.007924 0.007924 0.007924
0.007953 0.007953 0.007953
0.007982 0.007982 0.007982
0.008010 0.008010 0.008010
0.008039 0.008039 0.008039
0.008068 0.008068 0.008068
0.008097 0.008097 0.008097
0.008127 0.008127 0.008127
0.008156 0.008156 0.008156
0.008185 0.008185 0.008185
0.008214 0.008214 0.008214
0.008244 0.008244 0.008244
0.008273 0.008273 0.008273
0.008302 0.008302 0.008302
0.008332 0.008332 0.008332
0.008361 0.008361 0.008361
0.008391 0.008391 0.008391
0.008421 0.008421 0.008421
0.008451 0.008451 0.008451
0.008480 0.008480 0.008480
0.008510 0.008510 0.008510
0.008540 0.008540 0.008540
0.008570 0.008570 0.008570
0.008600 0.008600 0.008600
0.008630 0.008630 0.008630
0.008660 0.008660 0.008660
0.008690 0.008690 0.008690
0.008721 0.008721 0.008721
0.008751 0.008751 0.008751
0.008781 0.008781 0.008781
0.008812 0.008812 0.008812
0.008842 0.008842 0.008842
0.008873 0.008873 0.008873
0.008903 0.008903 0.008903
0.008934 0.008934 0.008934
0.008965 0.008965 0.008965
0.008996 0.008996 0.008996
0.009026 0.009026 0.009026
0.009057 0.009057 0.009057
0.009088 0.009088 0.009088
0.009119 0.009119 0.009119
0.009150 0.009150 0.009150
0.009181 0.009181 0.009181
0.009213 0.009213 0.009213
0.009244 0.009244 0.009244
0.009275 0.009275 0.009275
0.009306 0.009306 0.009306
0.009338 0.009338 0.009338
0.009369 0.009369 0.009369
0.009401 0.009401 0.009401
0.009433 0.009433 0.009433
0.009464 0.009464 0.009464
0.009496 0.009496 0.009496
0.009528 0.009528 0.009528
0.009560 0.009560 0.009560
0.009591 0.009591 0.009591
0.009623 0.009623 0.009623
0.009655 0.009655 0.009655
0.009687 0.009687 0.009687
0.009720 0.009720 0.009720
0.009752 0.009752 0.009752
0.009784 0.009784 0.009784
0.009816 0.009816 0.009816
0.009849 0.009849 0.009849
0.009881 0.009881 0.009881
0.009914 0.009914 0.009914
0.009946 0.009946 0.009946
0.009979 0.009979 0.009979
0.010012 0.010012 0.010012
0.010045 0.010045 0.010045
0.010077 0.010077 0.010077
0.010110 0.010110 0.010110
0.010143 0.010143 0.010143
0.010176 0.010176 0.010176
0.010209 0.010209 0.010209
0.010242 0.010242 0.010242
0.010276 0.010276 0.010276
0.010309 0.010309 0.010309
0.010342 0.010342 0.010342
0.010376 0.010376 0.010376
0.010409 0.010409 0.010409
0.010443 0.010443 0.010443
0.010476 0.010476 0.010476
0.010510 0.010510 0.010510
0.010544 0.010544 0.010544
0.010577 0.010577 0.010577
0.010611 0.010611 0.010611
0.010645 0.010645 0.010645
0.010679 0.010679 0.010679
0.010713 0.010713 0.010713
0.010747 0.010747 0.010747
0.010781 0.010781 0.010781
0.010816 0.010816 0.010816
0.010850 0.010850 0.010850
0.010884 0.010884 0.010884
0.010919 0.010919 0.010919
0.010953 0.010953 0.010953
0.010988 0.010988 0.010988
0.011022 0.011022 0.011022
0.011057 0.011057 0.011057
0.011092 0.011092 0.011092
0.011127 0.011127 0.011127
0.011161 0.011161 0.011161
0.011196 0.011196 0.011196
0.011231 0.011231 0.011231
0.011267 0.011267 0.011267
0.011302 0.011302 0.011302
0.011337 0.011337 0.011337
0.011372 0.011372 0.011372
0.011408 0.011408 0.011408
0.011443 0.011443 0.011443
0.011478 0.011478 0.011478
0.011514 0.011514 0.011514
0.011550 0.011550 0.011550
0.011585 0.011585 0.011585
0.011621 0.011621 0.011621
0.011657 0.011657 0.011657
0.011693 0.011693 0.011693
0.011729 0.011729 0.011729
0.011765 0.011765 0.011765
0.011801 0.011801 0.011801
0.011837 0.011837 0.011837
0.011873 0.011873 0.011873
0.011910 0.011910 0.011910
0.011946 0.011946 0.011946
0.011982 0.011982 0.011982
0.012019 0.012019 0.012019
0.012055 0.012055 0.012055
0.012092 0.012092 0.012092
0.012129 0.012129 0.012129
0.012166 0.012166 0.012166
0.012202 0.012202 0.012202
0.012239 0.012239 0.012239
0.012276 0.012276 0.012276
0.012313 0.012313 0.012313
0.012351 0.012351 0.012351
0.012388 0.012388 0.012388
0.012425 0.012425 0.012425
0.012462 0.012462 0.012462
0.012500 0.012500 0.012500
0.012537 0.012537 0.012537
0.012575 0.012575 0.012575
0.012613 0.012613 0.012613
0.012650 0.012650 0.012650
0.012688 0.012688 0.012688
0.012726 0.012726 0.012726
0.012764 0.012764 0.012764
0.012802 0.012802 0.012802
0.012840 0.012840 0.012840
0.012878 0.012878 0.012878
0.012916 0.012916 0.012916
0.012954 0.012954 0.012954
0.012993 0.012993 0.012993
0.013031 0.013031 0.013031
0.013070 0.013070 0.013070
0.013108 0.013108 0.013108
0.013147 0.013147 0.013147
0.013186 0.013186 0.013186
0.013224 0.013224 0.013224
0.013263 0.013263 0.013263
0.013302 0.013302 0.013302
0.013341 0.013341 0.013341
0.013380 0.013380 0.013380
0.013420 0.013420 0.013420
0.013459 0.013459 0.013459
0.013498 0.013498 0.013498
0.013537 0.013537 0.013537
0.013577 0.013577 0.013577
0.013616 0.013616 0.013616
0.013656 0.013656 0.013656
0.013696 0.013696 0.013696
0.013736 0.013736 0.013736
0.013775 0.013775 0.013775
0.013815 0.013815 0.013815
0.013855 0.013855 0.013855
0.013895 0.013895 0.013895
0.013935 0.013935 0.013935
0.013976 0.013976 0.013976
0.014016 0.014016 0.014016
0.014056 0.014056 0.014056
0.014097 0.014097 0.014097
0.014137 0.014137 0.014137
0.014178 0.014178 0.014178
0.014219 0.014219 0.014219
0.014259 0.014259 0.014259
0.014300 0.014300 0.014300
0.014341 0.014341 0.014341
0.014382 0.014382 0.014382
0.014423 0.014423 0.014423
0.014464 0.014464 0.014464
0.014505 0.014505 0.014505
0.014547 0.014547 0.014547
0.014588 0.014588 0.014588
0.014629 0.014629 0.014629
0.014671 0.014671 0.014671
0.014713 0.014713 0.014713
0.014754 0.014754 0.014754
0.014796 0.014796 0.014796
0.014838 0.014838 0.014838
0.014880 0.014880 0.014880
0.014922 0.014922 0.014922
0.014964 0.014964 0.014964
0.015006 0.015006 0.015006
0.015048 0.015048 0.015048
0.015091 0.015091 0.015091
0.015133 0.015133 0.015133
0.015175 0.015175 0.015175
0.015218 0.015218 0.015218
0.015261 0.015261 0.015261
0.015303 0.015303 0.015303
0.015346 0.015346 0.015346
0.015389 0.015389 0.015389
0.015432 0.015432 0.015432
0.015475 0.015475 0.015475
0.015518 0.015518 0.015518
0.015561 0.015561 0.015561
0.015605 0.015605 0.015605
0.015648 0.015648 0.015648
0.015691 0.015691 0.015691
0.015735 0.015735 0.015735
0.015778 0.015778 0.015778
0.015822 0.015822 0.015822
0.015866 0.015866 0.015866
0.015910 0.015910 0.015910
0.015954 0.015954 0.015954
0.015998 0.015998 0.015998
0.016042 0.016042 0.016042
0.016086 0.016086 0.016086
0.016130 0.016130 0.016130
0.016175 0.016175 0.016175
0.016219 0.016219 0.016219
0.016264 0.016264 0.016264
0.016308 0.016308 0.016308
0.016353 0.016353 0.016353
0.016398 0.016398 0.016398
0.016443 0.016443 0.016443
0.016487 0.016487 0.016487
0.016533 0.016533 0.016533
0.016578 0.016578 0.016578
0.016623 0.016623 0.016623
0.016668 0.016668 0.016668
0.016713 0.016713 0.016713
0.016759 0.016759 0.016759
0.016804 0.016804 0.016804
0.016850 0.016850 0.016850
0.016896 0.016896 0.016896
0.016942 0.016942 0.016942
0.016987 0.016987 0.016987
0.017033 0.017033 0.017033
0.017079 0.017079 0.017079
0.017126 0.017126 0.017126
0.017172 0.017172 0.017172
0.017218 0.017218 0.017218
0.017265 0.017265 0.017265
0.017311 0.017311 0.017311
0.017358 0.017358 0.017358
0.017404 0.017404 0.017404
0.017451 0.017451 0.017451
0.017498 0.017498 0.017498
0.017545 0.017545 0.017545
0.017592 0.017592 0.017592
0.017639 0.017639 0.017639
0.017686 0.017686 0.017686
0.017733 0.017733 0.017733
0.017781 0.017781 0.017781
0.017828 0.017828 0.017828
0.017876 0.017876 0.017876
0.017923 0.017923 0.017923
0.017971 0.017971 0.017971
0.018019 0.018019 0.018019
0.018067 0.018067 0.018067
0.018115 0.018115 0.018115
0.018163 0.018163 0.018163
0.018211 0.018211 0.018211
0.018259 0.018259 0.018259
0.018308 0.018308 0.018308
0.018356 0.018356 0.018356
0.018405 0.018405 0.018405
0.018453 0.018453 0.018453
0.018502 0.018502 0.018502
0.018551 0.018551 0.018551
0.018600 0.018600 0.018600
0.018649 0.018649 0.018649
0.018698 0.018698 0.018698
0.018747 0.018747 0.018747
0.018796 0.018796 0.018796
0.018846 0.018846 0.018846
0.018895 0.018895 0.018895
0.018945 0.018945 0.018945
0.018994 0.018994 0.018994
0.019044 0.019044 0.019044
0.019094 0.019094 0.019094
0.019144 0.019144 0.019144
0.019194 0.019194 0.019194
0.019244 0.019244 0.019244
0.019294 0.019294 0.019294
0.019344 0.019344 0.019344
0.019395 0.019395 0.019395
0.019445 0.019445 0.019445
0.019496 0.019496 0.019496
0.019547 0.019547 0.019547
0.019597 0.019597 0.019597
0.019648 0.019648 0.019648
0.019699 0.019699 0.019699
0.019750 0.019750 0.019750
0.019801 0.019801 0.019801
0.019853 0.019853 0.019853
0.019904 0.019904 0.019904
0.019955 0.019955 0.019955
0.020007 0.020007 0.020007
0.020059 0.020059 0.020059
0.020110 0.020110 0.020110
0.020162 0.020162 0.020162
0.020214 0.020214 0.020214
0.020266 0.020266 0.020266
0.020318 0.020318 0.020318
0.020370 0.020370 0.020370
0.020423 0.020423 0.020423
0.020475 0.020475 0.020475
0.020528 0.020528 0.020528
0.020580 0.020580 0.020580
0.020633 0.020633 0.020633
0.020686 0.020686 0.020686
0.020739 0.020739 0.020739
0.020792 0.020792 0.020792
0.020845 0.020845 0.020845
0.020898 0.020898 0.020898
0.020951 0.020951 0.020951
0.021005 0.021005 0.021005
0.021058 0.021058 0.021058
0.021112 0.021112 0.021112
0.021165 0.021165 0.021165
0.021219 0.021219 0.021219
0.021273 0.021273 0.021273
0.021327 0.021327 0.021327
0.021381 0.021381 0.021381
0.021435 0.021435 0.021435
0.021490 0.021490 0.021490
0.021544 0.021544 0.021544
0.021599 0.021599 0.021599
0.021653 0.021653 0.021653
0.021708 0.021708 0.021708
0.021763 0.021763 0.021763
0.021818 0.021818 0.021818
0.021873 0.021873 0.021873
0.021928 0.021928 0.021928
0.021983 0.021983 0.021983
0.022038 0.022038 0.022038
0.022094 0.022094 0.022094
0.022149 0.022149 0.022149
0.022205 0.022205 0.022205
0.022261 0.022261 0.022261
0.022317 0.022317 0.022317
0.022372 0.022372 0.022372
0.022429 0.022429 0.022429
0.022485 0.022485 0.022485
0.022541 0.022541 0.022541
0.022597 0.022597 0.022597
0.022654 0.022654 0.022654
0.022710 0.022710 0.022710
0.022767 0.022767 0.022767
0.022824 0.022824 0.022824
0.022881 0.022881 0.022881
0.022938 0.022938 0.022938
0.022995 0.022995 0.022995
0.023052 0.023052 0.023052
0.023109 0.023109 0.023109
0.023167 0.023167 0.023167
0.023224 0.023224 0.023224
0.023282 0.023282 0.023282
0.023340 0.023340 0.023340
0.023398 0.023398 0.023398
0.023455 0.023455 0.023455
0.023514 0.023514 0.023514
0.023572 0.023572 0.023572
0.023630 0.023630 0.023630
0.023688 0.023688 0.023688
0.023747 0.023747 0.023747
0.023806 0.023806 0.023806
0.023864 0.023864 0.023864
0.023923 0.023923 0.023923
0.023982 0.023982 0.023982
0.024041 0.024041 0.024041
0.024100 0.024100 0.024100
0.024159 0.024159 0.024159
0.024219 0.024219 0.024219
0.024278 0.024278 0.024278
0.024338 0.024338 0.024338
0.024398 0.024398 0.024398
0.024457 0.024457 0.024457
0.024517 0.024517 0.024517
0.024577 0.024577 0.024577
0.024638 0.024638 0.024638
0.024698 0.024698 0.024698
0.024758 0.024758 0.024758
0.024819 0.024819 0.024819
0.024879 0.024879 0.024879
0.024940 0.024940 0.024940
0.025001 0.025001 0.025001
0.025062 0.025062 0.025062
0.025123 0.025123 0.025123
0.025184 0.025184 0.025184
0.025245 0.025245 0.025245
0.025307 0.025307 0.025307
0.025368 0.025368 0.025368
0.025430 0.025430 0.025430
0.025491 0.025491 0.025491
0.025553 0.025553 0.025553
0.025615 0.025615 0.025615
0.025677 0.025677 0.025677
0.025740 0.025740 0.025740
0.025802 0.025802 0.025802
0.025864 0.025864 0.025864
0.025927 0.025927 0.025927
0.025989 0.025989 0.025989
0.026052 0.026052 0.026052
0.026115 0.026115 0.026115
0.026178 0.026178 0.026178
0.026241 0.026241 0.026241
0.026304 0.026304 0.026304
0.026368 0.026368 0.026368
0.026431 0.026431 0.026431
0.026495 0.026495 0.026495
0.026559 0.026559 0.026559
0.026622 0.026622 0.026622
0.026686 0.026686 0.026686
0.026750 0.026750 0.026750
0.026815 0.026815 0.026815
0.026879 0.026879 0.026879
0.026943 0.026943 0.026943
0.027008 0.027008 0.027008
0.027073 0.027073 0.027073
0.027137 0.027137 0.027137
0.027202 0.027202 0.027202
0.027267 0.027267 0.027267
0.027332 0.027332 0.027332
0.027398 0.027398 0.027398
0.027463 0.027463 0.027463
0.027528 0.027528 0.027528
0.027594 0.027594 0.027594
0.027660 0.027660 0.027660
0.027726 0.027726 0.027726
0.027792 0.027792 0.027792
0.027858 0.027858 0.027858
0.027924 0.027924 0.027924
0.027990 0.027990 0.027990
0.028057 0.028057 0.028057
0.028123 0.028123 0.028123
0.028190 0.028190 0.028190
0.028257 0.028257 0.028257
0.028324 0.028324 0.028324
0.028391 0.028391 0.028391
0.028458 0.028458 0.028458
0.028526 0.028526 0.028526
0.028593 0.028593 0.028593
0.028661 0.028661 0.028661
0.028728 0.028728 0.028728
0.028796 0.028796 0.028796
0.028864 0.028864 0.028864
0.028932 0.028932 0.028932
0.029000 0.029000 0.029000
0.029069 0.029069 0.029069
0.029137 0.029137 0.029137
0.029206 0.029206 0.029206
0.029274 0.029274 0.029274
0.029343 0.029343 0.029343
0.029412 0.029412 0.029412
0.029481 0.029481 0.029481
0.029551 0.029551 0.029551
0.029620 0.029620 0.029620
0.029689 0.029689 0.029689
0.029759 0.029759 0.029759
0.029829 0.029829 0.029829
0.029899 0.029899 0.029899
0.029968 0.029968 0.029968
0.030039 0.030039 0.030039
0.030109 0.030109 0.030109
0.030179 0.030179 0.030179
0.030250 0.030250 0.030250
0.030320 0.030320 0.030320
0.030391 0.030391 0.030391
0.030462 0.030462 0.030462
0.030533 0.030533 0.030533
0.030604 0.030604 0.030604
0.030675 0.030675 0.030675
0.030747 0.030747 0.030747
0.030818 0.030818 0.030818
0.030890 0.030890 0.030890
0.030962 0.030962 0.030962
0.031034 0.031034 0.031034
0.031106 0.031106 0.031106
0.031178 0.031178 0.031178
0.031250 0.031250 0.031250
0.031323 0.031323 0.031323
0.031395 0.031395 0.031395
0.031468 0.031468 0.031468
