assets/luts/Filmic_to_0-35_1-30.cube
LUT_1D_SIZE 4096
0.000000 0.000000 0.000000
0.000060 0.000060 0.000060
0.000120 0.000120 0.000120
0.000180 0.000180 0.000180
0.000240 0.000240 0.000240
0.000300 0.000300 0.000300
0.000361 0.000361 0.000361
0.000421 0.000421 0.000421
0.000481 0.000481 0.000481
0.000542 0.000542 0.000542
0.000602 0.000602 0.000602
0.000663 0.000663 0.000663
0.000723 0.000723 0.000723
0.000784 0.000784 0.000784
0.000845 0.000845 0.000845
0.000906 0.000906 0.000906
0.000966 0.000966 0.000966
0.001027 0.001027 0.001027
0.001088 0.001088 0.001088
0.001149 0.001149 0.001149
0.001210 0.001210 0.001210
0.001271 0.001271 0.001271
0.001333 0.001333 0.001333
0.001394 0.001394 0.001394
0.001455 0.001455 0.001455
0.001516 0.001516 0.001516
0.001578 0.001578 0.001578
0.001639 0.001639 0.001639
0.001701 0.001701 0.001701
0.001762 0.001762 0.001762
0.001824 0.001824 0.001824
0.001886 0.001886 0.001886
0.001948 0.001948 0.001948
0.002009 0.002009 0.002009
0.002071 0.002071 0.002071
0.002133 0.002133 0.002133
0.002195 0.002195 0.002195
0.002257 0.002257 0.002257
0.002319 0.002319 0.002319
0.002381 0.002381 0.002381
0.002444 0.002444 0.002444
0.002506 0.002506 0.002506
0.002568 0.002568 0.002568
0.002631 0.002631 0.002631
0.002693 0.002693 0.002693
0.002756 0.002756 0.002756
0.002818 0.002818 0.002818
0.002881 0.002881 0.002881
0.002944 0.002944 0.002944
0.003006 0.003006 0.003006
0.003069 0.003069 0.003069
0.003132 0.003132 0.003132
0.003195 0.003195 0.003195
0.003258 0.003258 0.003258
0.003321 0.003321 0.003321
0.003384 0.003384 0.003384
0.003447 0.003447 0.003447
0.003510 0.003510 0.003510
0.003574 0.003574 0.003574
0.003637 0.003637 0.003637
0.003700 0.003700 0.003700
0.003764 0.003764 0.003764
0.003827 0.003827 0.003827
0.003891 0.003891 0.003891
0.003955 0.003955 0.003955
0.004018 0.004018 0.004018
0.004082 0.004082 0.004082
0.004146 0.004146 0.004146
0.004210 0.004210 0.004210
0.004274 0.004274 0.004274
0.004338 0.004338 0.004338
0.004402 0.004402 0.004402
0.004466 0.004466 0.004466
0.004530 0.004530 0.004530
0.004594 0.004594 0.004594
0.004659 0.004659 0.004659
0.004723 0.004723 0.004723
0.004788 0.004788 0.004788
0.004852 0.004852 0.004852
0.004917 0.004917 0.004917
0.004981 0.004981 0.004981
0.005046 0.005046 0.005046
0.005111 0.005111 0.005111
0.005175 0.005175 0.005175
0.005240 0.005240 0.005240
0.005305 0.005305 0.005305
0.005370 0.005370 0.005370
0.005435 0.005435 0.005435
0.005500 0.005500 0.005500
0.005565 0.005565 0.005565
0.005631 0.005631 0.005631
0.005696 0.005696 0.005696
0.005761 0.005761 0.005761
0.005827 0.005827 0.005827
0.005892 0.005892 0.005892
0.005958 0.005958 0.005958
0.006023 0.006023 0.006023
0.006089 0.006089 0.006089
0.006155 0.006155 0.006155
0.006220 0.006220 0.006220
0.006286 0.006286 0.006286
0.006352 0.006352 0.006352
0.006418 0.006418 0.006418
0.006484 0.006484 0.006484
0.006550 0.006550 0.006550
0.006616 0.006616 0.006616
0.006683 0.006683 0.006683
0.006749 0.006749 0.006749
0.006815 0.006815 0.006815
0.006882 0.006882 0.006882
0.006948 0.006948 0.006948
0.007015 0.007015 0.007015
0.007081 0.007081 0.007081
0.007148 0.007148 0.007148
0.007214 0.007214 0.007214
0.007281 0.007281 0.007281
0.007348 0.007348 0.007348
0.007415 0.007415 0.007415
0.007482 0.007482 0.007482
0.007549 0.007549 0.007549
0.007616 0.007616 0.007616
0.007683 0.007683 0.007683
0.007750 0.007750 0.007750
0.007818 0.007818 0.007818
0.007885 0.007885 0.007885
0.007952 0.007952 0.007952
0.008020 0.008020 0.008020
0.008087 0.008087 0.008087
0.008155 0.008155 0.008155
0.008223 0.008223 0.008223
0.008290 0.008290 0.008290
0.008358 0.008358 0.008358
0.008426 0.008426 0.008426
0.008494 0.008494 0.008494
0.008562 0.008562 0.008562
0.008630 0.008630 0.008630
0.008698 0.008698 0.008698
0.008766 0.008766 0.008766
0.008834 0.008834 0.008834
0.008903 0.008903 0.008903
0.008971 0.008971 0.008971
0.009039 0.009039 0.009039
0.009108 0.009108 0.009108
0.009177 0.009177 0.009177
0.009245 0.009245 0.009245
0.009314 0.009314 0.009314
0.009383 0.009383 0.009383
0.009451 0.009451 0.009451
0.009520 0.009520 0.009520
0.009589 0.009589 0.009589
0.009658 0.009658 0.009658
0.009727 0.009727 0.009727
0.009796 0.009796 0.009796
0.009866 0.009866 0.009866
0.009935 0.009935 0.009935
0.010004 0.010004 0.010004
0.010074 0.010074 0.010074
0.010143 0.010143 0.010143
0.010213 0.010213 0.010213
0.010282 0.010282 0.010282
0.010352 0.010352 0.010352
0.010421 0.010421 0.010421
0.010491 0.010491 0.010491
0.010561 0.010561 0.010561
0.010631 0.010631 0.010631
0.010701 0.010701 0.010701
0.010771 0.010771 0.010771
0.010841 0.010841 0.010841
0.010911 0.010911 0.010911
0.010982 0.010982 0.010982
0.011052 0.011052 0.011052
0.011122 0.011122 0.011122
0.011193 0.011193 0.011193
0.011263 0.011263 0.011263
0.011334 0.011334 0.011334
0.011404 0.011404 0.011404
0.011475 0.011475 0.011475
0.011546 0.011546 0.011546
0.011617 0.011617 0.011617
0.011688 0.011688 0.011688
0.011759 0.011759 0.011759
0.011830 0.011830 0.011830
0.011901 0.011901 0.011901
0.011972 0.011972 0.011972
0.012043 0.012043 0.012043
0.012114 0.012114 0.012114
0.012186 0.012186 0.012186
0.012257 0.012257 0.012257
0.012329 0.012329 0.012329
0.012400 0.012400 0.012400
0.012472 0.012472 0.012472
0.012544 0.012544 0.012544
0.012615 0.012615 0.012615
0.012687 0.012687 0.012687
0.012759 0.012759 0.012759
0.012831 0.012831 0.012831
0.012903 0.012903 0.012903
0.012975 0.012975 0.012975
0.013047 0.013047 0.013047
0.013120 0.013120 0.013120
0.013192 0.013192 0.013192
0.013264 0.013264 0.013264
0.013337 0.013337 0.013337
0.013409 0.013409 0.013409
0.013482 0.013482 0.013482
0.013555 0.013555 0.013555
0.013627 0.013627 0.013627
0.013700 0.013700 0.013700
0.013773 0.013773 0.013773
0.013846 0.013846 0.013846
0.013919 0.013919 0.013919
0.013992 0.013992 0.013992
0.014065 0.014065 0.014065
0.014138 0.014138 0.014138
0.014211 0.014211 0.014211
0.014285 0.014285 0.014285
0.014358 0.014358 0.014358
0.014432 0.014432 0.014432
0.014505 0.014505 0.014505
0.014579 0.014579 0.014579
0.014652 0.014652 0.014652
0.014726 0.014726 0.014726
0.014800 0.014800 0.014800
0.014874 0.014874 0.014874
0.014948 0.014948 0.014948
0.015022 0.015022 0.015022
0.015096 0.015096 0.015096
0.015170 0.015170 0.015170
0.015244 0.015244 0.015244
0.015319 0.015319 0.015319
0.015393 0.015393 0.015393
0.015467 0.015467 0.015467
0.015542 0.015542 0.015542
0.015616 0.015616 0.015616
0.015691 0.015691 0.015691
0.015766 0.015766 0.015766
0.015841 0.015841 0.015841
0.015915 0.015915 0.015915
0.015990 0.015990 0.015990
0.016065 0.016065 0.016065
0.016140 0.016140 0.016140
0.016216 0.016216 0.016216
0.016291 0.016291 0.016291
0.016366 0.016366 0.016366
0.016441 0.016441 0.016441
0.016517 0.016517 0.016517
0.016592 0.016592 0.016592
0.016668 0.016668 0.016668
0.016743 0.016743 0.016743
0.016819 0.016819 0.016819
0.016895 0.016895 0.016895
0.016971 0.016971 0.016971
0.017047 0.017047 0.017047
0.017123 0.017123 0.017123
0.017199 0.017199 0.017199
0.017275 0.017275 0.017275
0.017351 0.017351 0.017351
0.017427 0.017427 0.017427
0.017504 0.017504 0.017504
0.017580 0.017580 0.017580
0.017656 0.017656 0.017656
0.017733 0.017733 0.017733
0.017810 0.017810 0.017810
0.017886 0.017886 0.017886
0.017963 0.017963 0.017963
0.018040 0.018040 0.018040
0.018117 0.018117 0.018117
0.018194 0.018194 0.018194
0.018271 0.018271 0.018271
0.018348 0.018348 0.018348
0.018425 0.018425 0.018425
0.018502 0.018502 0.018502
0.018580 0.018580 0.018580
0.018657 0.018657 0.018657
0.018735 0.018735 0.018735
0.018812 0.018812 0.018812
0.018890 0.018890 0.018890
0.018967 0.018967 0.018967
0.019045 0.019045 0.019045
0.019123 0.019123 0.019123
0.019201 0.019201 0.019201
0.019279 0.019279 0.019279
0.019357 0.019357 0.019357
0.019435 0.019435 0.019435
0.019513 0.019513 0.019513
0.019592 0.019592 0.019592
0.019670 0.019670 0.019670
0.019748 0.019748 0.019748
0.019827 0.019827 0.019827
0.019905 0.019905 0.019905
0.019984 0.019984 0.019984
0.020063 0.020063 0.020063
0.020142 0.020142 0.020142
0.020220 0.020220 0.020220
0.020299 0.020299 0.020299
0.020378 0.020378 0.020378
0.020457 0.020457 0.020457
0.020537 0.020537 0.020537
0.020616 0.020616 0.020616
0.020695 0.020695 0.020695
0.020774 0.020774 0.020774
0.020854 0.020854 0.020854
0.020933 0.020933 0.020933
0.021013 0.021013 0.021013
0.021093 0.021093 0.021093
0.021172 0.021172 0.021172
0.021252 0.021252 0.021252
0.021332 0.021332 0.021332
0.021412 0.021412 0.021412
0.021492 0.021492 0.021492
0.021572 0.021572 0.021572
0.021652 0.021652 0.021652
0.021733 0.021733 0.021733
0.021813 0.021813 0.021813
0.021894 0.021894 0.021894
0.021974 0.021974 0.021974
0.022055 0.022055 0.022055
0.022135 0.022135 0.022135
0.022216 0.022216 0.022216
0.022297 0.022297 0.022297
0.022378 0.022378 0.022378
0.022459 0.022459 0.022459
0.022540 0.022540 0.022540
0.022621 0.022621 0.022621
0.022702 0.022702 0.022702
0.022783 0.022783 0.022783
0.022864 0.022864 0.022864
0.022946 0.022946 0.022946
0.023027 0.023027 0.023027
0.023109 0.023109 0.023109
0.023190 0.023190 0.023190
0.023272 0.023272 0.023272
0.023354 0.023354 0.023354
0.023436 0.023436 0.023436
0.023518 0.023518 0.023518
0.023600 0.023600 0.023600
0.023682 0.023682 0.023682
0.023764 0.023764 0.023764
0.023846 0.023846 0.023846
0.023928 0.023928 0.023928
0.024011 0.024011 0.024011
0.024093 0.024093 0.024093
0.024176 0.024176 0.024176
0.024258 0.024258 0.024258
0.024341 0.024341 0.024341
0.024424 0.024424 0.024424
0.024507 0.024507 0.024507
0.024589 0.024589 0.024589
0.024672 0.024672 0.024672
0.024755 0.024755 0.024755
0.024839 0.024839 0.024839
0.024922 0.024922 0.024922
0.025005 0.025005 0.025005
0.025089 0.025089 0.025089
0.025172 0.025172 0.025172
0.025256 0.025256 0.025256
0.025339 0.025339 0.025339
0.025423 0.025423 0.025423
0.025507 0.025507 0.025507
0.025590 0.025590 0.025590
0.025674 0.025674 0.025674
0.025758 0.025758 0.025758
0.025842 0.025842 0.025842
0.025927 0.025927 0.025927
0.026011 0.026011 0.026011
0.026095 0.026095 0.026095
0.026179 0.026179 0.026179
0.026264 0.026264 0.026264
0.026348 0.026348 0.026348
0.026433 0.026433 0.026433
0.026518 0.026518 0.026518
0.026603 0.026603 0.026603
0.026687 0.026687 0.026687
0.026772 0.026772 0.026772
0.026857 0.026857 0.026857
0.026942 0.026942 0.026942
0.027028 0.027028 0.027028
0.027113 0.027113 0.027113
0.027198 0.027198 0.027198
0.027284 0.027284 0.027284
0.027369 0.027369 0.027369
0.027455 0.027455 0.027455
0.027540 0.027540 0.027540
0.027626 0.027626 0.027626
0.027712 0.027712 0.027712
0.027798 0.027798 0.027798
0.027884 0.027884 0.027884
0.027970 0.027970 0.027970
0.028056 0.028056 0.028056
0.028142 0.028142 0.028142
0.028228 0.028228 0.028228
0.028315 0.028315 0.028315
0.028401 0.028401 0.028401
0.028488 0.028488 0.028488
0.028574 0.028574 0.028574
0.028661 0.028661 0.028661
0.028748 0.028748 0.028748
0.028834 0.028834 0.028834
0.028921 0.028921 0.028921
0.029008 0.029008 0.029008
0.029095 0.029095 0.029095
0.029183 0.029183 0.029183
0.029270 0.029270 0.029270
0.029357 0.029357 0.029357
0.029445 0.029445 0.029445
0.029532 0.029532 0.029532
0.029620 0.029620 0.029620
0.029707 0.029707 0.029707
0.029795 0.029795 0.029795
0.029883 0.029883 0.029883
0.029971 0.029971 0.029971
0.030059 0.030059 0.030059
0.030147 0.030147 0.030147
0.030235 0.030235 0.030235
0.030323 0.030323 0.030323
0.030411 0.030411 0.030411
0.030500 0.030500 0.030500
0.030588 0.030588 0.030588
0.030677 0.030677 0.030677
0.030765 0.030765 0.030765
0.030854 0.030854 0.030854
0.030943 0.030943 0.030943
0.031032 0.031032 0.031032
0.031121 0.031121 0.031121
0.031210 0.031210 0.031210
0.031299 0.031299 0.031299
0.031388 0.031388 0.031388
0.031477 0.031477 0.031477
0.031567 0.031567 0.031567
0.031656 0.031656 0.031656
0.031745 0.031745 0.031745
0.031835 0.031835 0.031835
0.031925 0.031925 0.031925
0.032015 0.032015 0.032015
0.032104 0.032104 0.032104
0.032194 0.032194 0.032194
0.032284 0.032284 0.032284
0.032374 0.032374 0.032374
0.032465 0.032465 0.032465
0.032555 0.032555 0.032555
0.032645 0.032645 0.032645
0.032736 0.032736 0.032736
0.032826 0.032826 0.032826
0.032917 0.032917 0.032917
0.033007 0.033007 0.033007
0.033098 0.033098 0.033098
0.033189 0.033189 0.033189
0.033280 0.033280 0.033280
0.033371 0.033371 0.033371
0.033462 0.033462 0.033462
0.033553 0.033553 0.033553
0.033645 0.033645 0.033645
0.033736 0.033736 0.033736
0.033827 0.033827 0.033827
0.033919 0.033919 0.033919
0.034010 0.034010 0.034010
0.034102 0.034102 0.034102
0.034194 0.034194 0.034194
0.034286 0.034286 0.034286
0.034378 0.034378 0.034378
0.034470 0.034470 0.034470
0.034562 0.034562 0.034562
0.034654 0.034654 0.034654
0.034746 0.034746 0.034746
0.034839 0.034839 0.034839
0.034931 0.034931 0.034931
0.035024 0.035024 0.035024
0.035116 0.035116 0.035116
0.035209 0.035209 0.035209
0.035302 0.035302 0.035302
0.035395 0.035395 0.035395
0.035488 0.035488 0.035488
0.035581 0.035581 0.035581
0.035674 0.035674 0.035674
0.035767 0.035767 0.035767
0.035860 0.035860 0.035860
0.035954 0.035954 0.035954
0.036047 0.036047 0.036047
0.036141 0.036141 0.036141
0.036234 0.036234 0.036234
0.036328 0.036328 0.036328
0.036422 0.036422 0.036422
0.036516 0.036516 0.036516
0.036610 0.036610 0.036610
0.036704 0.036704 0.036704
0.036798 0.036798 0.036798
0.036892 0.036892 0.036892
0.036987 0.036987 0.036987
0.037081 0.037081 0.037081
0.037176 0.037176 0.037176
0.037270 0.037270 0.037270
0.037365 0.037365 0.037365
0.037460 0.037460 0.037460
0.037554 0.037554 0.037554
0.037649 0.037649 0.037649
0.037744 0.037744 0.037744
0.037840 0.037840 0.037840
0.037935 0.037935 0.037935
0.038030 0.038030 0.038030
0.038125 0.038125 0.038125
0.038221 0.038221 0.038221
0.038316 0.038316 0.038316
0.038412 0.038412 0.038412
0.038508 0.038508 0.038508
0.038604 0.038604 0.038604
0.038699 0.038699 0.038699
0.038795 0.038795 0.038795
0.038892 0.038892 0.038892
0.038988 0.038988 0.038988
0.039084 0.039084 0.039084
0.039180 0.039180 0.039180
0.039277 0.039277 0.039277
0.039373 0.039373 0.039373
0.039470 0.039470 0.039470
0.039567 0.039567 0.039567
0.039663 0.039663 0.039663
0.039760 0.039760 0.039760
0.039857 0.039857 0.039857
0.039954 0.039954 0.039954
0.040051 0.040051 0.040051
0.040149 0.040149 0.040149
0.040246 0.040246 0.040246
0.040343 0.040343 0.040343
0.040441 0.040441 0.040441
0.040538 0.040538 0.040538
0.040636 0.040636 0.040636
0.040734 0.040734 0.040734
0.040832 0.040832 0.040832
0.040930 0.040930 0.040930
0.041028 0.041028 0.041028
0.041126 0.041126 0.041126
0.041224 0.041224 0.041224
0.041322 0.041322 0.041322
0.041421 0.041421 0.041421
0.041519 0.041519 0.041519
0.041618 0.041618 0.041618
0.041716 0.041716 0.041716
0.041815 0.041815 0.041815
0.041914 0.041914 0.041914
0.042013 0.042013 0.042013
0.042112 0.042112 0.042112
0.042211 0.042211 0.042211
0.042310 0.042310 0.042310
0.042410 0.042410 0.042410
0.042509 0.042509 0.042509
0.042608 0.042608 0.042608
0.042708 0.042708 0.042708
0.042808 0.042808 0.042808
0.042907 0.042907 0.042907
0.043007 0.043007 0.043007
0.043107 0.043107 0.043107
0.043207 0.043207 0.043207
0.043307 0.043307 0.043307
0.043407 0.043407 0.043407
0.043508 0.043508 0.043508
0.043608 0.043608 0.043608
0.043709 0.043709 0.043709
0.043809 0.043809 0.043809
0.043910 0.043910 0.043910
0.044011 0.044011 0.044011
0.044111 0.044111 0.044111
0.044212 0.044212 0.044212
0.044313 0.044313 0.044313
0.044414 0.044414 0.044414
0.044516 0.044516 0.044516
0.044617 0.044617 0.044617
0.044718 0.044718 0.044718
0.044820 0.044820 0.044820
0.044921 0.044921 0.044921
0.045023 0.045023 0.045023
0.045125 0.045125 0.045125
0.045227 0.045227 0.045227
0.045329 0.045329 0.045329
0.045431 0.045431 0.045431
0.045533 0.045533 0.045533
0.045635 0.045635 0.045635
0.045737 0.045737 0.045737
0.045840 0.045840 0.045840
0.045942 0.045942 0.045942
0.046045 0.046045 0.046045
0.046148 0.046148 0.046148
0.046250 0.046250 0.046250
0.046353 0.046353 0.046353
0.046456 0.046456 0.046456
0.046559 0.046559 0.046559
0.046662 0.046662 0.046662
0.046766 0.046766 0.046766
0.046869 0.046869 0.046869
0.046973 0.046973 0.046973
0.047076 0.047076 0.047076
0.047180 0.047180 0.047180
0.047283 0.047283 0.047283
0.047387 0.047387 0.047387
0.047491 0.047491 0.047491
0.047595 0.047595 0.047595
0.047699 0.047699 0.047699
0.047803 0.047803 0.047803
0.047908 0.047908 0.047908
0.048012 0.048012 0.048012
0.048117 0.048117 0.048117
0.048221 0.048221 0.048221
0.048326 0.048326 0.048326
0.048431 0.048431 0.048431
0.048536 0.048536 0.048536
0.048641 0.048641 0.048641
0.048746 0.048746 0.048746
0.048851 0.048851 0.048851
0.048956 0.048956 0.048956
0.049061 0.049061 0.049061
0.049167 0.049167 0.049167
0.049272 0.049272 0.049272
0.049378 0.049378 0.049378
0.049484 0.049484 0.049484
0.049589 0.049589 0.049589
0.049695 0.049695 0.049695
0.049801 0.049801 0.049801
0.049907 0.049907 0.049907
0.050014 0.050014 0.050014
0.050120 0.050120 0.050120
0.050226 0.050226 0.050226
0.050333 0.050333 0.050333
0.050439 0.050439 0.050439
0.050546 0.050546 0.050546
0.050653 0.050653 0.050653
0.050760 0.050760 0.050760
0.050867 0.050867 0.050867
0.050974 0.050974 0.050974
0.051081 0.051081 0.051081
0.051188 0.051188 0.051188
0.051296 0.051296 0.051296
0.051403 0.051403 0.051403
0.051511 0.051511 0.051511
0.051618 0.051618 0.051618
0.051726 0.051726 0.051726
0.051834 0.051834 0.051834
0.051942 0.051942 0.051942
0.052050 0.052050 0.052050
0.052158 0.052158 0.052158
0.052266 0.052266 0.052266
0.052375 0.052375 0.052375
0.052483 0.052483 0.052483
0.052592 0.052592 0.052592
0.052700 0.052700 0.052700
0.052809 0.052809 0.052809
0.052918 0.052918 0.052918
0.053027 0.053027 0.053027
0.053136 0.053136 0.053136
0.053245 0.053245 0.053245
0.053354 0.053354 0.053354
0.053463 0.053463 0.053463
0.053573 0.053573 0.053573
0.053682 0.053682 0.053682
0.053792 0.053792 0.053792
0.053902 0.053902 0.053902
0.054011 0.054011 0.054011
0.054121 0.054121 0.054121
0.054231 0.054231 0.054231
0.054342 0.054342 0.054342
0.054452 0.054452 0.054452
0.054562 0.054562 0.054562
0.054672 0.054672 0.054672
0.054783 0.054783 0.054783
0.054894 0.054894 0.054894
0.055004 0.055004 0.055004
0.055115 0.055115 0.055115
0.055226 0.055226 0.055226
0.055337 0.055337 0.055337
0.055448 0.055448 0.055448
0.055559 0.055559 0.055559
0.055671 0.055671 0.055671
0.055782 0.055782 0.055782
0.055894 0.055894 0.055894
0.056005 0.056005 0.056005
0.056117 0.056117 0.056117
0.056229 0.056229 0.056229
0.056341 0.056341 0.056341
0.056453 0.056453 0.056453
0.056565 0.056565 0.056565
0.056677 0.056677 0.056677
0.056789 0.056789 0.056789
0.056902 0.056902 0.056902
0.057014 0.057014 0.057014
0.057127 0.057127 0.057127
0.057240 0.057240 0.057240
0.057352 0.057352 0.057352
0.057465 0.057465 0.057465
0.057578 0.057578 0.057578
0.057692 0.057692 0.057692
0.057805 0.057805 0.057805
0.057918 0.057918 0.057918
0.058032 0.058032 0.058032
0.058145 0.058145 0.058145
0.058259 0.058259 0.058259
0.058372 0.058372 0.058372
0.058486 0.058486 0.058486
0.058600 0.058600 0.058600
0.058714 0.058714 0.058714
0.058828 0.058828 0.058828
0.058943 0.058943 0.058943
0.059057 0.059057 0.059057
0.059172 0.059172 0.059172
0.059286 0.059286 0.059286
0.059401 0.059401 0.059401
0.059516 0.059516 0.059516
0.059630 0.059630 0.059630
0.059745 0.059745 0.059745
0.059861 0.059861 0.059861
0.059976 0.059976 0.059976
0.060091 0.060091 0.060091
0.060206 0.060206 0.060206
0.060322 0.060322 0.060322
0.060437 0.060437 0.060437
0.060553 0.060553 0.060553
0.060669 0.060669 0.060669
0.060785 0.060785 0.060785
0.060901 0.060901 0.060901
0.061017 0.061017 0.061017
0.061133 0.061133 0.061133
0.061250 0.061250 0.061250
0.061366 0.061366 0.061366
0.061483 0.061483 0.061483
0.061599 0.061599 0.061599
0.061716 0.061716 0.061716
0.061833 0.061833 0.061833
0.061950 0.061950 0.061950
0.062067 0.062067 0.062067
0.062184 0.062184 0.062184
0.062301 0.062301 0.062301
0.062419 0.062419 0.062419
0.062536 0.062536 0.062536
0.062654 0.062654 0.062654
0.062771 0.062771 0.062771
0.062889 0.062889 0.062889
0.063007 0.063007 0.063007
0.063125 0.063125 0.063125
0.063243 0.063243 0.063243
0.063361 0.063361 0.063361
0.063480 0.063480 0.063480
0.063598 0.063598 0.063598
0.063717 0.063717 0.063717
0.063835 0.063835 0.063835
0.063954 0.063954 0.063954
0.064073 0.064073 0.064073
0.064192 0.064192 0.064192
0.064311 0.064311 0.064311
0.064430 0.064430 0.064430
0.064549 0.064549 0.064549
0.064669 0.064669 0.064669
0.064788 0.064788 0.064788
0.064908 0.064908 0.064908
0.065028 0.065028 0.065028
0.065147 0.065147 0.065147
0.065267 0.065267 0.065267
0.065387 0.065387 0.065387
0.065507 0.065507 0.065507
0.065628 0.065628 0.065628
0.065748 0.065748 0.065748
0.065868 0.065868 0.065868
0.065989 0.065989 0.065989
0.066110 0.066110 0.066110
0.066230 0.066230 0.066230
0.066351 0.066351 0.066351
0.066472 0.066472 0.066472
0.066593 0.066593 0.066593
0.066715 0.066715 0.066715
0.066836 0.066836 0.066836
0.066957 0.066957 0.066957
0.067079 0.067079 0.067079
0.067201 0.067201 0.067201
0.067322 0.067322 0.067322
0.067444 0.067444 0.067444
0.067566 0.067566 0.067566
0.067688 0.067688 0.067688
0.067810 0.067810 0.067810
0.067933 0.067933 0.067933
0.068055 0.068055 0.068055
0.068178 0.068178 0.068178
0.068300 0.068300 0.068300
0.068423 0.068423 0.068423
0.068546 0.068546 0.068546
0.068669 0.068669 0.068669
0.068792 0.068792 0.068792
0.068915 0.068915 0.068915
0.069038 0.069038 0.069038
0.069162 0.069162 0.069162
0.069285 0.069285 0.069285
0.069409 0.069409 0.069409
0.069533 0.069533 0.069533
0.069656 0.069656 0.069656
0.069780 0.069780 0.069780
0.069904 0.069904 0.069904
0.070029 0.070029 0.070029
0.070153 0.070153 0.070153
0.070277 0.070277 0.070277
0.070402 0.070402 0.070402
0.070526 0.070526 0.070526
0.070651 0.070651 0.070651
0.070776 0.070776 0.070776
0.070901 0.070901 0.070901
0.071026 0.071026 0.071026
0.071151 0.071151 0.071151
0.071276 0.071276 0.071276
0.071402 0.071402 0.071402
0.071527 0.071527 0.071527
0.071653 0.071653 0.071653
0.071778 0.071778 0.071778
0.071904 0.071904 0.071904
0.072030 0.072030 0.072030
0.072156 0.072156 0.072156
0.072282 0.072282 0.072282
0.072409 0.072409 0.072409
0.072535 0.072535 0.072535
0.072662 0.072662 0.072662
0.072788 0.072788 0.072788
0.072915 0.072915 0.072915
0.073042 0.073042 0.073042
0.073169 0.073169 0.073169
0.073296 0.073296 0.073296
0.073423 0.073423 0.073423
0.073550 0.073550 0.073550
0.073678 0.073678 0.073678
0.073805 0.073805 0.073805
0.073933 0.073933 0.073933
0.074060 0.074060 0.074060
0.074188 0.074188 0.074188
0.074316 0.074316 0.074316
0.074444 0.074444 0.074444
0.074573 0.074573 0.074573
0.074701 0.074701 0.074701
0.074829 0.074829 0.074829
0.074958 0.074958 0.074958
0.075086 0.075086 0.075086
0.075215 0.075215 0.075215
0.075344 0.075344 0.075344
0.075473 0.075473 0.075473
0.075602 0.075602 0.075602
0.075731 0.075731 0.075731
0.075861 0.075861 0.075861
0.075990 0.075990 0.075990
0.076120 0.076120 0.076120
0.076249 0.076249 0.076249
0.076379 0.076379 0.076379
0.076509 0.076509 0.076509
0.076639 0.076639 0.076639
0.076769 0.076769 0.076769
0.076899 0.076899 0.076899
0.077030 0.077030 0.077030
0.077160 0.077160 0.077160
0.077291 0.077291 0.077291
0.077422 0.077422 0.077422
0.077552 0.077552 0.077552
0.077683 0.077683 0.077683
0.077814 0.077814 0.077814
0.077946 0.077946 0.077946
0.078077 0.078077 0.078077
0.078208 0.078208 0.078208
0.078340 0.078340 0.078340
0.078471 0.078471 0.078471
0.078603 0.078603 0.078603
0.078735 0.078735 0.078735
0.078867 0.078867 0.078867
0.078999 0.078999 0.078999
0.079131 0.079131 0.079131
0.079264 0.079264 0.079264
0.079396 0.079396 0.079396
0.079529 0.079529 0.079529
0.079661 0.079661 0.079661
0.079794 0.079794 0.079794
0.079927 0.079927 0.079927
0.080060 0.080060 0.080060
0.080193 0.080193 0.080193
0.080326 0.080326 0.080326
0.080460 0.080460 0.080460
0.080593 0.080593 0.080593
0.080727 0.080727 0.080727
0.080861 0.080861 0.080861
0.080995 0.080995 0.080995
0.081129 0.081129 0.081129
0.081263 0.081263 0.081263
0.081397 0.081397 0.081397
0.081531 0.081531 0.081531
0.081666 0.081666 0.081666
0.081800 0.081800 0.081800
0.081935 0.081935 0.081935
0.082070 0.082070 0.082070
0.082205 0.082205 0.082205
0.082340 0.082340 0.082340
0.082475 0.082475 0.082475
